;FLAVOR:Marlin
;TIME:1441
;Filament used: 1.73739m, 0.370997m
;Layer height: 0.3
;Generated with Cura_SteamEngine master
T0
M140 S60
M105
M190 S60
M104 S200
M104 T1 S175
M105
M109 S200
M105
M109 T1 S175
M82 ;absolute extrusion mode
;Sliced at: Sat 18-05-2019 12:23:00


G21 ;metric values
M107
G28
M420 S1
G90 ;absolute positioning
G92 E0; reset extruder distance
G1 Z5 F2000 ;move nozzle up 5mm for safe homing
G1 X0 Y0 F5000; move nozzle to home
M190 S60 ;Uncomment to add your own bed temperature line
M109 S200 ;Uncomment to add your own temperature line
G29	;ABL
M82 ;set extruder to absolute mode
M107 ;start with the fan off
G1 Z15.0 F{travel_speed} ;move the platform down 15mm
G92 E0 ;zero the extruded length
G1 F200 E3 ;extrude 3mm of feed stock
G92 E0 ;zero the extruded length again
G1 F{travel_speed}
M117 Printing...
G92 E0
G1 F2400 E-0.5
;LAYER_COUNT:7
;LAYER:0
M107
G0 F2000 X11.785 Y11.537 Z0.31
;TYPE:SKIRT
G1 F2400 E0
G1 F1200 X13.3 Y10.294 E0.10103
G1 X13.593 Y10.099 E0.11917
G1 X15.325 Y9.173 E0.22042
G1 X15.652 Y9.037 E0.23868
G1 X17.526 Y8.469 E0.33963
G1 X17.872 Y8.401 E0.35781
G1 X19.823 Y8.209 E0.45888
G1 X20.175 Y8.209 E0.47702
G1 X22.127 Y8.401 E0.57814
G1 X22.473 Y8.469 E0.59632
G1 X24.347 Y9.037 E0.69727
G1 X24.674 Y9.173 E0.71553
G1 X26.406 Y10.099 E0.81678
G1 X26.699 Y10.294 E0.83492
G1 X28.212 Y11.535 E0.9358
G1 X28.462 Y11.785 E0.95403
G1 X29.705 Y13.3 E1.05506
G1 X29.9 Y13.593 E1.0732
G1 X30.826 Y15.325 E1.17445
G1 X30.962 Y15.652 E1.19271
G1 X31.53 Y17.525 E1.29361
G1 X31.598 Y17.87 E1.31174
G1 X31.791 Y19.821 E1.41281
G1 X31.791 Y20.175 E1.43106
G1 X31.598 Y22.128 E1.53223
G1 X31.53 Y22.473 E1.55036
G1 X30.962 Y24.347 E1.65131
G1 X30.827 Y24.673 E1.6695
G1 X29.902 Y26.404 E1.77068
G1 X29.706 Y26.698 E1.7889
G1 X28.464 Y28.212 E1.88986
G1 X28.214 Y28.462 E1.90808
G1 X26.699 Y29.705 E2.00911
G1 X26.406 Y29.9 E2.02725
G1 X24.674 Y30.826 E2.1285
G1 X24.347 Y30.962 E2.14676
G1 X22.473 Y31.53 E2.24771
G1 X22.128 Y31.598 E2.26584
G1 X20.177 Y31.791 E2.36691
G1 X19.823 Y31.791 E2.38516
G1 X17.871 Y31.598 E2.48628
G1 X17.526 Y31.53 E2.50441
G1 X15.652 Y30.962 E2.60536
G1 X15.325 Y30.826 E2.62362
G1 X13.593 Y29.9 E2.72487
G1 X13.3 Y29.705 E2.74302
G1 X11.785 Y28.462 E2.84404
G1 X11.535 Y28.212 E2.86227
G1 X10.293 Y26.698 E2.96322
G1 X10.097 Y26.404 E2.98144
G1 X9.172 Y24.673 E3.08262
G1 X9.037 Y24.347 E3.10081
G1 X8.469 Y22.473 E3.20176
G1 X8.401 Y22.127 E3.21994
G1 X8.209 Y20.178 E3.3209
G1 X8.209 Y19.826 E3.33905
G1 X8.401 Y17.871 E3.44032
G1 X8.469 Y17.525 E3.4585
G1 X9.037 Y15.652 E3.5594
G1 X9.173 Y15.325 E3.57766
G1 X10.099 Y13.593 E3.67891
G1 X10.294 Y13.3 E3.69706
G1 X11.535 Y11.787 E3.79794
G1 X11.785 Y11.537 E3.81616
G0 F2000 X12.039 Y11.847
G1 F1200 X13.554 Y10.604 E3.91719
G1 X13.782 Y10.451 E3.93135
G1 X15.514 Y9.525 E4.0326
G1 X15.768 Y9.42 E4.04677
G1 X17.642 Y8.852 E4.14772
G1 X17.911 Y8.799 E4.16185
G1 X19.862 Y8.607 E4.26292
G1 X20.136 Y8.607 E4.27704
G1 X22.088 Y8.799 E4.37816
G1 X22.357 Y8.852 E4.39229
G1 X24.231 Y9.42 E4.49325
G1 X24.485 Y9.525 E4.50742
G1 X26.217 Y10.451 E4.60867
G1 X26.445 Y10.604 E4.62282
G1 X27.958 Y11.845 E4.7237
G1 X28.152 Y12.039 E4.73785
G1 X29.395 Y13.554 E4.83887
G1 X29.548 Y13.782 E4.85303
G1 X30.474 Y15.514 E4.95428
G1 X30.579 Y15.768 E4.96845
G1 X31.147 Y17.641 E5.06935
G1 X31.2 Y17.909 E5.08343
G1 X31.393 Y19.86 E5.18451
G1 X31.393 Y20.136 E5.19873
G1 X31.2 Y22.089 E5.29991
G1 X31.147 Y22.357 E5.31399
G1 X30.579 Y24.231 E5.41494
G1 X30.474 Y24.485 E5.42911
G1 X29.549 Y26.216 E5.53029
G1 X29.396 Y26.444 E5.54445
G1 X28.154 Y27.958 E5.6454
G1 X27.96 Y28.152 E5.65955
G1 X26.445 Y29.395 E5.76057
G1 X26.217 Y29.548 E5.77473
G1 X24.485 Y30.474 E5.87598
G1 X24.231 Y30.579 E5.89015
G1 X22.357 Y31.147 E5.9911
G1 X22.089 Y31.2 E6.00518
G1 X20.138 Y31.393 E6.10625
G1 X19.862 Y31.393 E6.12048
G1 X17.91 Y31.2 E6.22161
G1 X17.642 Y31.147 E6.23569
G1 X15.768 Y30.579 E6.33664
G1 X15.514 Y30.474 E6.35081
G1 X13.782 Y29.548 E6.45206
G1 X13.554 Y29.395 E6.46622
G1 X12.039 Y28.152 E6.56724
G1 X11.845 Y27.958 E6.58139
G1 X10.603 Y26.444 E6.68234
G1 X10.45 Y26.216 E6.6965
G1 X9.525 Y24.485 E6.79768
G1 X9.42 Y24.231 E6.81185
G1 X8.852 Y22.357 E6.9128
G1 X8.799 Y22.088 E6.92693
G1 X8.607 Y20.139 E7.02789
G1 X8.607 Y19.865 E7.04202
G1 X8.799 Y17.91 E7.14329
G1 X8.852 Y17.641 E7.15743
G1 X9.42 Y15.768 E7.25833
G1 X9.525 Y15.514 E7.2725
G1 X10.451 Y13.782 E7.37375
G1 X10.604 Y13.554 E7.3879
G1 X11.845 Y12.041 E7.48878
G1 X12.039 Y11.847 E7.50293
G0 F2000 X12.293 Y12.156
G1 F1200 X13.808 Y10.913 E7.60396
G1 X13.971 Y10.804 E7.61406
G1 X15.703 Y9.878 E7.71532
G1 X15.884 Y9.803 E7.72542
G1 X17.758 Y9.235 E7.82637
G1 X17.95 Y9.197 E7.83646
G1 X19.901 Y9.005 E7.93752
G1 X20.097 Y9.005 E7.94763
G1 X22.049 Y9.197 E8.04874
G1 X22.241 Y9.235 E8.05884
G1 X24.115 Y9.803 E8.15979
G1 X24.296 Y9.878 E8.16989
G1 X26.028 Y10.804 E8.27114
G1 X26.191 Y10.913 E8.28125
G1 X27.704 Y12.154 E8.38213
G1 X27.843 Y12.293 E8.39226
G1 X29.086 Y13.808 E8.49329
G1 X29.195 Y13.971 E8.5034
G1 X30.121 Y15.703 E8.60465
G1 X30.196 Y15.884 E8.61475
G1 X30.764 Y17.757 E8.71565
G1 X30.802 Y17.949 E8.72574
G1 X30.995 Y19.9 E8.82681
G1 X30.995 Y20.096 E8.83692
G1 X30.802 Y22.049 E8.93809
G1 X30.764 Y22.241 E8.94818
G1 X30.196 Y24.115 E9.04913
G1 X30.121 Y24.296 E9.05923
G1 X29.196 Y26.027 E9.16041
G1 X29.087 Y26.19 E9.17052
G1 X27.845 Y27.704 E9.27148
G1 X27.706 Y27.843 E9.28161
G1 X26.191 Y29.086 E9.38264
G1 X26.028 Y29.195 E9.39275
G1 X24.296 Y30.121 E9.494
G1 X24.115 Y30.196 E9.5041
G1 X22.241 Y30.764 E9.60505
G1 X22.049 Y30.802 E9.61514
G1 X20.098 Y30.995 E9.71621
G1 X19.902 Y30.995 E9.72631
G1 X17.95 Y30.802 E9.82744
G1 X17.758 Y30.764 E9.83753
G1 X15.884 Y30.196 E9.93848
G1 X15.703 Y30.121 E9.94858
G1 X13.971 Y29.195 E10.04983
G1 X13.808 Y29.086 E10.05994
G1 X12.293 Y27.843 E10.16096
G1 X12.154 Y27.704 E10.1711
G1 X10.912 Y26.19 E10.27205
G1 X10.803 Y26.027 E10.28216
G1 X9.878 Y24.296 E10.38334
G1 X9.803 Y24.115 E10.39344
G1 X9.235 Y22.241 E10.49439
G1 X9.197 Y22.049 E10.50448
G1 X9.005 Y20.1 E10.60545
G1 X9.005 Y19.904 E10.61555
G1 X9.197 Y17.949 E10.71682
G1 X9.235 Y17.757 E10.72691
G1 X9.803 Y15.884 E10.82781
G1 X9.878 Y15.703 E10.83791
G1 X10.804 Y13.971 E10.93917
G1 X10.913 Y13.808 E10.94927
G1 X12.154 Y12.295 E11.05016
G1 X12.293 Y12.156 E11.06029
G0 F2000 X12.546 Y12.465
G1 F1200 X14.061 Y11.222 E11.16132
G1 X14.159 Y11.157 E11.16738
G1 X15.891 Y10.231 E11.26863
G1 X16 Y10.186 E11.27471
G1 X17.874 Y9.618 E11.37566
G1 X17.989 Y9.595 E11.38171
G1 X19.94 Y9.403 E11.48277
G1 X20.058 Y9.403 E11.48886
G1 X22.01 Y9.595 E11.58997
G1 X22.125 Y9.618 E11.59602
G1 X23.999 Y10.186 E11.69697
G1 X24.108 Y10.231 E11.70305
G1 X25.84 Y11.157 E11.8043
G1 X25.938 Y11.222 E11.81036
G1 X27.451 Y12.463 E11.91124
G1 X27.534 Y12.546 E11.9173
G1 X28.777 Y14.061 E12.01832
G1 X28.842 Y14.159 E12.02438
G1 X29.768 Y15.891 E12.12564
G1 X29.813 Y16 E12.13171
G1 X30.381 Y17.873 E12.23262
G1 X30.404 Y17.988 E12.23866
G1 X30.597 Y19.939 E12.33973
G1 X30.597 Y20.057 E12.34582
G1 X30.404 Y22.01 E12.44699
G1 X30.381 Y22.125 E12.45304
G1 X29.813 Y23.999 E12.55399
G1 X29.768 Y24.108 E12.56007
G1 X28.843 Y25.839 E12.66125
G1 X28.778 Y25.937 E12.66731
G1 X27.536 Y27.451 E12.76826
G1 X27.453 Y27.534 E12.77432
G1 X25.938 Y28.777 E12.87534
G1 X25.84 Y28.842 E12.88141
G1 X24.108 Y29.768 E12.98266
G1 X23.999 Y29.813 E12.98873
G1 X22.125 Y30.381 E13.08969
G1 X22.01 Y30.404 E13.09573
G1 X20.059 Y30.597 E13.1968
G1 X19.941 Y30.597 E13.20289
G1 X17.989 Y30.404 E13.30401
G1 X17.874 Y30.381 E13.31006
G1 X16 Y29.813 E13.41101
G1 X15.891 Y29.768 E13.41709
G1 X14.159 Y28.842 E13.51834
G1 X14.061 Y28.777 E13.5244
G1 X12.546 Y27.534 E13.62543
G1 X12.463 Y27.451 E13.63148
G1 X11.221 Y25.937 E13.73243
G1 X11.156 Y25.839 E13.73849
G1 X10.231 Y24.108 E13.83967
G1 X10.186 Y23.999 E13.84575
G1 X9.618 Y22.125 E13.9467
G1 X9.595 Y22.01 E13.95275
G1 X9.403 Y20.061 E14.05371
G1 X9.403 Y19.943 E14.0598
G1 X9.595 Y17.988 E14.16107
G1 X9.618 Y17.873 E14.16711
G1 X10.186 Y16 E14.26802
G1 X10.231 Y15.891 E14.2741
G1 X11.157 Y14.159 E14.37535
G1 X11.222 Y14.061 E14.38141
G1 X12.463 Y12.548 E14.48229
G1 X12.546 Y12.465 E14.48834
G0 F2000 X12.8 Y12.774
G1 F1200 X14.315 Y11.531 E14.58937
G1 X14.348 Y11.51 E14.59138
G1 X16.08 Y10.584 E14.69264
G1 X16.116 Y10.569 E14.69465
G1 X17.99 Y10.001 E14.7956
G1 X18.028 Y9.993 E14.7976
G1 X19.979 Y9.801 E14.89867
G1 X20.019 Y9.801 E14.90073
G1 X21.971 Y9.993 E15.00184
G1 X22.009 Y10.001 E15.00385
G1 X23.883 Y10.569 E15.1048
G1 X23.919 Y10.584 E15.10681
G1 X25.651 Y11.51 E15.20806
G1 X25.684 Y11.531 E15.21008
G1 X27.197 Y12.772 E15.31096
G1 X27.225 Y12.8 E15.313
G1 X28.468 Y14.315 E15.41403
G1 X28.489 Y14.348 E15.41604
G1 X29.415 Y16.08 E15.51729
G1 X29.43 Y16.116 E15.5193
G1 X29.998 Y17.989 E15.6202
G1 X30.006 Y18.027 E15.62221
G1 X30.199 Y19.978 E15.72328
G1 X30.199 Y20.018 E15.72534
G1 X30.006 Y21.971 E15.82651
G1 X29.998 Y22.009 E15.82852
G1 X29.43 Y23.883 E15.92947
G1 X29.415 Y23.919 E15.93148
G1 X28.49 Y25.65 E16.03266
G1 X28.469 Y25.683 E16.03467
G1 X27.227 Y27.197 E16.13563
G1 X27.199 Y27.225 E16.13767
G1 X25.684 Y28.468 E16.2387
G1 X25.651 Y28.489 E16.24071
G1 X23.919 Y29.415 E16.34196
G1 X23.883 Y29.43 E16.34397
G1 X22.009 Y29.998 E16.44493
G1 X21.971 Y30.006 E16.44693
G1 X20.02 Y30.199 E16.548
G1 X19.98 Y30.199 E16.55006
G1 X18.028 Y30.006 E16.65118
G1 X17.99 Y29.998 E16.65319
G1 X16.116 Y29.43 E16.75414
G1 X16.08 Y29.415 E16.75615
G1 X14.348 Y28.489 E16.8574
G1 X14.315 Y28.468 E16.85941
G1 X12.8 Y27.225 E16.96044
G1 X12.772 Y27.197 E16.96248
G1 X11.53 Y25.683 E17.06344
G1 X11.509 Y25.65 E17.06545
G1 X10.584 Y23.919 E17.16663
G1 X10.569 Y23.883 E17.16864
G1 X10.001 Y22.009 E17.26959
G1 X9.993 Y21.971 E17.2716
G1 X9.801 Y20.022 E17.37256
G1 X9.801 Y19.982 E17.37462
G1 X9.993 Y18.027 E17.47589
G1 X10.001 Y17.989 E17.4779
G1 X10.569 Y16.116 E17.5788
G1 X10.584 Y16.08 E17.58081
G1 X11.51 Y14.348 E17.68206
G1 X11.531 Y14.315 E17.68408
G1 X12.772 Y12.802 E17.78496
G1 X12.8 Y12.774 E17.787
G1 F2400 E17.287
G0 F2000 X85.4 Y6.84
G1 F2400 E17.787
G1 F1200 X85.44 Y6.463 E17.80654
G1 X85.558 Y6.103 E17.82607
G1 X85.748 Y5.776 E17.84557
G1 X86.003 Y5.495 E17.86513
G1 X86.312 Y5.275 E17.88469
G1 X86.659 Y5.123 E17.90422
G1 X87.2 Y5.04 E17.93243
G1 X107.396 Y5.04 E18.9736
G1 X107.773 Y5.08 E18.99315
G1 X108.133 Y5.198 E19.01268
G1 X108.46 Y5.388 E19.03218
G1 X108.741 Y5.643 E19.05174
G1 X108.961 Y5.952 E19.07129
G1 X109.113 Y6.299 E19.09082
G1 X109.196 Y6.84 E19.11904
G1 X109.196 Y119.036 E24.9031
G1 X109.156 Y119.413 E24.92265
G1 X109.038 Y119.773 E24.94218
G1 X108.848 Y120.1 E24.96168
G1 X108.593 Y120.381 E24.98124
G1 X108.284 Y120.601 E25.00079
G1 X107.937 Y120.753 E25.02032
G1 X107.396 Y120.836 E25.04854
G1 X10.2 Y120.836 E30.0593
G1 X9.823 Y120.796 E30.07885
G1 X9.463 Y120.678 E30.09838
G1 X9.136 Y120.488 E30.11788
G1 X8.855 Y120.233 E30.13744
G1 X8.635 Y119.924 E30.15699
G1 X8.483 Y119.577 E30.17652
G1 X8.4 Y119.036 E30.20474
G1 X8.4 Y98.84 E31.24591
G1 X8.44 Y98.463 E31.26545
G1 X8.558 Y98.103 E31.28498
G1 X8.748 Y97.776 E31.30448
G1 X9.003 Y97.495 E31.32404
G1 X9.312 Y97.275 E31.3436
G1 X9.659 Y97.123 E31.36313
G1 X10.2 Y97.04 E31.39135
G1 X85.4 Y97.04 E35.26815
G1 X85.4 Y6.84 E39.91825
G0 F2000 X85.8 Y6.84
G1 F1200 X85.84 Y6.508 E39.93549
G1 X85.957 Y6.196 E39.95266
G1 X86.145 Y5.919 E39.96992
G1 X86.393 Y5.696 E39.98712
G1 X86.687 Y5.537 E40.00435
G1 X87.011 Y5.453 E40.0216
G1 X87.2 Y5.44 E40.03137
G1 X107.396 Y5.44 E41.07254
G1 X107.728 Y5.48 E41.08978
G1 X108.04 Y5.597 E41.10696
G1 X108.317 Y5.785 E41.12421
G1 X108.54 Y6.033 E41.14141
G1 X108.699 Y6.327 E41.15864
G1 X108.783 Y6.651 E41.1759
G1 X108.796 Y6.84 E41.18566
G1 X108.796 Y119.036 E46.96973
G1 X108.756 Y119.368 E46.98697
G1 X108.639 Y119.68 E47.00414
G1 X108.451 Y119.957 E47.0214
G1 X108.203 Y120.18 E47.0386
G1 X107.909 Y120.339 E47.05583
G1 X107.585 Y120.423 E47.07308
G1 X107.396 Y120.436 E47.08285
G1 X10.2 Y120.436 E52.09361
G1 X9.868 Y120.396 E52.11085
G1 X9.556 Y120.279 E52.12803
G1 X9.279 Y120.091 E52.14529
G1 X9.056 Y119.843 E52.16249
G1 X8.897 Y119.549 E52.17972
G1 X8.813 Y119.225 E52.19697
G1 X8.8 Y119.036 E52.20674
G1 X8.8 Y98.84 E53.24791
G1 X8.84 Y98.508 E53.26515
G1 X8.957 Y98.196 E53.28232
G1 X9.145 Y97.919 E53.29958
G1 X9.393 Y97.696 E53.31678
G1 X9.687 Y97.537 E53.33401
G1 X10.011 Y97.453 E53.35126
G1 X10.2 Y97.44 E53.36103
G1 X85.8 Y97.44 E57.25845
G1 X85.8 Y6.84 E61.92917
G0 F2000 X86.2 Y6.84
G1 F1200 X86.24 Y6.561 E61.9437
G1 X86.356 Y6.304 E61.95824
G1 X86.539 Y6.089 E61.9728
G1 X86.775 Y5.935 E61.98732
G1 X87.045 Y5.852 E62.00189
G1 X87.2 Y5.84 E62.0099
G1 X107.396 Y5.84 E63.05107
G1 X107.675 Y5.88 E63.0656
G1 X107.932 Y5.996 E63.08014
G1 X108.147 Y6.179 E63.09469
G1 X108.301 Y6.415 E63.10922
G1 X108.384 Y6.685 E63.12378
G1 X108.396 Y6.84 E63.1318
G1 X108.396 Y119.036 E68.91586
G1 X108.356 Y119.315 E68.93039
G1 X108.24 Y119.572 E68.94493
G1 X108.057 Y119.787 E68.95948
G1 X107.821 Y119.941 E68.97401
G1 X107.551 Y120.024 E68.98857
G1 X107.396 Y120.036 E68.99659
G1 X10.2 Y120.036 E74.00735
G1 X9.921 Y119.996 E74.02188
G1 X9.664 Y119.88 E74.03642
G1 X9.449 Y119.697 E74.05097
G1 X9.295 Y119.461 E74.0655
G1 X9.212 Y119.191 E74.08006
G1 X9.2 Y119.036 E74.08808
G1 X9.2 Y98.84 E75.12925
G1 X9.24 Y98.561 E75.14378
G1 X9.356 Y98.304 E75.15831
G1 X9.539 Y98.089 E75.17287
G1 X9.775 Y97.935 E75.1874
G1 X10.045 Y97.852 E75.20196
G1 X10.2 Y97.84 E75.20997
G1 X86.2 Y97.84 E79.12802
G1 X86.2 Y6.84 E83.81936
G0 F2000 X86.6 Y6.84
G1 F1200 X86.64 Y6.625 E83.83063
G1 X86.753 Y6.439 E83.84185
G1 X86.926 Y6.306 E83.8531
G1 X87.2 Y6.24 E83.86763
G1 X107.396 Y6.24 E84.9088
G1 X107.611 Y6.28 E84.92008
G1 X107.797 Y6.393 E84.9313
G1 X107.93 Y6.566 E84.94255
G1 X107.996 Y6.84 E84.95708
G1 X107.996 Y119.036 E90.74114
G1 X107.956 Y119.251 E90.75241
G1 X107.843 Y119.437 E90.76363
G1 X107.67 Y119.57 E90.77488
G1 X107.396 Y119.636 E90.78941
G1 X10.2 Y119.636 E95.80018
G1 X9.985 Y119.596 E95.81145
G1 X9.799 Y119.483 E95.82267
G1 X9.666 Y119.31 E95.83392
G1 X9.6 Y119.036 E95.84845
G1 X9.6 Y98.84 E96.88962
G1 X9.64 Y98.625 E96.90089
G1 X9.753 Y98.439 E96.91211
G1 X9.926 Y98.306 E96.92336
G1 X10.2 Y98.24 E96.93789
G1 X86.6 Y98.24 E100.87656
G1 X86.6 Y6.84 E105.58852
G0 F2000 X87 Y6.84
G1 F1200 X87.039 Y6.721 E105.59498
G1 X87.2 Y6.64 E105.60427
G1 X107.396 Y6.64 E106.64544
G1 X107.515 Y6.679 E106.65189
G1 X107.596 Y6.84 E106.66118
G1 X107.596 Y119.036 E112.44525
G1 X107.557 Y119.155 E112.4517
G1 X107.396 Y119.236 E112.461
G1 X10.2 Y119.236 E117.47176
G1 X10.081 Y119.197 E117.47822
G1 X10 Y119.036 E117.48751
G1 X10 Y98.84 E118.52868
G1 X10.039 Y98.721 E118.53513
G1 X10.2 Y98.64 E118.54442
G1 X87 Y98.64 E122.50371
G1 X87 Y6.84 E127.2363
G1 F2400 E126.7363
;MESH:dual_extruder_calibration_V2_-_extr0.stl
G0 F2000 X29.61 Y18.086
;TYPE:SUPPORT
G1 F2400 E127.2363
G1 F1200 X29.799 Y20 E127.33545
G1 X29.61 Y21.913 E127.43455
G1 X29.053 Y23.75 E127.53351
G1 X28.149 Y25.44 E127.63232
G1 X26.929 Y26.929 E127.73156
G1 X25.44 Y28.149 E127.83079
G1 X23.75 Y29.053 E127.9296
G1 X21.913 Y29.61 E128.02856
G1 X20 Y29.799 E128.12766
G1 X18.086 Y29.61 E128.22682
G1 X16.249 Y29.053 E128.32578
G1 X14.559 Y28.149 E128.42458
G1 X13.07 Y26.929 E128.52382
G1 X11.85 Y25.44 E128.62306
G1 X10.946 Y23.75 E128.72187
G1 X10.389 Y21.913 E128.82083
G1 X10.201 Y20 E128.91992
G1 X10.389 Y18.086 E129.01907
G1 X10.946 Y16.249 E129.11803
G1 X11.85 Y14.559 E129.21684
G1 X13.07 Y13.07 E129.31608
G1 X14.559 Y11.85 E129.41532
G1 X16.249 Y10.946 E129.51412
G1 X18.086 Y10.389 E129.61308
G1 X19.999 Y10.201 E129.71218
G1 X21.913 Y10.389 E129.81133
G1 X23.75 Y10.946 E129.91029
G1 X25.44 Y11.85 E130.00909
G1 X26.929 Y13.07 E130.10833
G1 X28.149 Y14.559 E130.20757
G1 X29.053 Y16.249 E130.30638
G1 X29.61 Y18.086 E130.40534
G0 F2000 X29.216 Y18.166
G1 F1200 X29.397 Y20 E130.50035
G1 X29.216 Y21.833 E130.5953
G1 X28.682 Y23.595 E130.69022
G1 X27.813 Y25.218 E130.78513
G1 X26.645 Y26.645 E130.8802
G1 X25.218 Y27.813 E130.97526
G1 X23.595 Y28.682 E131.07017
G1 X21.833 Y29.216 E131.16509
G1 X20 Y29.397 E131.26005
