;FLAVOR:Marlin
;TIME:908
;Filament used: 1.8232m, 0.498079m
;Layer height: 0.4
;Generated with Cura_SteamEngine master
T0
M140 S60
M105
M190 S60
M104 S210
M104 T1 S175
M105
M109 S210
M105
M109 T1 S175
M82 ;absolute extrusion mode
;Sliced at: Sat 18-05-2019 12:26:41


G21 ;metric values
M107
G28
M420 S1
G90 ;absolute positioning
G92 E0; reset extruder distance
G1 Z5 F2000 ;move nozzle up 5mm for safe homing
G1 X0 Y0 F5000; move nozzle to home
M190 S60 ;Uncomment to add your own bed temperature line
M109 S210 ;Uncomment to add your own temperature line
G29	;ABL
M82 ;set extruder to absolute mode
M107 ;start with the fan off
G1 Z15.0 F{travel_speed} ;move the platform down 15mm
G92 E0 ;zero the extruded length
G1 F200 E3 ;extrude 3mm of feed stock
G92 E0 ;zero the extruded length again
G1 F{travel_speed}
M117 Printing...
G92 E0
G1 F2400 E-0.5
;LAYER_COUNT:6
;LAYER:0
M107
G0 F2000 X11.214 Y10.842 Z0.47
;TYPE:SKIRT
G1 F2400 E0
G1 F1200 X12.729 Y9.599 E0.22975
G1 X13.169 Y9.305 E0.2918
G1 X14.901 Y8.379 E0.52206
G1 X15.391 Y8.176 E0.58424
G1 X17.265 Y7.608 E0.81383
G1 X17.784 Y7.505 E0.87586
G1 X19.735 Y7.313 E1.10571
G1 X20.263 Y7.313 E1.16761
G1 X22.215 Y7.505 E1.39757
G1 X22.734 Y7.608 E1.45961
G1 X24.608 Y8.176 E1.68919
G1 X25.098 Y8.379 E1.75137
G1 X26.83 Y9.305 E1.98163
G1 X27.269 Y9.598 E2.04351
G1 X28.782 Y10.839 E2.27294
G1 X29.157 Y11.214 E2.33512
G1 X30.4 Y12.729 E2.56487
G1 X30.694 Y13.169 E2.62691
G1 X31.62 Y14.901 E2.85718
G1 X31.823 Y15.39 E2.91925
G1 X32.391 Y17.263 E3.14872
G1 X32.494 Y17.781 E3.21064
G1 X32.687 Y19.732 E3.4405
G1 X32.687 Y20.264 E3.50287
G1 X32.494 Y22.217 E3.73296
G1 X32.391 Y22.734 E3.79476
G1 X31.823 Y24.608 E4.02435
G1 X31.62 Y25.098 E4.08653
G1 X30.695 Y26.829 E4.31663
G1 X30.401 Y27.268 E4.37858
G1 X29.159 Y28.782 E4.60817
G1 X28.785 Y29.157 E4.67026
G1 X27.27 Y30.4 E4.90002
G1 X26.83 Y30.694 E4.96206
G1 X25.098 Y31.62 E5.19232
G1 X24.608 Y31.823 E5.25451
G1 X22.734 Y32.391 E5.48409
G1 X22.217 Y32.494 E5.54589
G1 X20.266 Y32.687 E5.77575
G1 X19.734 Y32.687 E5.83812
G1 X17.782 Y32.494 E6.06809
G1 X17.265 Y32.391 E6.1299
G1 X15.391 Y31.823 E6.35948
G1 X14.901 Y31.62 E6.42166
G1 X13.169 Y30.694 E6.65193
G1 X12.729 Y30.4 E6.71397
G1 X11.214 Y29.157 E6.94373
G1 X10.84 Y28.782 E7.00582
G1 X9.598 Y27.268 E7.23541
G1 X9.304 Y26.829 E7.29735
G1 X8.379 Y25.098 E7.52746
G1 X8.176 Y24.608 E7.58964
G1 X7.608 Y22.734 E7.81922
G1 X7.505 Y22.216 E7.88114
G1 X7.313 Y20.267 E8.11076
G1 X7.313 Y19.738 E8.17278
G1 X7.505 Y17.783 E8.40309
G1 X7.608 Y17.263 E8.46524
G1 X8.176 Y15.39 E8.69471
G1 X8.379 Y14.901 E8.75678
G1 X9.305 Y13.169 E8.98705
G1 X9.598 Y12.73 E9.04893
G1 X10.839 Y11.217 E9.27835
G1 X11.214 Y10.842 E9.34053
G0 F2000 X11.595 Y11.306
G1 F1200 X13.11 Y10.063 E9.57028
G1 X13.452 Y9.834 E9.61854
G1 X15.184 Y8.908 E9.8488
G1 X15.565 Y8.75 E9.89716
G1 X17.439 Y8.182 E10.12674
G1 X17.842 Y8.102 E10.17491
G1 X19.793 Y7.91 E10.40475
G1 X20.205 Y7.91 E10.45306
G1 X22.157 Y8.102 E10.68302
G1 X22.56 Y8.182 E10.73119
G1 X24.434 Y8.75 E10.96077
G1 X24.815 Y8.908 E11.00913
G1 X26.547 Y9.834 E11.23939
G1 X26.889 Y10.062 E11.28758
G1 X28.402 Y11.303 E11.51701
G1 X28.693 Y11.595 E11.56534
G1 X29.936 Y13.11 E11.79509
G1 X30.165 Y13.452 E11.84335
G1 X31.091 Y15.184 E12.07361
G1 X31.249 Y15.565 E12.12197
G1 X31.817 Y17.438 E12.35144
G1 X31.897 Y17.84 E12.3995
G1 X32.09 Y19.791 E12.62935
G1 X32.09 Y20.205 E12.67789
G1 X31.897 Y22.158 E12.90798
G1 X31.817 Y22.56 E12.95603
G1 X31.249 Y24.434 E13.18562
G1 X31.091 Y24.815 E13.23397
G1 X30.166 Y26.546 E13.46408
G1 X29.938 Y26.888 E13.51227
G1 X28.696 Y28.402 E13.74186
G1 X28.404 Y28.693 E13.79019
G1 X26.889 Y29.936 E14.01995
G1 X26.547 Y30.165 E14.0682
G1 X24.815 Y31.091 E14.29846
G1 X24.434 Y31.249 E14.34682
G1 X22.56 Y31.817 E14.5764
G1 X22.158 Y31.897 E14.62446
G1 X20.207 Y32.09 E14.85432
G1 X19.793 Y32.09 E14.90285
G1 X17.841 Y31.897 E15.13283
G1 X17.439 Y31.817 E15.18088
G1 X15.565 Y31.249 E15.41046
G1 X15.184 Y31.091 E15.45882
G1 X13.452 Y30.165 E15.68908
G1 X13.11 Y29.936 E15.73734
G1 X11.595 Y28.693 E15.96709
G1 X11.303 Y28.402 E16.01543
G1 X10.061 Y26.888 E16.24502
G1 X9.833 Y26.546 E16.29321
G1 X8.908 Y24.815 E16.52331
G1 X8.75 Y24.434 E16.57167
G1 X8.182 Y22.56 E16.80125
G1 X8.102 Y22.157 E16.84942
G1 X7.91 Y20.208 E17.07903
G1 X7.91 Y19.797 E17.12722
G1 X8.102 Y17.842 E17.35753
G1 X8.182 Y17.438 E17.40581
G1 X8.75 Y15.565 E17.63528
G1 X8.908 Y15.184 E17.68364
G1 X9.834 Y13.452 E17.91391
G1 X10.062 Y13.11 E17.9621
G1 X11.303 Y11.597 E18.19152
G1 X11.595 Y11.306 E18.23985
G0 F2000 X11.976 Y11.769
G1 F1200 X13.491 Y10.526 E18.46961
G1 X13.735 Y10.363 E18.50401
G1 X15.467 Y9.437 E18.73427
G1 X15.739 Y9.324 E18.76881
G1 X17.613 Y8.756 E18.99839
G1 X17.901 Y8.699 E19.03281
G1 X19.852 Y8.507 E19.26265
G1 X20.146 Y8.507 E19.29712
G1 X22.098 Y8.699 E19.52708
G1 X22.386 Y8.756 E19.5615
G1 X24.26 Y9.324 E19.79108
G1 X24.532 Y9.437 E19.82562
G1 X26.264 Y10.363 E20.05588
G1 X26.508 Y10.526 E20.09028
G1 X28.021 Y11.767 E20.31971
G1 X28.23 Y11.976 E20.35436
G1 X29.473 Y13.491 E20.58412
G1 X29.636 Y13.735 E20.61852
G1 X30.562 Y15.467 E20.84878
G1 X30.674 Y15.739 E20.88327
G1 X31.242 Y17.612 E21.11274
G1 X31.3 Y17.899 E21.14707
G1 X31.493 Y19.85 E21.37692
G1 X31.493 Y20.146 E21.41163
G1 X31.3 Y22.099 E21.64172
G1 X31.243 Y22.386 E21.67602
G1 X30.675 Y24.26 E21.9056
G1 X30.562 Y24.532 E21.94014
G1 X29.637 Y26.263 E22.17024
G1 X29.474 Y26.507 E22.20464
G1 X28.232 Y28.021 E22.43423
G1 X28.023 Y28.23 E22.46889
G1 X26.508 Y29.473 E22.69864
G1 X26.264 Y29.636 E22.73304
G1 X24.532 Y30.562 E22.96331
G1 X24.26 Y30.675 E22.99784
G1 X22.386 Y31.243 E23.22742
G1 X22.099 Y31.3 E23.26173
G1 X20.148 Y31.493 E23.49158
G1 X19.852 Y31.493 E23.52629
G1 X17.9 Y31.3 E23.75626
G1 X17.613 Y31.243 E23.79056
G1 X15.739 Y30.675 E24.02015
G1 X15.467 Y30.562 E24.05468
G1 X13.735 Y29.636 E24.28494
G1 X13.491 Y29.473 E24.31935
G1 X11.976 Y28.23 E24.5491
G1 X11.767 Y28.021 E24.58375
G1 X10.525 Y26.507 E24.81334
G1 X10.362 Y26.263 E24.84775
G1 X9.437 Y24.532 E25.07785
G1 X9.324 Y24.26 E25.11238
G1 X8.756 Y22.386 E25.34196
G1 X8.699 Y22.098 E25.37639
G1 X8.507 Y20.149 E25.606
G1 X8.507 Y19.855 E25.64047
G1 X8.699 Y17.9 E25.87078
G1 X8.757 Y17.612 E25.90522
G1 X9.325 Y15.739 E26.13469
G1 X9.437 Y15.467 E26.16918
G1 X10.363 Y13.735 E26.39944
G1 X10.526 Y13.491 E26.43384
G1 X11.767 Y11.978 E26.66327
G1 X11.976 Y11.769 E26.69792
G0 F2000 X12.356 Y12.233
G1 F1200 X13.871 Y10.99 E26.92768
G1 X14.018 Y10.892 E26.94839
G1 X15.75 Y9.966 E27.17865
G1 X15.913 Y9.899 E27.19931
G1 X17.787 Y9.331 E27.4289
G1 X17.96 Y9.296 E27.44959
G1 X19.911 Y9.104 E27.67943
G1 X20.087 Y9.104 E27.70007
G1 X22.039 Y9.296 E27.93003
G1 X22.212 Y9.331 E27.95072
G1 X24.086 Y9.899 E28.1803
G1 X24.249 Y9.966 E28.20097
G1 X25.981 Y10.892 E28.43123
G1 X26.128 Y10.99 E28.45194
G1 X27.641 Y12.231 E28.68137
G1 X27.766 Y12.356 E28.70209
G1 X29.009 Y13.871 E28.93185
G1 X29.107 Y14.018 E28.95256
G1 X30.033 Y15.75 E29.18283
G1 X30.1 Y15.913 E29.20349
G1 X30.668 Y17.786 E29.43296
G1 X30.703 Y17.958 E29.45354
G1 X30.896 Y19.909 E29.68339
G1 X30.896 Y20.087 E29.70426
G1 X30.703 Y22.04 E29.93435
G1 X30.668 Y22.212 E29.95493
G1 X30.1 Y24.086 E30.18451
G1 X30.033 Y24.249 E30.20517
G1 X29.108 Y25.98 E30.43528
G1 X29.01 Y26.127 E30.45599
G1 X27.768 Y27.641 E30.68558
G1 X27.643 Y27.766 E30.70631
G1 X26.128 Y29.009 E30.93606
G1 X25.981 Y29.107 E30.95677
G1 X24.249 Y30.033 E31.18704
G1 X24.086 Y30.1 E31.2077
G1 X22.212 Y30.668 E31.43728
G1 X22.04 Y30.703 E31.45786
G1 X20.089 Y30.896 E31.68771
G1 X19.911 Y30.896 E31.70858
G1 X17.959 Y30.703 E31.93856
G1 X17.787 Y30.668 E31.95913
G1 X15.913 Y30.1 E32.18872
G1 X15.75 Y30.033 E32.20938
G1 X14.018 Y29.107 E32.43964
G1 X13.871 Y29.009 E32.46036
G1 X12.356 Y27.766 E32.69011
G1 X12.231 Y27.641 E32.71084
G1 X10.989 Y26.127 E32.94043
G1 X10.891 Y25.98 E32.96114
G1 X9.966 Y24.249 E33.19124
G1 X9.899 Y24.086 E33.2119
G1 X9.331 Y22.212 E33.44149
G1 X9.296 Y22.039 E33.46218
G1 X9.104 Y20.09 E33.69179
G1 X9.104 Y19.914 E33.71243
G1 X9.296 Y17.959 E33.94274
G1 X9.331 Y17.786 E33.96343
G1 X9.899 Y15.913 E34.1929
G1 X9.966 Y15.75 E34.21356
G1 X10.892 Y14.018 E34.44383
G1 X10.99 Y13.871 E34.46454
G1 X12.231 Y12.358 E34.69396
G1 X12.356 Y12.233 E34.71469
G0 F2000 X12.737 Y12.697
G1 F1200 X14.252 Y11.454 E34.94444
G1 X14.301 Y11.421 E34.95137
G1 X16.033 Y10.495 E35.18163
G1 X16.087 Y10.473 E35.18847
G1 X17.961 Y9.905 E35.41805
G1 X18.019 Y9.893 E35.425
G1 X19.97 Y9.701 E35.65484
G1 X20.028 Y9.701 E35.66164
G1 X21.98 Y9.893 E35.8916
G1 X22.038 Y9.905 E35.89854
G1 X23.912 Y10.473 E36.12813
G1 X23.966 Y10.495 E36.13496
G1 X25.698 Y11.421 E36.36523
G1 X25.747 Y11.454 E36.37215
G1 X27.26 Y12.695 E36.60158
G1 X27.302 Y12.737 E36.60854
G1 X28.545 Y14.252 E36.8383
G1 X28.578 Y14.301 E36.84522
G1 X29.504 Y16.033 E37.07548
G1 X29.526 Y16.087 E37.08232
G1 X30.094 Y17.96 E37.31179
G1 X30.106 Y18.017 E37.31862
G1 X30.299 Y19.968 E37.54848
G1 X30.299 Y20.028 E37.55551
G1 X30.106 Y21.981 E37.7856
G1 X30.094 Y22.038 E37.79243
G1 X29.526 Y23.912 E38.02201
G1 X29.504 Y23.966 E38.02885
G1 X28.579 Y25.697 E38.25895
G1 X28.546 Y25.746 E38.26588
G1 X27.304 Y27.26 E38.49547
G1 X27.262 Y27.302 E38.50243
G1 X25.747 Y28.545 E38.73219
G1 X25.698 Y28.578 E38.73911
G1 X23.966 Y29.504 E38.96937
G1 X23.912 Y29.526 E38.97621
G1 X22.038 Y30.094 E39.20579
G1 X21.981 Y30.106 E39.21262
G1 X20.03 Y30.299 E39.44248
G1 X19.97 Y30.299 E39.44951
G1 X18.018 Y30.106 E39.67948
G1 X17.961 Y30.094 E39.68631
G1 X16.087 Y29.526 E39.9159
G1 X16.033 Y29.504 E39.92273
G1 X14.301 Y28.578 E40.153
G1 X14.252 Y28.545 E40.15992
G1 X12.737 Y27.302 E40.38968
G1 X12.695 Y27.26 E40.39664
G1 X11.453 Y25.746 E40.62623
G1 X11.42 Y25.697 E40.63316
G1 X10.495 Y23.966 E40.86326
G1 X10.473 Y23.912 E40.8701
G1 X9.905 Y22.038 E41.09968
G1 X9.893 Y21.98 E41.10662
G1 X9.701 Y20.031 E41.33623
G1 X9.701 Y19.973 E41.34303
G1 X9.893 Y18.018 E41.57334
G1 X9.905 Y17.96 E41.58029
G1 X10.473 Y16.087 E41.80976
G1 X10.495 Y16.033 E41.81659
G1 X11.421 Y14.301 E42.04686
G1 X11.454 Y14.252 E42.05378
G1 X12.695 Y12.739 E42.28321
G1 X12.737 Y12.697 E42.29017
G1 F2400 E41.79017
G0 F2000 X84.5 Y6.84
G1 F2400 E42.29017
G1 F1200 X84.54 Y6.377 E42.34466
G1 X84.659 Y5.928 E42.39912
G1 X84.852 Y5.506 E42.45352
G1 X85.115 Y5.124 E42.5079
G1 X85.44 Y4.792 E42.56237
G1 X85.817 Y4.521 E42.6168
G1 X86.235 Y4.318 E42.67128
G1 X86.681 Y4.19 E42.72568
G1 X87.2 Y4.14 E42.78681
G1 X107.396 Y4.14 E45.15463
G1 X107.859 Y4.18 E45.20912
G1 X108.308 Y4.299 E45.26358
G1 X108.73 Y4.492 E45.31798
G1 X109.112 Y4.755 E45.37236
G1 X109.444 Y5.08 E45.42683
G1 X109.715 Y5.457 E45.48126
G1 X109.918 Y5.875 E45.53574
G1 X110.046 Y6.321 E45.59014
G1 X110.096 Y6.84 E45.65127
G1 X110.096 Y119.036 E58.80535
G1 X110.056 Y119.499 E58.85984
G1 X109.937 Y119.948 E58.9143
G1 X109.744 Y120.37 E58.9687
G1 X109.481 Y120.752 E59.02308
G1 X109.156 Y121.084 E59.07755
G1 X108.779 Y121.355 E59.13198
G1 X108.361 Y121.558 E59.18646
G1 X107.915 Y121.686 E59.24086
G1 X107.396 Y121.736 E59.30199
G1 X10.2 Y121.736 E70.69745
G1 X9.737 Y121.696 E70.75193
G1 X9.288 Y121.577 E70.80639
G1 X8.866 Y121.384 E70.86079
G1 X8.484 Y121.121 E70.91517
G1 X8.152 Y120.796 E70.96964
G1 X7.881 Y120.419 E71.02407
G1 X7.678 Y120.001 E71.07855
G1 X7.55 Y119.555 E71.13296
G1 X7.5 Y119.036 E71.19409
G1 X7.5 Y98.84 E73.5619
G1 X7.54 Y98.377 E73.61639
G1 X7.659 Y97.928 E73.67085
G1 X7.852 Y97.506 E73.72525
G1 X8.115 Y97.124 E73.77963
G1 X8.44 Y96.792 E73.8341
G1 X8.817 Y96.521 E73.88853
G1 X9.235 Y96.318 E73.94301
G1 X9.681 Y96.19 E73.99742
G1 X10.2 Y96.14 E74.05855
G1 X84.5 Y96.14 E82.76962
G1 X84.5 Y6.84 E93.23933
G0 F2000 X85.1 Y6.84
G1 F1200 X85.14 Y6.433 E93.28728
G1 X85.258 Y6.041 E93.33528
G1 X85.45 Y5.679 E93.38332
G1 X85.709 Y5.362 E93.43131
G1 X86.024 Y5.1 E93.47935
G1 X86.384 Y4.905 E93.52735
G1 X86.775 Y4.784 E93.57534
G1 X87.2 Y4.74 E93.62543
G1 X107.396 Y4.74 E95.99325
G1 X107.803 Y4.78 E96.0412
G1 X108.195 Y4.898 E96.08919
G1 X108.557 Y5.09 E96.13723
G1 X108.874 Y5.349 E96.18523
G1 X109.136 Y5.664 E96.23326
G1 X109.331 Y6.024 E96.28126
G1 X109.452 Y6.415 E96.32925
G1 X109.496 Y6.84 E96.37934
G1 X109.496 Y119.036 E109.53343
G1 X109.456 Y119.443 E109.58137
G1 X109.338 Y119.835 E109.62937
G1 X109.146 Y120.197 E109.67741
G1 X108.887 Y120.514 E109.7254
G1 X108.572 Y120.776 E109.77344
G1 X108.212 Y120.971 E109.82144
G1 X107.821 Y121.092 E109.86943
G1 X107.396 Y121.136 E109.91952
G1 X10.2 Y121.136 E121.31497
G1 X9.793 Y121.096 E121.36292
G1 X9.401 Y120.978 E121.41092
G1 X9.039 Y120.786 E121.45896
G1 X8.722 Y120.527 E121.50695
G1 X8.46 Y120.212 E121.55499
G1 X8.265 Y119.852 E121.60299
G1 X8.144 Y119.461 E121.65098
G1 X8.1 Y119.036 E121.70107
G1 X8.1 Y98.84 E124.06889
G1 X8.14 Y98.433 E124.11684
G1 X8.258 Y98.041 E124.16483
G1 X8.45 Y97.679 E124.21287
G1 X8.709 Y97.362 E124.26087
G1 X9.024 Y97.1 E124.3089
G1 X9.384 Y96.905 E124.3569
G1 X9.775 Y96.784 E124.40489
G1 X10.2 Y96.74 E124.45499
G1 X85.1 Y96.74 E133.23641
G1 X85.1 Y6.84 E143.77646
G0 F2000 X85.7 Y6.84
G1 F1200 X85.74 Y6.496 E143.81707
G1 X85.857 Y6.171 E143.85756
G1 X86.046 Y5.881 E143.89815
G1 X86.296 Y5.643 E143.93862
G1 X86.595 Y5.468 E143.97923
G1 X86.925 Y5.365 E144.01976
G1 X87.2 Y5.34 E144.05214
G1 X107.396 Y5.34 E146.41996
G1 X107.74 Y5.38 E146.46056
G1 X108.065 Y5.497 E146.50106
G1 X108.355 Y5.686 E146.54164
G1 X108.593 Y5.936 E146.58211
G1 X108.768 Y6.235 E146.62273
G1 X108.871 Y6.565 E146.66326
G1 X108.896 Y6.84 E146.69563
G1 X108.896 Y119.036 E159.84971
G1 X108.856 Y119.38 E159.89032
G1 X108.739 Y119.705 E159.93082
G1 X108.55 Y119.995 E159.9714
G1 X108.3 Y120.233 E160.01187
G1 X108.001 Y120.408 E160.05249
G1 X107.671 Y120.511 E160.09302
G1 X107.396 Y120.536 E160.12539
G1 X10.2 Y120.536 E171.52084
G1 X9.856 Y120.496 E171.56144
G1 X9.531 Y120.379 E171.60194
G1 X9.241 Y120.19 E171.64253
G1 X9.003 Y119.94 E171.68299
G1 X8.828 Y119.641 E171.72361
G1 X8.725 Y119.311 E171.76414
G1 X8.7 Y119.036 E171.79652
G1 X8.7 Y98.84 E174.16434
G1 X8.74 Y98.496 E174.20494
G1 X8.857 Y98.171 E174.24544
G1 X9.046 Y97.881 E174.28602
G1 X9.296 Y97.643 E174.32649
G1 X9.595 Y97.468 E174.36711
G1 X9.925 Y97.365 E174.40764
G1 X10.2 Y97.34 E174.44001
G1 X85.7 Y97.34 E183.29178
G1 X85.7 Y6.84 E193.90218
G0 F2000 X86.3 Y6.84
G1 F1200 X86.34 Y6.575 E193.9336
G1 X86.456 Y6.334 E193.96496
G1 X86.637 Y6.138 E193.99624
G1 X86.869 Y6.003 E194.02771
G1 X87.2 Y5.94 E194.06721
G1 X107.396 Y5.94 E196.43503
G1 X107.661 Y5.98 E196.46645
G1 X107.902 Y6.096 E196.49781
G1 X108.098 Y6.277 E196.52909
G1 X108.233 Y6.509 E196.56056
G1 X108.296 Y6.84 E196.60006
G1 X108.296 Y119.036 E209.75414
G1 X108.256 Y119.301 E209.78557
G1 X108.14 Y119.542 E209.81692
G1 X107.959 Y119.738 E209.8482
G1 X107.727 Y119.873 E209.87967
G1 X107.396 Y119.936 E209.91918
G1 X10.2 Y119.936 E221.31463
G1 X9.935 Y119.896 E221.34605
G1 X9.694 Y119.78 E221.37741
G1 X9.498 Y119.599 E221.40869
G1 X9.363 Y119.367 E221.44016
G1 X9.3 Y119.036 E221.47966
G1 X9.3 Y98.84 E223.84748
G1 X9.34 Y98.575 E223.8789
G1 X9.456 Y98.334 E223.91026
G1 X9.637 Y98.138 E223.94154
G1 X9.869 Y98.003 E223.97301
G1 X10.2 Y97.94 E224.01251
G1 X86.3 Y97.94 E232.93462
G1 X86.3 Y6.84 E243.61537
G0 F2000 X86.9 Y6.84
G1 F1200 X86.939 Y6.691 E243.63343
G1 X87.047 Y6.582 E243.65142
G1 X87.2 Y6.54 E243.67002
G1 X107.396 Y6.54 E246.03784
G1 X107.545 Y6.579 E246.05589
G1 X107.654 Y6.687 E246.07388
G1 X107.696 Y6.84 E246.09249
G1 X107.696 Y119.036 E259.24657
G1 X107.657 Y119.185 E259.26462
G1 X107.549 Y119.294 E259.28261
G1 X107.396 Y119.336 E259.30122
G1 X10.2 Y119.336 E270.69667
G1 X10.051 Y119.297 E270.71472
G1 X9.942 Y119.189 E270.73271
G1 X9.9 Y119.036 E270.75132
G1 X9.9 Y98.84 E273.11914
G1 X9.939 Y98.691 E273.13719
G1 X10.047 Y98.582 E273.15518
G1 X10.2 Y98.54 E273.17378
G1 X86.9 Y98.54 E282.16624
G1 X86.9 Y6.84 E292.91733
G1 F2400 E292.41733
;MESH:dual_extruder_calibration_V2_-_extr0.stl
G0 F2000 X29.511 Y18.105
;TYPE:SUPPORT
G1 F2400 E292.91733
G1 F1200 X29.698 Y20 E293.14059
G1 X29.511 Y21.894 E293.36372
G1 X28.96 Y23.709 E293.58611
G1 X28.062 Y25.389 E293.80944
G1 X26.858 Y26.858 E294.03213
