;FLAVOR:Marlin
;TIME:2363
;Filament used: 4.7905m, 0m
;Layer height: 0.4
;Generated with Cura_SteamEngine master
T0
M140 S60
M105
M190 S60
M104 S200
M105
M109 S200
M82 ;absolute extrusion mode
;Sliced at: Sat 18-05-2019 12:08:23


G21 ;metric values
M107
G28
M420 S1
G90 ;absolute positioning
G92 E0; reset extruder distance
G1 Z5 F2000 ;move nozzle up 5mm for safe homing
G1 X0 Y0 F5000; move nozzle to home
M190 S60 ;Uncomment to add your own bed temperature line
M109 S200 ;Uncomment to add your own temperature line
G29	;ABL
M82 ;set extruder to absolute mode
M107 ;start with the fan off
G1 Z15.0 F{travel_speed} ;move the platform down 15mm
G92 E0 ;zero the extruded length
G1 F200 E3 ;extrude 3mm of feed stock
G92 E0 ;zero the extruded length again
G1 F{travel_speed}
M117 Printing...
G92 E0
G1 F2400 E-0.5
;LAYER_COUNT:3
;LAYER:0
M107
G0 F2000 X2.66 Y2.691 Z0.31
;TYPE:SKIRT
G1 F2400 E0
G1 F1200 X3.048 Y2.355 E0.03969
G1 X3.483 Y2.083 E0.07936
G1 X3.956 Y1.882 E0.11911
G1 X4.453 Y1.756 E0.15876
G1 X5.009 Y1.709 E0.2019
G1 X53.744 Y1.71 E3.97057
G1 X54.256 Y1.75 E4.01029
G1 X54.755 Y1.869 E4.04996
G1 X55.23 Y2.064 E4.08966
G1 X55.692 Y2.346 E4.13152
G1 X59.346 Y5.017 E4.48152
G1 X63.907 Y8.013 E4.90351
G1 X68.652 Y10.759 E5.32746
G1 X73.515 Y13.216 E5.74878
G1 X78.573 Y15.423 E6.17553
G1 X81.094 Y16.397 E6.38452
G1 X86.269 Y18.15 E6.80704
G1 X91.552 Y19.611 E7.23091
G1 X96.944 Y20.781 E7.65758
G1 X99.545 Y21.228 E7.86166
G1 X105.024 Y21.937 E8.28888
G1 X110.449 Y22.327 E8.70948
G1 X115.944 Y22.413 E9.13446
G1 X121.399 Y22.188 E9.55665
G1 X126.834 Y21.655 E9.97895
G1 X132.281 Y20.808 E10.40523
G1 X134.89 Y20.288 E10.61095
G1 X137.568 Y19.675 E10.8234
G1 X142.876 Y18.222 E11.24897
G1 X148.07 Y16.477 E11.67268
G1 X150.563 Y15.522 E11.87912
G1 X155.626 Y13.328 E12.30582
G1 X160.516 Y10.873 E12.72895
G1 X165.255 Y8.147 E13.15172
G1 X169.836 Y5.155 E13.57483
G1 X173.691 Y2.343 E13.94382
G1 X174.128 Y2.074 E13.9835
G1 X174.602 Y1.875 E14.02325
G1 X175.1 Y1.753 E14.0629
G1 X175.636 Y1.709 E14.10449
G1 X224.372 Y1.711 E17.87324
G1 X224.884 Y1.751 E17.91295
G1 X225.383 Y1.87 E17.95262
G1 X225.858 Y2.065 E17.99233
G1 X226.283 Y2.321 E18.03069
G1 X232.238 Y6.552 E18.59559
G1 X236.889 Y9.42 E19.01813
G1 X241.695 Y12.023 E19.44079
G1 X246.641 Y14.35 E19.86348
G1 X251.779 Y16.422 E20.29189
G1 X254.271 Y17.303 E20.49629
G1 X259.521 Y18.917 E20.92102
G1 X264.865 Y20.234 E21.34663
G1 X267.536 Y20.775 E21.55738
G1 X270.17 Y21.228 E21.76405
G1 X275.649 Y21.937 E22.19128
G1 X281.074 Y22.327 E22.61187
G1 X286.569 Y22.413 E23.03685
G1 X292.024 Y22.188 E23.45905
G1 X297.459 Y21.655 E23.88135
G1 X302.906 Y20.808 E24.30763
G1 X305.515 Y20.288 E24.51335
G1 X308.193 Y19.675 E24.72579
G1 X313.501 Y18.222 E25.15136
G1 X318.695 Y16.477 E25.57507
G1 X321.188 Y15.522 E25.78152
G1 X326.251 Y13.328 E26.20822
G1 X331.141 Y10.873 E26.63134
G1 X335.88 Y8.147 E27.05411
G1 X340.461 Y5.155 E27.47722
G1 X344.316 Y2.343 E27.84621
G1 X344.753 Y2.074 E27.88589
G1 X345.227 Y1.875 E27.92565
G1 X345.725 Y1.753 E27.9653
G1 X346.261 Y1.709 E28.00689
G1 X394.991 Y1.709 E31.77517
G1 X395.503 Y1.749 E31.81488
G1 X396.002 Y1.868 E31.85455
G1 X396.477 Y2.063 E31.89426
G1 X396.916 Y2.329 E31.93395
G1 X397.309 Y2.66 E31.97368
G1 X397.645 Y3.048 E32.01337
G1 X397.917 Y3.483 E32.05305
G1 X398.118 Y3.956 E32.09279
G1 X398.244 Y4.453 E32.13244
G1 X398.291 Y5.009 E32.17559
G1 X398.29 Y53.747 E35.94449
G1 X398.25 Y54.259 E35.9842
G1 X398.131 Y54.758 E36.02387
G1 X397.936 Y55.233 E36.06358
G1 X397.68 Y55.659 E36.10201
G1 X393.442 Y61.622 E36.66773
G1 X390.58 Y66.264 E37.08943
G1 X387.977 Y71.07 E37.51209
G1 X385.65 Y76.016 E37.93478
G1 X383.578 Y81.154 E38.36319
G1 X382.697 Y83.646 E38.56759
G1 X381.083 Y88.896 E38.99232
G1 X379.766 Y94.24 E39.41793
G1 X379.225 Y96.911 E39.62868
G1 X378.772 Y99.545 E39.83535
G1 X378.063 Y105.024 E40.26258
G1 X377.673 Y110.449 E40.68317
G1 X377.587 Y115.944 E41.10815
G1 X377.812 Y121.399 E41.53034
G1 X378.345 Y126.834 E41.95265
G1 X379.192 Y132.281 E42.37893
G1 X379.712 Y134.89 E42.58465
G1 X380.325 Y137.568 E42.79709
G1 X381.778 Y142.876 E43.22266
G1 X383.523 Y148.07 E43.64637
G1 X384.478 Y150.563 E43.85282
G1 X386.675 Y155.633 E44.28011
G1 X389.122 Y160.508 E44.70192
G1 X391.853 Y165.255 E45.12541
G1 X394.84 Y169.829 E45.54786
G1 X397.655 Y173.683 E45.91693
G1 X397.924 Y174.12 E45.95661
G1 X398.123 Y174.594 E45.99636
G1 X398.246 Y175.092 E46.03603
G1 X398.29 Y175.63 E46.07777
G1 X398.29 Y224.371 E49.8469
G1 X398.25 Y224.883 E49.88662
G1 X398.131 Y225.382 E49.92629
G1 X397.936 Y225.857 E49.96599
G1 X397.68 Y226.282 E50.00436
G1 X393.447 Y232.239 E50.56947
G1 X390.58 Y236.889 E50.99191
G1 X387.977 Y241.695 E51.41457
G1 X385.65 Y246.641 E51.83726
G1 X383.578 Y251.779 E52.26567
G1 X382.697 Y254.271 E52.47006
G1 X381.083 Y259.521 E52.8948
G1 X379.766 Y264.865 E53.32041
G1 X379.225 Y267.536 E53.53115
G1 X378.772 Y270.17 E53.73783
G1 X378.063 Y275.649 E54.16505
G1 X377.673 Y281.074 E54.58565
G1 X377.587 Y286.569 E55.01063
G1 X377.812 Y292.024 E55.43282
G1 X378.345 Y297.459 E55.85512
G1 X379.192 Y302.906 E56.2814
G1 X379.712 Y305.515 E56.48712
G1 X380.325 Y308.193 E56.69957
G1 X381.778 Y313.501 E57.12514
G1 X383.523 Y318.695 E57.54885
G1 X384.478 Y321.188 E57.75529
G1 X386.675 Y326.258 E58.18258
G1 X389.122 Y331.133 E58.60439
G1 X391.853 Y335.88 E59.02789
G1 X394.84 Y340.454 E59.45034
G1 X397.655 Y344.308 E59.8194
G1 X397.924 Y344.745 E59.85908
G1 X398.123 Y345.219 E59.89884
G1 X398.246 Y345.717 E59.93851
G1 X398.29 Y346.255 E59.98025
G1 X398.29 Y394.991 E63.74899
G1 X398.25 Y395.503 E63.78871
G1 X398.131 Y396.002 E63.82838
G1 X397.936 Y396.477 E63.86808
G1 X397.67 Y396.916 E63.90778
G1 X397.339 Y397.309 E63.94751
G1 X396.951 Y397.645 E63.9872
G1 X396.516 Y397.917 E64.02687
G1 X396.043 Y398.118 E64.06662
G1 X395.546 Y398.244 E64.10627
G1 X394.99 Y398.291 E64.14941
G1 X346.254 Y398.29 E67.91816
G1 X345.742 Y398.25 E67.95787
G1 X345.243 Y398.131 E67.99754
G1 X344.768 Y397.936 E68.03725
G1 X344.343 Y397.68 E68.07562
G1 X338.383 Y393.446 E68.64096
G1 X333.741 Y390.582 E69.06275
G1 X328.93 Y387.977 E69.48582
G1 X323.984 Y385.65 E69.90851
G1 X318.846 Y383.578 E70.33692
G1 X316.354 Y382.697 E70.54132
G1 X311.104 Y381.083 E70.96605
G1 X305.76 Y379.766 E71.39167
G1 X303.089 Y379.225 E71.60241
G1 X300.455 Y378.772 E71.80908
G1 X294.976 Y378.063 E72.23631
G1 X289.551 Y377.673 E72.6569
G1 X284.056 Y377.587 E73.08188
G1 X278.601 Y377.812 E73.50408
G1 X273.166 Y378.345 E73.92638
G1 X267.719 Y379.192 E74.35266
G1 X265.11 Y379.712 E74.55838
G1 X262.432 Y380.325 E74.77082
G1 X257.124 Y381.778 E75.19639
G1 X251.93 Y383.523 E75.62011
G1 X249.437 Y384.478 E75.82655
G1 X244.374 Y386.672 E76.25325
G1 X239.484 Y389.127 E76.67637
G1 X234.745 Y391.853 E77.09914
G1 X230.164 Y394.845 E77.52226
G1 X226.309 Y397.657 E77.89124
G1 X225.872 Y397.926 E77.93093
G1 X225.398 Y398.125 E77.97068
G1 X224.9 Y398.247 E78.01033
G1 X224.364 Y398.291 E78.05192
G1 X175.629 Y398.29 E81.82059
G1 X175.117 Y398.25 E81.8603
G1 X174.618 Y398.131 E81.89997
G1 X174.143 Y397.936 E81.93968
G1 X173.718 Y397.68 E81.97804
G1 X167.758 Y393.446 E82.54339
G1 X163.116 Y390.582 E82.96518
G1 X158.305 Y387.977 E83.38825
G1 X153.359 Y385.65 E83.81094
G1 X148.221 Y383.578 E84.23935
G1 X145.729 Y382.697 E84.44374
G1 X140.479 Y381.083 E84.86848
G1 X135.135 Y379.766 E85.29409
G1 X132.464 Y379.225 E85.50483
G1 X129.83 Y378.772 E85.71151
G1 X124.351 Y378.063 E86.13873
G1 X118.926 Y377.673 E86.55933
G1 X113.431 Y377.587 E86.98431
G1 X107.976 Y377.812 E87.4065
G1 X102.541 Y378.345 E87.82881
G1 X97.094 Y379.192 E88.25508
G1 X94.485 Y379.712 E88.46081
G1 X91.807 Y380.325 E88.67325
G1 X86.499 Y381.778 E89.09882
G1 X81.305 Y383.523 E89.52253
G1 X78.812 Y384.478 E89.72898
G1 X73.749 Y386.672 E90.15568
G1 X68.859 Y389.127 E90.5788
G1 X64.12 Y391.853 E91.00157
G1 X59.539 Y394.845 E91.42468
G1 X55.684 Y397.657 E91.79367
G1 X55.247 Y397.926 E91.83335
G1 X54.773 Y398.125 E91.87311
G1 X54.275 Y398.247 E91.91275
G1 X53.739 Y398.291 E91.95434
G1 X5.009 Y398.291 E95.72262
G1 X4.497 Y398.251 E95.76234
G1 X3.998 Y398.132 E95.80201
G1 X3.523 Y397.937 E95.84171
G1 X3.084 Y397.671 E95.88141
G1 X2.691 Y397.34 E95.92114
G1 X2.355 Y396.952 E95.96083
G1 X2.083 Y396.517 E96.0005
G1 X1.882 Y396.044 E96.04025
G1 X1.756 Y395.547 E96.0799
G1 X1.709 Y394.991 E96.12304
G1 X1.71 Y346.253 E99.89195
G1 X1.75 Y345.741 E99.93166
G1 X1.869 Y345.242 E99.97133
G1 X2.064 Y344.767 E100.01104
G1 X2.347 Y344.304 E100.053
G1 X5.015 Y340.657 E100.40243
G1 X8.013 Y336.093 E100.8247
G1 X10.759 Y331.348 E101.24864
G1 X13.216 Y326.485 E101.66997
G1 X15.423 Y321.427 E102.09672
G1 X16.397 Y318.906 E102.30571
G1 X18.15 Y313.731 E102.72823
G1 X19.611 Y308.448 E103.15209
G1 X20.781 Y303.056 E103.57876
G1 X21.228 Y300.455 E103.78284
G1 X21.937 Y294.976 E104.21007
G1 X22.327 Y289.551 E104.63066
G1 X22.413 Y284.056 E105.05564
G1 X22.188 Y278.601 E105.47783
G1 X21.655 Y273.166 E105.90014
G1 X20.808 Y267.719 E106.32642
G1 X20.288 Y265.11 E106.53214
G1 X19.675 Y262.432 E106.74458
G1 X18.222 Y257.124 E107.17015
G1 X16.477 Y251.93 E107.59386
G1 X15.522 Y249.437 E107.80031
G1 X13.328 Y244.373 E108.22708
G1 X10.873 Y239.484 E108.65013
G1 X8.147 Y234.745 E109.0729
G1 X5.155 Y230.164 E109.49602
G1 X2.343 Y226.309 E109.865
G1 X2.074 Y225.872 E109.90469
G1 X1.875 Y225.398 E109.94444
G1 X1.753 Y224.9 E109.98409
G1 X1.709 Y224.364 E110.02568
G1 X1.71 Y175.628 E113.79442
G1 X1.75 Y175.116 E113.83414
G1 X1.869 Y174.617 E113.87381
G1 X2.064 Y174.142 E113.91351
G1 X2.347 Y173.679 E113.95547
G1 X5.015 Y170.032 E114.30491
G1 X8.013 Y165.468 E114.72717
G1 X10.759 Y160.723 E115.15112
G1 X13.216 Y155.86 E115.57245
G1 X15.423 Y150.802 E115.99919
G1 X16.397 Y148.281 E116.20819
G1 X18.15 Y143.106 E116.6307
G1 X19.611 Y137.823 E117.05457
G1 X20.781 Y132.431 E117.48124
G1 X21.228 Y129.83 E117.68532
G1 X21.937 Y124.351 E118.11254
G1 X22.327 Y118.926 E118.53314
G1 X22.413 Y113.431 E118.95812
G1 X22.188 Y107.976 E119.38031
G1 X21.655 Y102.541 E119.80262
G1 X20.808 Y97.094 E120.22889
G1 X20.288 Y94.485 E120.43462
G1 X19.675 Y91.807 E120.64706
G1 X18.222 Y86.499 E121.07263
G1 X16.477 Y81.305 E121.49634
G1 X15.522 Y78.812 E121.70279
G1 X13.328 Y73.748 E122.12956
G1 X10.873 Y68.859 E122.55261
G1 X8.147 Y64.12 E122.97538
G1 X5.155 Y59.539 E123.39849
G1 X2.343 Y55.684 E123.76748
G1 X2.074 Y55.247 E123.80716
G1 X1.875 Y54.773 E123.84692
G1 X1.753 Y54.275 E123.88657
G1 X1.709 Y53.739 E123.92815
G1 X1.709 Y5.009 E127.69644
G1 X1.749 Y4.497 E127.73615
G1 X1.868 Y3.998 E127.77582
G1 X2.063 Y3.523 E127.81553
G1 X2.329 Y3.084 E127.85522
G1 X2.66 Y2.691 E127.89495
G1 F2400 E127.39495
;MESH:BedLeveling.stl
G0 F2000 X48.575 Y48.575
;TYPE:WALL-OUTER
G1 F2400 E127.89495
G1 F1200 X10.175 Y48.575 E130.86442
G1 X10.175 Y10.175 E133.83388
G1 X48.575 Y10.175 E136.80335
G1 X48.575 Y48.575 E139.77281
G0 F2000 X48.275 Y48.575
G0 X47.985 Y47.985
;TYPE:SKIN
G1 F1200 X10.765 Y47.985 E142.65103
G1 X10.765 Y10.765 E145.52924
G1 X47.985 Y10.765 E148.40746
G1 X47.985 Y47.985 E151.28568
G1 F2400 E150.78568
G0 F2000 X47.714 Y11.228
G1 F2400 E151.28568
G1 F1200 X47.521 Y11.035 E151.30678
G0 F2000 X46.673 Y11.035
G1 F1200 X47.714 Y12.076 E151.42063
G0 F2000 X47.714 Y12.925
G1 F1200 X45.824 Y11.035 E151.62732
G0 F2000 X44.976 Y11.035
G1 F1200 X47.714 Y13.773 E151.92675
G0 F2000 X47.714 Y14.622
G1 F1200 X44.127 Y11.035 E152.31903
G0 F2000 X43.279 Y11.035
G1 F1200 X47.714 Y15.47 E152.80404
G0 F2000 X47.714 Y16.319
G1 F1200 X42.43 Y11.035 E153.3819
G0 F2000 X41.582 Y11.035
G1 F1200 X47.714 Y17.167 E154.05251
G0 F2000 X47.714 Y18.016
G1 F1200 X40.733 Y11.035 E154.81595
G0 F2000 X39.885 Y11.035
G1 F1200 X47.714 Y18.864 E155.67214
G0 F2000 X47.714 Y19.713
G1 F1200 X39.036 Y11.035 E156.62117
G0 F2000 X38.188 Y11.035
G1 F1200 X47.714 Y20.561 E157.66295
G0 F2000 X47.714 Y21.41
G1 F1200 X37.339 Y11.035 E158.79756
G0 F2000 X36.49 Y11.035
G1 F1200 X47.714 Y22.259 E160.02503
G0 F2000 X47.714 Y23.107
G1 F1200 X35.642 Y11.035 E161.34523
G0 F2000 X34.793 Y11.035
G1 F1200 X47.714 Y23.956 E162.75829
G0 F2000 X47.714 Y24.804
G1 F1200 X33.945 Y11.035 E164.26408
G0 F2000 X33.096 Y11.035
G1 F1200 X47.714 Y25.653 E165.86271
G0 F2000 X47.714 Y26.501
G1 F1200 X32.248 Y11.035 E167.55409
G0 F2000 X31.399 Y11.035
G1 F1200 X47.714 Y27.35 E169.33831
G0 F2000 X47.714 Y28.198
G1 F1200 X30.551 Y11.035 E171.21527
G0 F2000 X29.702 Y11.035
G1 F1200 X47.714 Y29.047 E173.18508
G0 F2000 X47.714 Y29.895
G1 F1200 X28.854 Y11.035 E175.24763
G0 F2000 X28.005 Y11.035
G1 F1200 X47.714 Y30.744 E177.40302
G0 F2000 X47.714 Y31.592
G1 F1200 X27.157 Y11.035 E179.65115
G0 F2000 X26.308 Y11.035
G1 F1200 X47.714 Y32.441 E181.99213
G0 F2000 X47.714 Y33.289
G1 F1200 X25.46 Y11.035 E184.42585
G0 F2000 X24.611 Y11.035
G1 F1200 X47.714 Y34.138 E186.95241
G0 F2000 X47.714 Y34.986
G1 F1200 X23.763 Y11.035 E189.57171
G0 F2000 X22.914 Y11.035
G1 F1200 X47.714 Y35.835 E192.28386
G0 F2000 X47.714 Y36.683
G1 F1200 X22.065 Y11.035 E195.08881
G0 F2000 X21.217 Y11.035
G1 F1200 X47.714 Y37.532 E197.98654
G0 F2000 X47.714 Y38.381
G1 F1200 X20.368 Y11.035 E200.97712
G0 F2000 X19.52 Y11.035
G1 F1200 X47.714 Y39.229 E204.06044
G0 F2000 X47.714 Y40.078
G1 F1200 X18.671 Y11.035 E207.23661
G0 F2000 X17.823 Y11.035
G1 F1200 X47.714 Y40.926 E210.50552
G0 F2000 X47.714 Y41.775
G1 F1200 X16.974 Y11.035 E213.86727
G0 F2000 X16.126 Y11.035
G1 F1200 X47.714 Y42.623 E217.32176
G0 F2000 X47.714 Y43.472
G1 F1200 X15.277 Y11.035 E220.8691
G0 F2000 X14.429 Y11.035
G1 F1200 X47.714 Y44.32 E224.50918
G0 F2000 X47.714 Y45.169
G1 F1200 X13.58 Y11.035 E228.2421
G0 F2000 X12.732 Y11.035
G1 F1200 X47.714 Y46.017 E232.06776
G0 F2000 X47.714 Y46.866
G1 F1200 X11.883 Y11.035 E235.98627
G0 F2000 X11.034 Y11.034
G1 F1200 X47.714 Y47.714 E239.99763
G0 F2000 X46.865 Y47.714
G1 F1200 X11.034 Y11.882 E243.91619
G0 F2000 X11.034 Y12.731
G1 F1200 X46.017 Y47.714 E247.74196
G0 F2000 X45.168 Y47.714
G1 F1200 X11.034 Y13.579 E251.47494
G0 F2000 X11.034 Y14.428
G1 F1200 X44.32 Y47.714 E255.11513
G0 F2000 X43.471 Y47.714
G1 F1200 X11.034 Y15.277 E258.66247
G0 F2000 X11.034 Y16.125
G1 F1200 X42.622 Y47.714 E262.11701
G0 F2000 X41.774 Y47.714
G1 F1200 X11.034 Y16.974 E265.47877
G0 F2000 X11.034 Y17.822
G1 F1200 X40.925 Y47.714 E268.74773
G0 F2000 X40.077 Y47.714
G1 F1200 X11.034 Y18.671 E271.92389
G0 F2000 X11.034 Y19.519
G1 F1200 X39.228 Y47.714 E275.00727
G0 F2000 X38.38 Y47.714
G1 F1200 X11.034 Y20.368 E277.99785
G0 F2000 X11.034 Y21.216
G1 F1200 X37.531 Y47.714 E280.89564
G0 F2000 X36.683 Y47.714
G1 F1200 X11.034 Y22.065 E283.70064
G0 F2000 X11.034 Y22.913
G1 F1200 X35.834 Y47.714 E286.41284
G0 F2000 X34.986 Y47.714
G1 F1200 X11.034 Y23.762 E289.03225
G0 F2000 X11.034 Y24.61
G1 F1200 X34.137 Y47.714 E291.55887
G0 F2000 X33.289 Y47.714
G1 F1200 X11.034 Y25.459 E293.9927
G0 F2000 X11.034 Y26.307
G1 F1200 X32.44 Y47.714 E296.33373
G0 F2000 X31.592 Y47.714
G1 F1200 X11.034 Y27.156 E298.58197
G0 F2000 X11.034 Y28.004
G1 F1200 X30.743 Y47.714 E300.73742
G0 F2000 X29.895 Y47.714
G1 F1200 X11.034 Y28.853 E302.80008
G0 F2000 X11.034 Y29.702
G1 F1200 X29.046 Y47.714 E304.76989
G0 F2000 X28.198 Y47.714
G1 F1200 X11.034 Y30.55 E306.64696
G0 F2000 X11.034 Y31.399
G1 F1200 X27.349 Y47.714 E308.43118
G0 F2000 X26.5 Y47.714
G1 F1200 X11.034 Y32.247 E310.12261
G0 F2000 X11.034 Y33.096
G1 F1200 X25.652 Y47.714 E311.72125
G0 F2000 X24.803 Y47.714
G1 F1200 X11.034 Y33.944 E313.22709
G0 F2000 X11.034 Y34.793
G1 F1200 X23.955 Y47.714 E314.64014
G0 F2000 X23.106 Y47.714
G1 F1200 X11.034 Y35.641 E315.9604
G0 F2000 X11.034 Y36.49
G1 F1200 X22.258 Y47.714 E317.18787
G0 F2000 X21.409 Y47.714
G1 F1200 X11.034 Y37.338 E318.32254
G0 F2000 X11.034 Y38.187
G1 F1200 X20.561 Y47.714 E319.36442
G0 F2000 X19.712 Y47.714
G1 F1200 X11.034 Y39.035 E320.31351
G0 F2000 X11.034 Y39.884
G1 F1200 X18.864 Y47.714 E321.16981
G0 F2000 X18.015 Y47.714
G1 F1200 X11.034 Y40.732 E321.93331
G0 F2000 X11.034 Y41.581
G1 F1200 X17.167 Y47.714 E322.60402
G0 F2000 X16.318 Y47.714
G1 F1200 X11.034 Y42.429 E323.18194
G0 F2000 X11.034 Y43.278
G1 F1200 X15.47 Y47.714 E323.66706
