;FLAVOR:Marlin
;TIME:727
;Filament used: 2.19661m, 0.455035m
;Layer height: 0.5
;Generated with Cura_SteamEngine master
T0
M140 S60
M105
M190 S60
M104 S210
M104 T1 S175
M105
M109 S210
M105
M109 T1 S175
M82 ;absolute extrusion mode
;Sliced at: Sat 18-05-2019 12:28:08


G21 ;metric values
M107
G28
M420 S1
G90 ;absolute positioning
G92 E0; reset extruder distance
G1 Z5 F2000 ;move nozzle up 5mm for safe homing
G1 X0 Y0 F5000; move nozzle to home
M190 S60 ;Uncomment to add your own bed temperature line
M109 S210 ;Uncomment to add your own temperature line
G29	;ABL
M82 ;set extruder to absolute mode
M107 ;start with the fan off
G1 Z15.0 F{travel_speed} ;move the platform down 15mm
G92 E0 ;zero the extruded length
G1 F200 E3 ;extrude 3mm of feed stock
G92 E0 ;zero the extruded length again
G1 F{travel_speed}
M117 Printing...
G92 E0
G1 F2400 E-0.5
;LAYER_COUNT:4
;LAYER:0
M107
G0 F2000 X10.644 Y10.146 Z0.62
;TYPE:SKIRT
G1 F2400 E0
G1 F1200 X12.159 Y8.903 E0.40411
G1 X12.745 Y8.511 E0.54949
G1 X14.477 Y7.585 E0.95449
G1 X15.13 Y7.315 E1.10021
G1 X17.004 Y6.747 E1.50401
G1 X17.695 Y6.609 E1.64932
G1 X19.646 Y6.417 E2.05358
G1 X20.351 Y6.417 E2.19896
G1 X22.303 Y6.609 E2.60343
G1 X22.995 Y6.747 E2.74894
G1 X24.869 Y7.315 E3.15275
G1 X25.522 Y7.585 E3.29846
G1 X27.254 Y8.511 E3.70346
G1 X27.84 Y8.903 E3.84885
G1 X29.353 Y10.144 E4.25237
G1 X29.853 Y10.644 E4.39819
G1 X31.096 Y12.159 E4.8023
G1 X31.488 Y12.745 E4.94768
G1 X32.414 Y14.477 E5.35268
G1 X32.684 Y15.129 E5.49821
G1 X33.252 Y17.002 E5.90181
G1 X33.39 Y17.693 E6.04712
G1 X33.583 Y19.644 E6.4514
G1 X33.583 Y20.352 E6.5974
G1 X33.39 Y22.305 E7.0021
G1 X33.252 Y22.995 E7.1472
G1 X32.684 Y24.869 E7.55101
G1 X32.414 Y25.522 E7.69672
G1 X31.489 Y27.253 E8.10144
G1 X31.097 Y27.839 E8.24683
G1 X29.855 Y29.353 E8.65065
G1 X29.355 Y29.853 E8.79646
G1 X27.84 Y31.096 E9.20057
G1 X27.254 Y31.488 E9.34595
G1 X25.522 Y32.414 E9.75096
G1 X24.869 Y32.684 E9.89667
G1 X22.995 Y33.252 E10.30047
G1 X22.305 Y33.39 E10.44558
G1 X20.354 Y33.583 E10.84986
G1 X19.646 Y33.583 E10.99586
G1 X17.694 Y33.39 E11.40035
G1 X17.004 Y33.252 E11.54546
G1 X15.13 Y32.684 E11.94926
G1 X14.477 Y32.414 E12.09497
G1 X12.745 Y31.488 E12.49998
G1 X12.159 Y31.096 E12.64536
G1 X10.644 Y29.853 E13.04947
G1 X10.144 Y29.353 E13.19528
G1 X8.902 Y27.839 E13.5991
G1 X8.51 Y27.253 E13.74448
G1 X7.585 Y25.522 E14.14921
G1 X7.315 Y24.869 E14.29492
G1 X6.747 Y22.995 E14.69873
G1 X6.609 Y22.304 E14.84403
G1 X6.417 Y20.355 E15.24789
G1 X6.417 Y19.65 E15.39327
G1 X6.609 Y17.695 E15.79835
G1 X6.747 Y17.002 E15.94406
G1 X7.315 Y15.129 E16.34767
G1 X7.585 Y14.477 E16.49319
G1 X8.511 Y12.745 E16.8982
G1 X8.903 Y12.159 E17.04358
G1 X10.144 Y10.646 E17.44711
G1 X10.644 Y10.146 E17.59292
G0 F2000 X11.151 Y10.764
G1 F1200 X12.666 Y9.521 E17.99703
G1 X13.122 Y9.217 E18.11004
G1 X14.854 Y8.291 E18.51504
G1 X15.362 Y8.08 E18.62848
G1 X17.236 Y7.512 E19.03228
G1 X17.774 Y7.405 E19.1454
G1 X19.725 Y7.213 E19.54966
G1 X20.273 Y7.213 E19.66267
G1 X22.225 Y7.405 E20.06714
G1 X22.763 Y7.512 E20.18025
G1 X24.637 Y8.08 E20.58406
G1 X25.145 Y8.291 E20.69749
G1 X26.877 Y9.217 E21.10249
G1 X27.333 Y9.521 E21.2155
G1 X28.846 Y10.762 E21.61903
G1 X29.235 Y11.151 E21.73247
G1 X30.478 Y12.666 E22.13658
G1 X30.782 Y13.122 E22.2496
G1 X31.708 Y14.854 E22.6546
G1 X31.918 Y15.361 E22.76776
G1 X32.486 Y17.234 E23.17137
G1 X32.593 Y17.771 E23.28428
G1 X32.786 Y19.722 E23.68857
G1 X32.786 Y20.273 E23.80219
G1 X32.593 Y22.226 E24.20688
G1 X32.487 Y22.763 E24.31976
G1 X31.919 Y24.637 E24.72356
G1 X31.709 Y25.145 E24.83691
G1 X30.784 Y26.876 E25.24164
G1 X30.479 Y27.332 E25.35477
G1 X29.237 Y28.846 E25.75858
G1 X28.848 Y29.235 E25.87203
G1 X27.333 Y30.478 E26.27613
G1 X26.877 Y30.782 E26.38915
G1 X25.145 Y31.708 E26.79415
G1 X24.637 Y31.919 E26.90758
G1 X22.763 Y32.487 E27.31139
G1 X22.227 Y32.593 E27.42406
G1 X20.276 Y32.786 E27.82834
G1 X19.724 Y32.786 E27.94217
G1 X17.772 Y32.593 E28.34666
G1 X17.236 Y32.487 E28.45933
G1 X15.362 Y31.919 E28.86314
G1 X14.854 Y31.708 E28.97657
G1 X13.122 Y30.782 E29.38157
G1 X12.666 Y30.478 E29.49459
G1 X11.151 Y29.235 E29.89869
G1 X10.762 Y28.846 E30.01214
G1 X9.52 Y27.332 E30.41595
G1 X9.215 Y26.876 E30.52908
G1 X8.29 Y25.145 E30.9338
G1 X8.08 Y24.637 E31.04716
G1 X7.512 Y22.763 E31.45096
G1 X7.405 Y22.226 E31.56388
G1 X7.213 Y20.277 E31.96773
G1 X7.213 Y19.728 E32.08094
G1 X7.405 Y17.773 E32.48603
G1 X7.513 Y17.234 E32.59938
G1 X8.081 Y15.361 E33.00299
G1 X8.291 Y14.854 E33.11615
G1 X9.217 Y13.122 E33.52116
G1 X9.521 Y12.666 E33.63417
G1 X10.762 Y11.153 E34.0377
G1 X11.151 Y10.764 E34.15114
G0 F2000 X11.658 Y11.383
G1 F1200 X13.173 Y10.14 E34.55525
G1 X13.499 Y9.922 E34.63612
G1 X15.231 Y8.996 E35.04112
G1 X15.594 Y8.846 E35.12212
G1 X17.468 Y8.278 E35.52592
G1 X17.852 Y8.202 E35.60664
G1 X19.803 Y8.01 E36.01091
G1 X20.195 Y8.01 E36.09174
G1 X22.147 Y8.202 E36.49621
G1 X22.531 Y8.278 E36.57693
G1 X24.405 Y8.846 E36.98074
G1 X24.768 Y8.996 E37.06173
G1 X26.5 Y9.922 E37.46673
G1 X26.825 Y10.14 E37.54743
G1 X28.338 Y11.381 E37.95096
G1 X28.616 Y11.658 E38.03189
G1 X29.859 Y13.173 E38.43599
G1 X30.077 Y13.499 E38.51687
G1 X31.003 Y15.231 E38.92187
G1 X31.153 Y15.594 E39.00286
G1 X31.721 Y17.467 E39.40647
G1 X31.797 Y17.85 E39.48699
G1 X31.99 Y19.801 E39.89127
G1 X31.99 Y20.195 E39.97252
G1 X31.797 Y22.148 E40.37722
G1 X31.721 Y22.531 E40.45774
G1 X31.153 Y24.405 E40.86154
G1 X31.003 Y24.768 E40.94253
G1 X30.078 Y26.499 E41.34726
G1 X29.86 Y26.824 E41.42796
G1 X28.618 Y28.338 E41.83177
G1 X28.341 Y28.616 E41.9127
G1 X26.826 Y29.859 E42.31681
G1 X26.5 Y30.077 E42.39768
G1 X24.768 Y31.003 E42.80268
G1 X24.405 Y31.153 E42.88368
G1 X22.531 Y31.721 E43.28748
G1 X22.148 Y31.797 E43.368
G1 X20.197 Y31.99 E43.77228
G1 X19.803 Y31.99 E43.85353
G1 X17.851 Y31.797 E44.25802
G1 X17.468 Y31.721 E44.33854
G1 X15.594 Y31.153 E44.74235
G1 X15.231 Y31.003 E44.82334
G1 X13.499 Y30.077 E45.22834
G1 X13.173 Y29.859 E45.30921
G1 X11.658 Y28.616 E45.71332
G1 X11.381 Y28.338 E45.79425
G1 X10.139 Y26.824 E46.19806
G1 X9.921 Y26.499 E46.27876
G1 X8.996 Y24.768 E46.68349
G1 X8.846 Y24.405 E46.76448
G1 X8.278 Y22.531 E47.16829
G1 X8.202 Y22.147 E47.24901
G1 X8.01 Y20.198 E47.65286
G1 X8.01 Y19.807 E47.73349
G1 X8.202 Y17.852 E48.13858
G1 X8.278 Y17.467 E48.2195
G1 X8.846 Y15.594 E48.62311
G1 X8.996 Y15.231 E48.7041
G1 X9.922 Y13.499 E49.1091
G1 X10.14 Y13.174 E49.1898
G1 X11.381 Y11.661 E49.59333
G1 X11.658 Y11.383 E49.67426
G0 F2000 X12.166 Y12.001
G1 F1200 X13.681 Y10.758 E50.07836
G1 X13.876 Y10.628 E50.12669
G1 X15.608 Y9.702 E50.5317
G1 X15.826 Y9.612 E50.58033
G1 X17.7 Y9.044 E50.98413
G1 X17.93 Y8.998 E51.0325
G1 X19.881 Y8.806 E51.43677
G1 X20.116 Y8.806 E51.48523
G1 X22.068 Y8.998 E51.8897
G1 X22.299 Y9.044 E51.93827
G1 X24.173 Y9.612 E52.34207
G1 X24.391 Y9.702 E52.3907
G1 X26.123 Y10.628 E52.79571
G1 X26.318 Y10.758 E52.84404
G1 X27.831 Y11.999 E53.24756
G1 X27.998 Y12.166 E53.29626
G1 X29.241 Y13.681 E53.70037
G1 X29.371 Y13.876 E53.7487
G1 X30.297 Y15.608 E54.1537
G1 X30.387 Y15.826 E54.20234
G1 X30.955 Y17.699 E54.60594
G1 X31.001 Y17.929 E54.65431
G1 X31.194 Y19.88 E55.0586
G1 X31.194 Y20.116 E55.10726
G1 X31.001 Y22.069 E55.51196
G1 X30.955 Y22.299 E55.56033
G1 X30.387 Y24.173 E55.96413
G1 X30.297 Y24.391 E56.01276
G1 X29.372 Y26.122 E56.41749
G1 X29.242 Y26.317 E56.46582
G1 X28 Y27.831 E56.86963
G1 X27.833 Y27.998 E56.91834
G1 X26.318 Y29.241 E57.32244
G1 X26.123 Y29.371 E57.37077
G1 X24.391 Y30.297 E57.77577
G1 X24.173 Y30.387 E57.82441
G1 X22.299 Y30.955 E58.22821
G1 X22.069 Y31.001 E58.27658
G1 X20.118 Y31.194 E58.68086
G1 X19.882 Y31.194 E58.72953
G1 X17.93 Y31.001 E59.13402
G1 X17.7 Y30.955 E59.18239
G1 X15.826 Y30.387 E59.58619
G1 X15.608 Y30.297 E59.63483
G1 X13.876 Y29.371 E60.03983
G1 X13.681 Y29.241 E60.08816
G1 X12.166 Y27.998 E60.49227
G1 X11.999 Y27.831 E60.54097
G1 X10.757 Y26.317 E60.94478
G1 X10.627 Y26.122 E60.99311
G1 X9.702 Y24.391 E61.39784
G1 X9.612 Y24.173 E61.44647
G1 X9.044 Y22.299 E61.85027
G1 X8.998 Y22.069 E61.89864
G1 X8.806 Y20.12 E62.3025
G1 X8.806 Y19.885 E62.35096
G1 X8.998 Y17.93 E62.75604
G1 X9.044 Y17.699 E62.80461
G1 X9.612 Y15.826 E63.20822
G1 X9.702 Y15.608 E63.25685
G1 X10.628 Y13.876 E63.66186
G1 X10.758 Y13.681 E63.71018
G1 X11.999 Y12.168 E64.11371
G1 X12.166 Y12.001 E64.16241
G0 F2000 X12.673 Y12.62
G1 F1200 X14.188 Y11.377 E64.56652
G1 X14.253 Y11.333 E64.58271
G1 X15.985 Y10.407 E64.98771
G1 X16.058 Y10.377 E65.00398
G1 X17.932 Y9.809 E65.40779
G1 X18.009 Y9.794 E65.42396
G1 X19.96 Y9.602 E65.82823
G1 X20.038 Y9.602 E65.84431
G1 X21.99 Y9.794 E66.24878
G1 X22.067 Y9.809 E66.26496
G1 X23.941 Y10.377 E66.66876
G1 X24.014 Y10.407 E66.68504
G1 X25.746 Y11.333 E67.09004
G1 X25.811 Y11.377 E67.10623
G1 X27.324 Y12.618 E67.50975
G1 X27.379 Y12.673 E67.52579
G1 X28.622 Y14.188 E67.9299
G1 X28.666 Y14.253 E67.94609
G1 X29.592 Y15.985 E68.35109
G1 X29.622 Y16.058 E68.36736
G1 X30.19 Y17.931 E68.77097
G1 X30.205 Y18.008 E68.78715
G1 X30.398 Y19.959 E69.19143
G1 X30.398 Y20.037 E69.20752
G1 X30.205 Y21.99 E69.61221
G1 X30.19 Y22.067 E69.62839
G1 X29.622 Y23.941 E70.03219
G1 X29.592 Y24.014 E70.04847
G1 X28.667 Y25.745 E70.45319
G1 X28.623 Y25.81 E70.46938
G1 X27.381 Y27.324 E70.87319
G1 X27.326 Y27.379 E70.88923
G1 X25.811 Y28.622 E71.29334
G1 X25.746 Y28.666 E71.30953
G1 X24.014 Y29.592 E71.71453
G1 X23.941 Y29.622 E71.7308
G1 X22.067 Y30.19 E72.13461
G1 X21.99 Y30.205 E72.15079
G1 X20.039 Y30.398 E72.55507
G1 X19.961 Y30.398 E72.57115
G1 X18.009 Y30.205 E72.97565
G1 X17.932 Y30.19 E72.99182
G1 X16.058 Y29.622 E73.39563
G1 X15.985 Y29.592 E73.4119
G1 X14.253 Y28.666 E73.8169
G1 X14.188 Y28.622 E73.83309
G1 X12.673 Y27.379 E74.2372
G1 X12.618 Y27.324 E74.25324
G1 X11.376 Y25.81 E74.65705
G1 X11.332 Y25.745 E74.67324
G1 X10.407 Y24.014 E75.07796
G1 X10.377 Y23.941 E75.09424
G1 X9.809 Y22.067 E75.49804
G1 X9.794 Y21.99 E75.51422
G1 X9.602 Y20.041 E75.91807
G1 X9.602 Y19.963 E75.93416
G1 X9.794 Y18.008 E76.33924
G1 X9.809 Y17.931 E76.35542
G1 X10.377 Y16.058 E76.75903
G1 X10.407 Y15.985 E76.7753
G1 X11.333 Y14.253 E77.1803
G1 X11.377 Y14.188 E77.19649
G1 X12.618 Y12.675 E77.60002
G1 X12.673 Y12.62 E77.61606
G1 F2400 E77.11606
G0 F2000 X83.6 Y6.84
G1 F2400 E77.61606
G1 F1200 X83.64 Y6.305 E77.72669
G1 X83.759 Y5.782 E77.83729
G1 X83.954 Y5.283 E77.94777
G1 X84.222 Y4.818 E78.05845
G1 X84.555 Y4.398 E78.16897
G1 X84.947 Y4.032 E78.27957
G1 X85.389 Y3.729 E78.39007
G1 X85.872 Y3.494 E78.50084
G1 X86.383 Y3.334 E78.61126
G1 X86.913 Y3.251 E78.72188
G1 X87.2 Y3.24 E78.78111
G1 X107.396 Y3.24 E82.94578
G1 X107.931 Y3.28 E83.05641
G1 X108.454 Y3.399 E83.16702
G1 X108.953 Y3.594 E83.2775
G1 X109.418 Y3.862 E83.38817
G1 X109.838 Y4.195 E83.4987
G1 X110.204 Y4.587 E83.60929
G1 X110.507 Y5.029 E83.7198
G1 X110.742 Y5.512 E83.83057
G1 X110.902 Y6.023 E83.94098
G1 X110.985 Y6.553 E84.05161
G1 X110.996 Y6.84 E84.11084
G1 X110.996 Y119.036 E107.24709
G1 X110.956 Y119.571 E107.35772
G1 X110.837 Y120.094 E107.46833
G1 X110.642 Y120.593 E107.57881
G1 X110.374 Y121.058 E107.68948
G1 X110.041 Y121.478 E107.80001
G1 X109.649 Y121.844 E107.9106
G1 X109.207 Y122.147 E108.02111
G1 X108.724 Y122.382 E108.13187
G1 X108.213 Y122.542 E108.24229
G1 X107.683 Y122.625 E108.35292
G1 X107.396 Y122.636 E108.41214
G1 X10.2 Y122.636 E128.45521
G1 X9.665 Y122.596 E128.56584
G1 X9.142 Y122.477 E128.67645
G1 X8.643 Y122.282 E128.78692
G1 X8.178 Y122.014 E128.8976
G1 X7.758 Y121.681 E129.00813
G1 X7.392 Y121.289 E129.11872
G1 X7.089 Y120.847 E129.22923
G1 X6.854 Y120.364 E129.33999
G1 X6.694 Y119.853 E129.45041
G1 X6.611 Y119.323 E129.56103
G1 X6.6 Y119.036 E129.62026
G1 X6.6 Y98.84 E133.78494
G1 X6.64 Y98.305 E133.89557
G1 X6.759 Y97.782 E134.00617
G1 X6.954 Y97.283 E134.11665
G1 X7.222 Y96.818 E134.22733
G1 X7.555 Y96.398 E134.33785
G1 X7.947 Y96.032 E134.44845
G1 X8.389 Y95.729 E134.55895
G1 X8.872 Y95.494 E134.66972
G1 X9.383 Y95.334 E134.78014
G1 X9.913 Y95.251 E134.89076
G1 X10.2 Y95.24 E134.94999
G1 X83.6 Y95.24 E150.08601
G1 X83.6 Y6.84 E168.31523
G0 F2000 X84.4 Y6.84
G1 F1200 X84.44 Y6.369 E168.4127
G1 X84.559 Y5.911 E168.51028
G1 X84.753 Y5.48 E168.60775
G1 X85.016 Y5.087 E168.70526
G1 X85.342 Y4.745 E168.8027
G1 X85.721 Y4.462 E168.90023
G1 X86.143 Y4.247 E168.9979
G1 X86.594 Y4.106 E169.09534
G1 X87.2 Y4.04 E169.22104
G1 X107.396 Y4.04 E173.38572
G1 X107.867 Y4.08 E173.48319
G1 X108.325 Y4.199 E173.58078
G1 X108.756 Y4.393 E173.67824
G1 X109.149 Y4.656 E173.77576
G1 X109.491 Y4.982 E173.87319
G1 X109.774 Y5.361 E173.97073
G1 X109.989 Y5.783 E174.06839
G1 X110.13 Y6.234 E174.16583
G1 X110.196 Y6.84 E174.29154
G1 X110.196 Y119.036 E197.42779
G1 X110.156 Y119.507 E197.52527
G1 X110.037 Y119.965 E197.62285
G1 X109.843 Y120.396 E197.72032
G1 X109.58 Y120.789 E197.81783
G1 X109.254 Y121.131 E197.91526
G1 X108.875 Y121.414 E198.0128
G1 X108.453 Y121.629 E198.11047
G1 X108.002 Y121.77 E198.20791
G1 X107.396 Y121.836 E198.33361
G1 X10.2 Y121.836 E218.37668
G1 X9.729 Y121.796 E218.47415
G1 X9.271 Y121.677 E218.57173
G1 X8.84 Y121.483 E218.6692
G1 X8.447 Y121.22 E218.76671
G1 X8.105 Y120.894 E218.86415
G1 X7.822 Y120.515 E218.96168
G1 X7.607 Y120.093 E219.05935
G1 X7.466 Y119.642 E219.15679
G1 X7.4 Y119.036 E219.28249
G1 X7.4 Y98.84 E223.44717
G1 X7.44 Y98.369 E223.54464
G1 X7.559 Y97.911 E223.64223
G1 X7.753 Y97.48 E223.73969
G1 X8.016 Y97.087 E223.83721
G1 X8.342 Y96.745 E223.93464
G1 X8.721 Y96.462 E224.03218
G1 X9.143 Y96.247 E224.12984
G1 X9.594 Y96.106 E224.22728
G1 X10.2 Y96.04 E224.35299
G1 X84.4 Y96.04 E239.65398
G1 X84.4 Y6.84 E258.04817
G0 F2000 X85.2 Y6.84
G1 F1200 X85.24 Y6.442 E258.13065
G1 X85.358 Y6.061 E258.2129
G1 X85.55 Y5.71 E258.2954
G1 X85.807 Y5.405 E258.37765
G1 X86.12 Y5.157 E258.46
G1 X86.476 Y4.976 E258.54235
G1 X86.861 Y4.869 E258.62475
G1 X87.2 Y4.84 E258.69492
G1 X107.396 Y4.84 E262.85959
G1 X107.794 Y4.88 E262.94208
G1 X108.175 Y4.998 E263.02433
G1 X108.526 Y5.19 E263.10683
G1 X108.831 Y5.447 E263.18907
G1 X109.079 Y5.76 E263.27142
G1 X109.26 Y6.116 E263.35378
G1 X109.367 Y6.501 E263.43618
G1 X109.396 Y6.84 E263.50634
G1 X109.396 Y119.036 E286.6426
G1 X109.356 Y119.434 E286.72508
G1 X109.238 Y119.815 E286.80733
G1 X109.046 Y120.166 E286.88983
G1 X108.789 Y120.471 E286.97208
G1 X108.476 Y120.719 E287.05443
G1 X108.12 Y120.9 E287.13678
G1 X107.735 Y121.007 E287.21918
G1 X107.396 Y121.036 E287.28935
G1 X10.2 Y121.036 E307.33241
G1 X9.802 Y120.996 E307.4149
G1 X9.421 Y120.878 E307.49714
G1 X9.07 Y120.686 E307.57965
G1 X8.765 Y120.429 E307.66189
G1 X8.517 Y120.116 E307.74424
G1 X8.336 Y119.76 E307.8266
G1 X8.229 Y119.375 E307.909
G1 X8.2 Y119.036 E307.97916
G1 X8.2 Y98.84 E312.14383
G1 X8.24 Y98.442 E312.22632
G1 X8.358 Y98.061 E312.30857
G1 X8.55 Y97.71 E312.39107
G1 X8.807 Y97.405 E312.47332
G1 X9.12 Y97.157 E312.55567
G1 X9.476 Y96.976 E312.63802
G1 X9.861 Y96.869 E312.72042
G1 X10.2 Y96.84 E312.79058
G1 X85.2 Y96.84 E328.25655
G1 X85.2 Y6.84 E346.8157
G0 F2000 X86 Y6.84
G1 F1200 X86.04 Y6.533 E346.87954
G1 X86.157 Y6.247 E346.94327
G1 X86.343 Y6 E347.00703
G1 X86.586 Y5.809 E347.07076
G1 X86.87 Y5.686 E347.13458
G1 X87.2 Y5.64 E347.20329
G1 X107.396 Y5.64 E351.36797
G1 X107.703 Y5.68 E351.43181
G1 X107.989 Y5.797 E351.49553
G1 X108.236 Y5.983 E351.55929
G1 X108.427 Y6.226 E351.62303
G1 X108.55 Y6.51 E351.68685
G1 X108.596 Y6.84 E351.75556
G1 X108.596 Y119.036 E374.89181
G1 X108.556 Y119.343 E374.95565
G1 X108.439 Y119.629 E375.01938
G1 X108.253 Y119.876 E375.08314
G1 X108.01 Y120.067 E375.14687
G1 X107.726 Y120.19 E375.21069
G1 X107.396 Y120.236 E375.2794
G1 X10.2 Y120.236 E395.32247
G1 X9.893 Y120.196 E395.38631
G1 X9.607 Y120.079 E395.45003
G1 X9.36 Y119.893 E395.51379
G1 X9.169 Y119.65 E395.57753
G1 X9.046 Y119.366 E395.64135
G1 X9 Y119.036 E395.71006
G1 X9 Y98.84 E399.87473
G1 X9.04 Y98.533 E399.93857
G1 X9.157 Y98.247 E400.00229
G1 X9.343 Y98 E400.06605
G1 X9.586 Y97.809 E400.12979
G1 X9.87 Y97.686 E400.19361
G1 X10.2 Y97.64 E400.26232
G1 X86 Y97.64 E415.89325
G1 X86 Y6.84 E434.61738
G0 F2000 X86.8 Y6.84
G1 F1200 X86.84 Y6.667 E434.65399
G1 X86.95 Y6.528 E434.69055
