;FLAVOR:Marlin
;TIME:2914
;Filament used: 3.7189m, 0.868315m
;Layer height: 0.3
;Generated with Cura_SteamEngine master
T0
M140 S50
M105
M190 S50
M104 S210
M104 T1 S175
M105
M109 S210
M105
M109 T1 S175
M82 ;absolute extrusion mode
;Sliced at: Sat 25-05-2019 13:00:11


G21 ;metric values
M107
G28
M420 S1
G90 ;absolute positioning
G92 E0; reset extruder distance
G1 Z5 F2000 ;move nozzle up 5mm for safe homing
G1 X0 Y0 F5000; move nozzle to home
M190 S50 ;Uncomment to add your own bed temperature line
M109 S210 ;Uncomment to add your own temperature line
G29	;ABL
M82 ;set extruder to absolute mode
M107 ;start with the fan off
G1 Z15.0 F{travel_speed} ;move the platform down 15mm
G92 E0 ;zero the extruded length
G1 F200 E3 ;extrude 3mm of feed stock
G92 E0 ;zero the extruded length again
G1 F{travel_speed}
M117 Printing...
G92 E0
G1 F2400 E-0.5
;LAYER_COUNT:27
;LAYER:0
M107
G0 F1125 X22.539 Y29.367 Z0.31
;TYPE:SKIRT
G1 F2400 E0
G1 F900 X23.028 Y29.04 E0.03033
G1 X24.76 Y28.114 E0.13158
G1 X25.304 Y27.889 E0.16193
G1 X27.178 Y27.321 E0.26288
G1 X27.754 Y27.206 E0.29316
G1 X29.705 Y27.014 E0.39422
G1 X30.293 Y27.014 E0.42454
G1 X32.245 Y27.206 E0.52565
G1 X32.821 Y27.321 E0.55594
G1 X34.695 Y27.889 E0.65689
G1 X35.239 Y28.114 E0.68724
G1 X36.971 Y29.04 E0.78849
G1 X37.46 Y29.366 E0.81878
G1 X38.973 Y30.607 E0.91967
G1 X39.389 Y31.024 E0.95003
G1 X40.632 Y32.539 E1.05106
G1 X40.959 Y33.028 E1.08139
G1 X41.885 Y34.76 E1.18264
G1 X42.11 Y35.303 E1.21294
G1 X42.678 Y37.176 E1.31384
G1 X42.792 Y37.752 E1.34411
G1 X42.985 Y39.703 E1.44518
G1 X42.985 Y40.293 E1.4756
G1 X42.792 Y42.246 E1.57677
G1 X42.678 Y42.821 E1.60699
G1 X42.11 Y44.695 E1.70794
G1 X41.885 Y45.239 E1.73829
G1 X40.96 Y46.97 E1.83947
G1 X40.633 Y47.459 E1.8698
G1 X39.391 Y48.973 E1.97075
G1 X38.975 Y49.389 E2.00108
G1 X37.46 Y50.632 E2.10211
G1 X36.971 Y50.959 E2.13244
G1 X35.239 Y51.885 E2.23369
G1 X34.695 Y52.11 E2.26404
G1 X32.821 Y52.678 E2.36499
G1 X32.246 Y52.792 E2.39521
G1 X30.295 Y52.985 E2.49628
G1 X29.705 Y52.985 E2.52669
G1 X27.753 Y52.792 E2.62782
G1 X27.178 Y52.678 E2.65804
G1 X25.304 Y52.11 E2.75899
G1 X24.76 Y51.885 E2.78934
G1 X23.028 Y50.959 E2.89059
G1 X22.539 Y50.632 E2.92091
G1 X21.024 Y49.389 E3.02194
G1 X20.608 Y48.973 E3.05227
G1 X19.366 Y47.459 E3.15322
G1 X19.039 Y46.97 E3.18355
G1 X18.114 Y45.239 E3.28473
G1 X17.889 Y44.695 E3.31508
G1 X17.321 Y42.821 E3.41603
G1 X17.206 Y42.245 E3.44631
G1 X17.014 Y40.296 E3.54728
G1 X17.014 Y39.709 E3.57754
G1 X17.206 Y37.754 E3.67881
G1 X17.321 Y37.176 E3.70919
G1 X17.889 Y35.303 E3.81009
G1 X18.114 Y34.76 E3.84039
G1 X19.04 Y33.028 E3.94164
G1 X19.366 Y32.539 E3.97194
G1 X20.607 Y31.026 E4.07282
G1 X21.024 Y30.61 E4.10319
G1 X22.539 Y29.367 E4.20422
G0 F1125 X22.793 Y29.676
G1 F900 X23.216 Y29.393 E4.23045
G1 X24.948 Y28.467 E4.33171
G1 X25.42 Y28.272 E4.35803
G1 X27.294 Y27.704 E4.45898
G1 X27.793 Y27.604 E4.48522
G1 X29.744 Y27.412 E4.58629
G1 X30.254 Y27.412 E4.61258
G1 X32.206 Y27.604 E4.7137
G1 X32.705 Y27.704 E4.73993
G1 X34.579 Y28.272 E4.84088
G1 X35.051 Y28.467 E4.86721
G1 X36.783 Y29.393 E4.96846
G1 X37.206 Y29.676 E4.9947
G1 X38.719 Y30.917 E5.09558
G1 X39.08 Y31.278 E5.1219
G1 X40.323 Y32.793 E5.22293
G1 X40.606 Y33.216 E5.24917
G1 X41.532 Y34.948 E5.35042
G1 X41.727 Y35.419 E5.3767
G1 X42.295 Y37.292 E5.4776
G1 X42.394 Y37.791 E5.50382
G1 X42.587 Y39.742 E5.6049
G1 X42.587 Y40.254 E5.63129
G1 X42.394 Y42.207 E5.73246
G1 X42.295 Y42.705 E5.75864
G1 X41.727 Y44.579 E5.85959
G1 X41.532 Y45.05 E5.88587
G1 X40.607 Y46.781 E5.98705
G1 X40.324 Y47.205 E6.01333
G1 X39.082 Y48.719 E6.11429
G1 X38.721 Y49.08 E6.14061
G1 X37.206 Y50.323 E6.24163
G1 X36.783 Y50.606 E6.26787
G1 X35.051 Y51.532 E6.36912
G1 X34.579 Y51.727 E6.39545
G1 X32.705 Y52.295 E6.4964
G1 X32.207 Y52.394 E6.52258
G1 X30.256 Y52.587 E6.62365
G1 X29.744 Y52.587 E6.65004
G1 X27.792 Y52.394 E6.75116
G1 X27.294 Y52.295 E6.77734
G1 X25.42 Y51.727 E6.87829
G1 X24.948 Y51.532 E6.90462
G1 X23.216 Y50.606 E7.00587
G1 X22.793 Y50.323 E7.03211
G1 X21.278 Y49.08 E7.13313
G1 X20.917 Y48.719 E7.15945
G1 X19.675 Y47.205 E7.26041
G1 X19.392 Y46.781 E7.28669
G1 X18.467 Y45.05 E7.38787
G1 X18.272 Y44.579 E7.41415
G1 X17.704 Y42.705 E7.5151
G1 X17.605 Y42.206 E7.54133
G1 X17.413 Y40.257 E7.64229
G1 X17.412 Y39.748 E7.66853
G1 X17.604 Y37.793 E7.7698
G1 X17.704 Y37.292 E7.79614
G1 X18.272 Y35.419 E7.89704
G1 X18.467 Y34.948 E7.92332
G1 X19.393 Y33.216 E8.02457
G1 X19.676 Y32.793 E8.05081
G1 X20.917 Y31.28 E8.15169
G1 X21.278 Y30.919 E8.17801
G1 X22.793 Y29.676 E8.27904
G0 F1125 X23.047 Y29.985
G1 F900 X23.405 Y29.746 E8.30123
G1 X25.137 Y28.82 E8.40248
G1 X25.536 Y28.655 E8.42474
G1 X27.41 Y28.087 E8.52569
G1 X27.833 Y28.003 E8.54792
G1 X29.784 Y27.811 E8.64899
G1 X30.214 Y27.811 E8.67116
G1 X32.166 Y28.003 E8.77227
G1 X32.589 Y28.087 E8.79451
G1 X34.463 Y28.655 E8.89546
G1 X34.862 Y28.82 E8.91772
G1 X36.594 Y29.746 E9.01897
G1 X36.952 Y29.985 E9.04116
G1 X38.465 Y31.226 E9.14204
G1 X38.771 Y31.532 E9.16435
G1 X40.014 Y33.047 E9.26538
G1 X40.253 Y33.405 E9.28757
G1 X41.179 Y35.137 E9.38882
G1 X41.344 Y35.536 E9.41108
G1 X41.912 Y37.409 E9.51198
G1 X41.996 Y37.83 E9.53411
G1 X42.189 Y39.781 E9.63518
G1 X42.189 Y40.214 E9.6575
G1 X41.996 Y42.167 E9.75868
G1 X41.912 Y42.589 E9.78086
G1 X41.344 Y44.463 E9.88181
G1 X41.179 Y44.862 E9.90407
G1 X40.254 Y46.593 E10.00525
G1 X40.015 Y46.951 E10.02744
G1 X38.773 Y48.465 E10.1284
G1 X38.467 Y48.771 E10.15071
G1 X36.952 Y50.014 E10.25173
G1 X36.594 Y50.253 E10.27392
G1 X34.862 Y51.179 E10.37517
G1 X34.463 Y51.344 E10.39743
G1 X32.589 Y51.912 E10.49838
G1 X32.168 Y51.996 E10.52052
G1 X30.217 Y52.189 E10.62159
G1 X29.784 Y52.189 E10.64391
G1 X27.832 Y51.996 E10.74503
G1 X27.41 Y51.912 E10.76721
G1 X25.536 Y51.344 E10.86817
G1 X25.137 Y51.179 E10.89042
G1 X23.405 Y50.253 E10.99168
G1 X23.047 Y50.014 E11.01387
G1 X21.532 Y48.771 E11.11489
G1 X21.226 Y48.465 E11.1372
G1 X19.984 Y46.951 E11.23816
G1 X19.745 Y46.593 E11.26035
G1 X18.82 Y44.862 E11.36153
G1 X18.655 Y44.463 E11.38379
G1 X18.087 Y42.589 E11.48474
G1 X18.003 Y42.167 E11.50692
G1 X17.811 Y40.218 E11.60788
G1 X17.811 Y39.787 E11.6301
G1 X18.003 Y37.832 E11.73138
G1 X18.087 Y37.409 E11.75361
G1 X18.655 Y35.536 E11.85451
G1 X18.82 Y35.137 E11.87677
G1 X19.746 Y33.405 E11.97802
G1 X19.985 Y33.047 E12.00021
G1 X21.226 Y31.534 E12.10109
G1 X21.532 Y31.228 E12.1234
G1 X23.047 Y29.985 E12.22443
G0 F1125 X23.3 Y30.294
G1 F900 X23.593 Y30.099 E12.24257
G1 X25.325 Y29.173 E12.34382
G1 X25.652 Y29.037 E12.36208
G1 X27.526 Y28.469 E12.46303
G1 X27.872 Y28.401 E12.48121
G1 X29.823 Y28.209 E12.58228
G1 X30.175 Y28.209 E12.60042
G1 X32.127 Y28.401 E12.70154
G1 X32.473 Y28.469 E12.71972
G1 X34.347 Y29.037 E12.82067
G1 X34.674 Y29.173 E12.83893
G1 X36.406 Y30.099 E12.94018
G1 X36.699 Y30.294 E12.95832
G1 X38.212 Y31.535 E13.05921
G1 X38.462 Y31.785 E13.07743
G1 X39.705 Y33.3 E13.17846
G1 X39.9 Y33.593 E13.1966
G1 X40.826 Y35.325 E13.29785
G1 X40.962 Y35.652 E13.31611
G1 X41.53 Y37.525 E13.41701
G1 X41.598 Y37.87 E13.43514
G1 X41.791 Y39.821 E13.53621
G1 X41.791 Y40.175 E13.55446
G1 X41.598 Y42.128 E13.65564
G1 X41.53 Y42.473 E13.67376
G1 X40.962 Y44.347 E13.77472
G1 X40.827 Y44.673 E13.79291
G1 X39.902 Y46.404 E13.89409
G1 X39.706 Y46.698 E13.9123
G1 X38.464 Y48.212 E14.01326
G1 X38.214 Y48.462 E14.03148
G1 X36.699 Y49.705 E14.13251
G1 X36.406 Y49.9 E14.15066
G1 X34.674 Y50.826 E14.25191
G1 X34.347 Y50.962 E14.27016
G1 X32.473 Y51.53 E14.37111
G1 X32.128 Y51.598 E14.38924
G1 X30.177 Y51.791 E14.49031
G1 X29.823 Y51.791 E14.50856
G1 X27.871 Y51.598 E14.60969
G1 X27.526 Y51.53 E14.62781
G1 X25.652 Y50.962 E14.72876
G1 X25.325 Y50.826 E14.74702
G1 X23.593 Y49.9 E14.84827
G1 X23.3 Y49.705 E14.86642
G1 X21.785 Y48.462 E14.96744
G1 X21.535 Y48.212 E14.98567
G1 X20.293 Y46.698 E15.08663
G1 X20.097 Y46.404 E15.10484
G1 X19.172 Y44.673 E15.20602
G1 X19.037 Y44.347 E15.22421
G1 X18.469 Y42.473 E15.32516
G1 X18.401 Y42.127 E15.34334
G1 X18.209 Y40.178 E15.44431
G1 X18.209 Y39.826 E15.46245
G1 X18.401 Y37.871 E15.56372
G1 X18.469 Y37.525 E15.5819
G1 X19.037 Y35.652 E15.6828
G1 X19.173 Y35.325 E15.70106
G1 X20.099 Y33.593 E15.80231
G1 X20.294 Y33.3 E15.82046
G1 X21.535 Y31.787 E15.92134
G1 X21.785 Y31.537 E15.93957
G1 X23.3 Y30.294 E16.04059
G0 F1125 X23.554 Y30.604
G1 F900 X23.782 Y30.451 E16.05475
G1 X25.514 Y29.525 E16.156
G1 X25.768 Y29.42 E16.17017
G1 X27.642 Y28.852 E16.27112
G1 X27.911 Y28.799 E16.28525
G1 X29.862 Y28.607 E16.38632
G1 X30.136 Y28.607 E16.40044
G1 X32.088 Y28.799 E16.50156
G1 X32.357 Y28.852 E16.5157
G1 X34.231 Y29.42 E16.61665
G1 X34.485 Y29.525 E16.63082
G1 X36.217 Y30.451 E16.73207
G1 X36.445 Y30.604 E16.74622
G1 X37.958 Y31.845 E16.8471
G1 X38.152 Y32.039 E16.86125
G1 X39.395 Y33.554 E16.96228
G1 X39.548 Y33.782 E16.97643
G1 X40.474 Y35.514 E17.07768
G1 X40.579 Y35.768 E17.09185
G1 X41.147 Y37.641 E17.19275
G1 X41.2 Y37.909 E17.20684
G1 X41.393 Y39.86 E17.30791
G1 X41.393 Y40.136 E17.32214
G1 X41.2 Y42.089 E17.42331
G1 X41.147 Y42.357 E17.43739
G1 X40.579 Y44.231 E17.53834
G1 X40.474 Y44.485 E17.55251
G1 X39.549 Y46.216 E17.65369
G1 X39.396 Y46.444 E17.66785
G1 X38.154 Y47.958 E17.7688
G1 X37.96 Y48.152 E17.78295
G1 X36.445 Y49.395 E17.88397
G1 X36.217 Y49.548 E17.89813
G1 X34.485 Y50.474 E17.99938
G1 X34.231 Y50.579 E18.01355
G1 X32.357 Y51.147 E18.1145
G1 X32.089 Y51.2 E18.12858
G1 X30.138 Y51.393 E18.22966
G1 X29.862 Y51.393 E18.24388
G1 X27.91 Y51.2 E18.34501
G1 X27.642 Y51.147 E18.35909
G1 X25.768 Y50.579 E18.46004
G1 X25.514 Y50.474 E18.47421
G1 X23.782 Y49.548 E18.57546
G1 X23.554 Y49.395 E18.58962
G1 X22.039 Y48.152 E18.69064
G1 X21.845 Y47.958 E18.70479
G1 X20.603 Y46.444 E18.80574
G1 X20.45 Y46.216 E18.8199
G1 X19.525 Y44.485 E18.92108
G1 X19.42 Y44.231 E18.93525
G1 X18.852 Y42.357 E19.0362
G1 X18.799 Y42.088 E19.05033
G1 X18.607 Y40.139 E19.1513
G1 X18.607 Y39.865 E19.16542
G1 X18.799 Y37.91 E19.26669
G1 X18.852 Y37.641 E19.28083
G1 X19.42 Y35.768 E19.38173
G1 X19.525 Y35.514 E19.3959
G1 X20.451 Y33.782 E19.49715
G1 X20.604 Y33.554 E19.5113
G1 X21.845 Y32.041 E19.61219
G1 X22.039 Y31.847 E19.62633
G1 X23.554 Y30.604 E19.72736
G0 F1125 X23.808 Y30.913
G1 F900 X23.971 Y30.804 E19.73747
G1 X25.703 Y29.878 E19.83872
G1 X25.884 Y29.803 E19.84882
G1 X27.758 Y29.235 E19.94977
G1 X27.95 Y29.197 E19.95986
G1 X29.901 Y29.005 E20.06092
G1 X30.097 Y29.005 E20.07103
G1 X32.049 Y29.197 E20.17215
G1 X32.241 Y29.235 E20.18224
G1 X34.115 Y29.803 E20.28319
G1 X34.296 Y29.878 E20.29329
G1 X36.028 Y30.804 E20.39454
G1 X36.191 Y30.913 E20.40465
G1 X37.704 Y32.154 E20.50553
G1 X37.843 Y32.293 E20.51566
G1 X39.086 Y33.808 E20.61669
G1 X39.195 Y33.971 E20.6268
G1 X40.121 Y35.703 E20.72805
G1 X40.196 Y35.884 E20.73815
G1 X40.764 Y37.757 E20.83905
G1 X40.802 Y37.949 E20.84914
G1 X40.995 Y39.9 E20.95021
G1 X40.995 Y40.096 E20.96032
G1 X40.802 Y42.049 E21.06149
G1 X40.764 Y42.241 E21.07158
G1 X40.196 Y44.115 E21.17253
G1 X40.121 Y44.296 E21.18263
G1 X39.196 Y46.027 E21.28381
G1 X39.087 Y46.19 E21.29392
G1 X37.845 Y47.704 E21.39488
G1 X37.706 Y47.843 E21.40501
G1 X36.191 Y49.086 E21.50604
G1 X36.028 Y49.195 E21.51615
G1 X34.296 Y50.121 E21.6174
G1 X34.115 Y50.196 E21.6275
G1 X32.241 Y50.764 E21.72845
G1 X32.049 Y50.802 E21.73854
G1 X30.098 Y50.995 E21.83961
G1 X29.902 Y50.995 E21.84971
G1 X27.95 Y50.802 E21.95084
G1 X27.758 Y50.764 E21.96093
G1 X25.884 Y50.196 E22.06188
G1 X25.703 Y50.121 E22.07198
G1 X23.971 Y49.195 E22.17323
G1 X23.808 Y49.086 E22.18334
G1 X22.293 Y47.843 E22.28437
G1 X22.154 Y47.704 E22.2945
G1 X20.912 Y46.19 E22.39545
G1 X20.803 Y46.027 E22.40556
G1 X19.878 Y44.296 E22.50674
G1 X19.803 Y44.115 E22.51684
G1 X19.235 Y42.241 E22.61779
G1 X19.197 Y42.049 E22.62788
G1 X19.005 Y40.1 E22.72885
G1 X19.005 Y39.904 E22.73895
G1 X19.197 Y37.949 E22.84022
G1 X19.235 Y37.757 E22.85031
G1 X19.803 Y35.884 E22.95122
G1 X19.878 Y35.703 E22.96132
G1 X20.804 Y33.971 E23.06257
G1 X20.913 Y33.808 E23.07268
G1 X22.154 Y32.295 E23.17356
G1 X22.293 Y32.156 E23.18369
G1 X23.808 Y30.913 E23.28472
G0 F1125 X24.061 Y31.222
G1 F900 X24.159 Y31.157 E23.29078
G1 X25.891 Y30.231 E23.39203
G1 X26 Y30.186 E23.39811
G1 X27.874 Y29.618 E23.49906
G1 X27.989 Y29.595 E23.50511
G1 X29.94 Y29.403 E23.60617
G1 X30.058 Y29.403 E23.61226
G1 X32.01 Y29.595 E23.71337
G1 X32.125 Y29.618 E23.71942
G1 X33.999 Y30.186 E23.82037
G1 X34.108 Y30.231 E23.82645
G1 X35.84 Y31.157 E23.9277
G1 X35.938 Y31.222 E23.93376
G1 X37.451 Y32.463 E24.03465
G1 X37.534 Y32.546 E24.0407
G1 X38.777 Y34.061 E24.14172
G1 X38.842 Y34.159 E24.14779
G1 X39.768 Y35.891 E24.24904
G1 X39.813 Y36 E24.25512
G1 X40.381 Y37.873 E24.35602
G1 X40.404 Y37.988 E24.36206
G1 X40.597 Y39.939 E24.46314
G1 X40.597 Y40.057 E24.46922
G1 X40.404 Y42.01 E24.57039
G1 X40.381 Y42.125 E24.57644
G1 X39.813 Y43.999 E24.67739
G1 X39.768 Y44.108 E24.68347
G1 X38.843 Y45.839 E24.78465
G1 X38.778 Y45.937 E24.79071
G1 X37.536 Y47.451 E24.89167
G1 X37.453 Y47.534 E24.89772
G1 X35.938 Y48.777 E24.99874
G1 X35.84 Y48.842 E25.00481
G1 X34.108 Y49.768 E25.10606
G1 X33.999 Y49.813 E25.11214
G1 X32.125 Y50.381 E25.21309
G1 X32.01 Y50.404 E25.21913
G1 X30.059 Y50.597 E25.3202
G1 X29.941 Y50.597 E25.32629
G1 X27.989 Y50.404 E25.42741
G1 X27.874 Y50.381 E25.43346
G1 X26 Y49.813 E25.53441
G1 X25.891 Y49.768 E25.54049
G1 X24.159 Y48.842 E25.64174
G1 X24.061 Y48.777 E25.6478
G1 X22.546 Y47.534 E25.74883
G1 X22.463 Y47.451 E25.75488
G1 X21.221 Y45.937 E25.85583
G1 X21.156 Y45.839 E25.86189
G1 X20.231 Y44.108 E25.96308
G1 X20.186 Y43.999 E25.96916
G1 X19.618 Y42.125 E26.07011
G1 X19.595 Y42.01 E26.07615
G1 X19.403 Y40.061 E26.17712
G1 X19.403 Y39.943 E26.1832
G1 X19.595 Y37.988 E26.28447
G1 X19.618 Y37.873 E26.29052
G1 X20.186 Y36 E26.39142
G1 X20.231 Y35.891 E26.3975
G1 X21.157 Y34.159 E26.49875
G1 X21.222 Y34.061 E26.50481
G1 X22.463 Y32.548 E26.60569
G1 X22.546 Y32.465 E26.61174
G1 X24.061 Y31.222 E26.71277
G0 F1125 X24.315 Y31.531
G1 F900 X24.348 Y31.51 E26.71479
G1 X26.08 Y30.584 E26.81604
G1 X26.116 Y30.569 E26.81805
G1 X27.99 Y30.001 E26.919
G1 X28.028 Y29.993 E26.921
G1 X29.979 Y29.801 E27.02207
G1 X30.019 Y29.801 E27.02413
G1 X31.971 Y29.993 E27.12525
G1 X32.009 Y30.001 E27.12725
G1 X33.883 Y30.569 E27.2282
G1 X33.919 Y30.584 E27.23021
G1 X35.651 Y31.51 E27.33146
G1 X35.684 Y31.531 E27.33348
G1 X37.197 Y32.772 E27.43436
G1 X37.225 Y32.8 E27.4364
G1 X38.468 Y34.315 E27.53743
G1 X38.489 Y34.348 E27.53944
G1 X39.415 Y36.08 E27.64069
G1 X39.43 Y36.116 E27.6427
G1 X39.998 Y37.989 E27.74361
G1 X40.006 Y38.027 E27.74561
G1 X40.199 Y39.978 E27.84668
G1 X40.199 Y40.018 E27.84874
G1 X40.006 Y41.971 E27.94992
G1 X39.998 Y42.009 E27.95192
G1 X39.43 Y43.883 E28.05287
G1 X39.415 Y43.919 E28.05488
G1 X38.49 Y45.65 E28.15606
G1 X38.469 Y45.683 E28.15808
G1 X37.227 Y47.197 E28.25903
G1 X37.199 Y47.225 E28.26107
G1 X35.684 Y48.468 E28.3621
G1 X35.651 Y48.489 E28.36412
G1 X33.919 Y49.415 E28.46537
G1 X33.883 Y49.43 E28.46738
G1 X32.009 Y49.998 E28.56833
G1 X31.971 Y50.006 E28.57033
G1 X30.02 Y50.199 E28.6714
G1 X29.98 Y50.199 E28.67346
G1 X28.028 Y50.006 E28.77458
G1 X27.99 Y49.998 E28.77659
G1 X26.116 Y49.43 E28.87754
G1 X26.08 Y49.415 E28.87955
G1 X24.348 Y48.489 E28.9808
G1 X24.315 Y48.468 E28.98282
G1 X22.8 Y47.225 E29.08384
G1 X22.772 Y47.197 E29.08588
G1 X21.53 Y45.683 E29.18684
G1 X21.509 Y45.65 E29.18885
G1 X20.584 Y43.919 E29.29004
G1 X20.569 Y43.883 E29.29205
G1 X20.001 Y42.009 E29.393
G1 X19.993 Y41.971 E29.395
G1 X19.801 Y40.022 E29.49596
G1 X19.801 Y39.982 E29.49802
G1 X19.993 Y38.027 E29.5993
G1 X20.001 Y37.989 E29.6013
G1 X20.569 Y36.116 E29.7022
G1 X20.584 Y36.08 E29.70421
G1 X21.51 Y34.348 E29.80546
G1 X21.531 Y34.315 E29.80748
G1 X22.772 Y32.802 E29.90836
G1 X22.8 Y32.774 E29.9104
G1 X24.315 Y31.531 E30.01143
G1 F2400 E29.51143
G1 F300 Z0.51
G0 F1125 X119.691 Y192.643 Z0.51
G1 F300 Z0.31
G1 F2400 E30.01143
G1 F900 X120.388 Y192.26 E30.05243
G1 X120.602 Y192.153 E30.06476
G1 X121.329 Y191.826 E30.10586
G1 X121.666 Y191.698 E30.12444
G1 X123.184 Y191.224 E30.20643
G1 X123.655 Y191.118 E30.23132
G1 X125.24 Y190.892 E30.31385
