;FLAVOR:Marlin
;TIME:3538
;Filament used: 4.09593m, 0m
;Layer height: 0.3
;Generated with Cura_SteamEngine master
T0
M140 S60
M105
M190 S60
M104 S210
M105
M109 S210
M82 ;absolute extrusion mode
;Sliced at: Sat 18-05-2019 12:05:21


G21 ;metric values
M107
G28
M420 S1
G90 ;absolute positioning
G92 E0; reset extruder distance
G1 Z5 F2000 ;move nozzle up 5mm for safe homing
G1 X0 Y0 F5000; move nozzle to home
M190 S60 ;Uncomment to add your own bed temperature line
M109 S210 ;Uncomment to add your own temperature line
G29	;ABL
M82 ;set extruder to absolute mode
M107 ;start with the fan off
G1 Z15.0 F{travel_speed} ;move the platform down 15mm
G92 E0 ;zero the extruded length
G1 F200 E3 ;extrude 3mm of feed stock
G92 E0 ;zero the extruded length again
G1 F{travel_speed}
M117 Printing...
G92 E0
G1 F2400 E-0.5
;LAYER_COUNT:3
;LAYER:0
M107
G0 F2400 X2.758 Y2.734 Z0.31
;TYPE:SKIRT
G1 F2400 E0
G1 F1200 X3.145 Y2.408 E0.02609
G1 X3.578 Y2.147 E0.05215
G1 X4.046 Y1.957 E0.07819
G1 X4.539 Y1.844 E0.10426
G1 X5.009 Y1.809 E0.12856
G1 X53.744 Y1.81 E2.64101
G1 X54.248 Y1.85 E2.66707
G1 X54.739 Y1.969 E2.69312
G1 X55.206 Y2.164 E2.71921
G1 X55.633 Y2.427 E2.74506
G1 X59.27 Y5.086 E2.97733
G1 X63.862 Y8.101 E3.26052
G1 X68.609 Y10.848 E3.54327
G1 X73.482 Y13.311 E3.82475
G1 X78.522 Y15.51 E4.10824
G1 X81.071 Y16.496 E4.24913
G1 X86.247 Y18.248 E4.53085
G1 X91.524 Y19.708 E4.81311
G1 X96.903 Y20.875 E5.09687
G1 X99.539 Y21.328 E5.23475
G1 X105.003 Y22.035 E5.51879
G1 X110.458 Y22.427 E5.80074
G1 X115.947 Y22.513 E6.08375
G1 X121.396 Y22.288 E6.3649
G1 X126.857 Y21.753 E6.64778
G1 X132.296 Y20.907 E6.93155
G1 X134.925 Y20.383 E7.06975
G1 X137.598 Y19.772 E7.21111
G1 X142.898 Y18.32 E7.49441
G1 X148.113 Y16.568 E7.77802
G1 X150.585 Y15.622 E7.91447
G1 X155.665 Y13.42 E8.19991
G1 X160.562 Y10.961 E8.48241
G1 X165.312 Y8.228 E8.76493
G1 X169.899 Y5.233 E9.04734
G1 X173.75 Y2.424 E9.29308
G1 X174.181 Y2.159 E9.31916
G1 X174.648 Y1.965 E9.34523
G1 X175.139 Y1.848 E9.37125
G1 X175.636 Y1.809 E9.39695
G1 X224.372 Y1.811 E11.90945
G1 X224.876 Y1.851 E11.93552
G1 X225.368 Y1.97 E11.96161
G1 X225.834 Y2.165 E11.98765
G1 X226.225 Y2.402 E12.01122
G1 X232.183 Y6.635 E12.38801
G1 X236.841 Y9.508 E12.67015
G1 X241.65 Y12.112 E12.95208
G1 X246.607 Y14.444 E13.23449
G1 X251.734 Y16.511 E13.51948
G1 X254.24 Y17.397 E13.65651
G1 X259.499 Y19.014 E13.94015
G1 X264.845 Y20.332 E14.22401
G1 X267.499 Y20.87 E14.36361
G1 X270.164 Y21.328 E14.50302
G1 X275.628 Y22.035 E14.78705
G1 X281.083 Y22.427 E15.069
G1 X286.572 Y22.513 E15.35201
G1 X292.021 Y22.288 E15.63316
G1 X297.482 Y21.753 E15.91604
G1 X302.921 Y20.907 E16.19981
G1 X305.55 Y20.383 E16.33801
G1 X308.223 Y19.772 E16.47937
G1 X313.523 Y18.32 E16.76267
G1 X318.738 Y16.568 E17.04628
G1 X321.21 Y15.622 E17.18274
G1 X326.29 Y13.42 E17.46817
G1 X331.187 Y10.961 E17.75067
G1 X335.937 Y8.228 E18.03319
G1 X340.524 Y5.233 E18.31561
G1 X344.375 Y2.424 E18.56134
G1 X344.806 Y2.159 E18.58742
G1 X345.273 Y1.965 E18.61349
G1 X345.764 Y1.848 E18.63952
G1 X346.261 Y1.809 E18.66522
G1 X394.991 Y1.809 E21.1774
G1 X395.495 Y1.849 E21.20347
G1 X395.986 Y1.968 E21.22951
G1 X396.453 Y2.162 E21.25558
G1 X396.883 Y2.428 E21.28165
G1 X397.266 Y2.758 E21.30771
G1 X397.592 Y3.145 E21.3338
G1 X397.853 Y3.578 E21.35986
G1 X398.043 Y4.046 E21.3859
G1 X398.156 Y4.539 E21.41198
G1 X398.191 Y5.009 E21.43628
G1 X398.19 Y53.747 E23.94888
G1 X398.15 Y54.251 E23.97494
G1 X398.031 Y54.742 E24.00099
G1 X397.836 Y55.209 E24.02708
G1 X397.598 Y55.601 E24.05072
G1 X393.366 Y61.556 E24.42735
G1 X390.492 Y66.216 E24.7096
G1 X387.888 Y71.025 E24.99153
G1 X385.556 Y75.982 E25.27395
G1 X383.489 Y81.109 E25.55893
G1 X382.603 Y83.615 E25.69596
G1 X380.986 Y88.874 E25.97961
G1 X379.668 Y94.22 E26.26346
G1 X379.13 Y96.874 E26.40307
G1 X378.672 Y99.539 E26.54247
G1 X377.965 Y105.003 E26.8265
G1 X377.573 Y110.458 E27.10845
G1 X377.487 Y115.947 E27.39146
G1 X377.712 Y121.396 E27.67262
G1 X378.247 Y126.857 E27.9555
G1 X379.093 Y132.296 E28.23927
G1 X379.617 Y134.925 E28.37746
G1 X380.228 Y137.598 E28.51882
G1 X381.68 Y142.898 E28.80212
G1 X383.432 Y148.113 E29.08574
G1 X384.378 Y150.585 E29.22219
G1 X386.58 Y155.665 E29.50762
G1 X389.037 Y160.558 E29.78989
G1 X391.777 Y165.321 E30.07317
G1 X394.755 Y169.883 E30.35403
G1 X397.574 Y173.742 E30.6004
G1 X397.839 Y174.173 E30.62649
G1 X398.033 Y174.64 E30.65256
G1 X398.151 Y175.132 E30.67864
G1 X398.19 Y175.63 E30.70439
G1 X398.19 Y224.371 E33.21715
G1 X398.15 Y224.875 E33.24321
G1 X398.031 Y225.366 E33.26926
G1 X397.837 Y225.833 E33.29533
G1 X397.599 Y226.224 E33.31892
G1 X393.364 Y232.184 E33.69585
G1 X390.492 Y236.841 E33.97792
G1 X387.888 Y241.65 E34.25985
G1 X385.556 Y246.607 E34.54227
G1 X383.489 Y251.734 E34.82725
G1 X382.603 Y254.24 E34.96428
G1 X380.986 Y259.499 E35.24793
G1 X379.668 Y264.845 E35.53178
G1 X379.13 Y267.499 E35.67139
G1 X378.672 Y270.164 E35.81079
G1 X377.965 Y275.628 E36.09482
G1 X377.573 Y281.083 E36.37677
G1 X377.487 Y286.572 E36.65978
G1 X377.712 Y292.021 E36.94094
G1 X378.247 Y297.482 E37.22382
G1 X379.093 Y302.921 E37.50759
G1 X379.617 Y305.55 E37.64578
G1 X380.228 Y308.223 E37.78714
G1 X381.68 Y313.523 E38.07044
G1 X383.432 Y318.738 E38.35406
G1 X384.378 Y321.21 E38.49051
G1 X386.58 Y326.29 E38.77594
G1 X389.037 Y331.183 E39.05821
G1 X391.777 Y335.946 E39.34149
G1 X394.755 Y340.508 E39.62235
G1 X397.574 Y344.367 E39.86872
G1 X397.839 Y344.798 E39.89481
G1 X398.033 Y345.265 E39.92088
G1 X398.151 Y345.757 E39.94696
G1 X398.19 Y346.255 E39.97271
G1 X398.19 Y394.991 E42.48521
G1 X398.15 Y395.495 E42.51127
G1 X398.031 Y395.986 E42.53732
G1 X397.837 Y396.453 E42.56339
G1 X397.571 Y396.883 E42.58945
G1 X397.241 Y397.266 E42.61552
G1 X396.854 Y397.592 E42.6416
G1 X396.421 Y397.853 E42.66767
G1 X395.953 Y398.043 E42.69371
G1 X395.46 Y398.156 E42.71978
G1 X394.99 Y398.191 E42.74408
G1 X346.254 Y398.19 E45.25658
G1 X345.75 Y398.15 E45.28264
G1 X345.259 Y398.031 E45.30869
G1 X344.792 Y397.836 E45.33478
G1 X344.401 Y397.599 E45.35835
G1 X338.431 Y393.358 E45.73587
G1 X333.797 Y390.499 E46.01658
G1 X328.975 Y387.888 E46.29927
G1 X324.018 Y385.556 E46.58169
G1 X318.891 Y383.489 E46.86668
G1 X316.385 Y382.603 E47.0037
G1 X311.126 Y380.986 E47.28735
G1 X305.78 Y379.668 E47.5712
G1 X303.126 Y379.13 E47.71081
G1 X300.461 Y378.672 E47.85021
G1 X294.997 Y377.965 E48.13425
G1 X289.542 Y377.573 E48.4162
G1 X284.053 Y377.487 E48.69921
G1 X278.604 Y377.712 E48.98036
G1 X273.143 Y378.247 E49.26324
G1 X267.704 Y379.093 E49.54701
G1 X265.075 Y379.617 E49.68521
G1 X262.402 Y380.228 E49.82656
G1 X257.102 Y381.68 E50.10986
G1 X251.887 Y383.432 E50.39348
G1 X249.415 Y384.378 E50.52993
G1 X244.335 Y386.58 E50.81537
G1 X239.441 Y389.038 E51.0977
G1 X234.688 Y391.772 E51.38038
G1 X230.101 Y394.767 E51.6628
G1 X226.25 Y397.576 E51.90854
G1 X225.819 Y397.841 E51.93462
G1 X225.352 Y398.035 E51.96069
G1 X224.861 Y398.152 E51.98671
G1 X224.364 Y398.191 E52.01241
G1 X175.629 Y398.19 E54.52486
G1 X175.125 Y398.15 E54.55092
G1 X174.634 Y398.031 E54.57697
G1 X174.167 Y397.836 E54.60306
G1 X173.776 Y397.599 E54.62663
G1 X167.806 Y393.358 E55.00415
G1 X163.172 Y390.499 E55.28486
G1 X158.35 Y387.888 E55.56755
G1 X153.393 Y385.556 E55.84997
G1 X148.266 Y383.489 E56.13495
G1 X145.76 Y382.603 E56.27198
G1 X140.501 Y380.986 E56.55563
G1 X135.155 Y379.668 E56.83948
G1 X132.501 Y379.13 E56.97909
G1 X129.836 Y378.672 E57.11849
G1 X124.372 Y377.965 E57.40253
G1 X118.917 Y377.573 E57.68448
G1 X113.428 Y377.487 E57.96749
G1 X107.979 Y377.712 E58.24864
G1 X102.518 Y378.247 E58.53152
G1 X97.079 Y379.093 E58.81529
G1 X94.45 Y379.617 E58.95349
G1 X91.777 Y380.228 E59.09484
G1 X86.477 Y381.68 E59.37814
G1 X81.262 Y383.432 E59.66176
G1 X78.79 Y384.378 E59.79821
G1 X73.71 Y386.58 E60.08365
G1 X68.816 Y389.038 E60.36598
G1 X64.063 Y391.772 E60.64866
G1 X59.476 Y394.767 E60.93108
G1 X55.625 Y397.576 E61.17681
G1 X55.194 Y397.841 E61.2029
G1 X54.727 Y398.035 E61.22897
G1 X54.236 Y398.152 E61.25499
G1 X53.739 Y398.191 E61.28069
G1 X5.009 Y398.191 E63.79288
G1 X4.505 Y398.151 E63.81894
G1 X4.014 Y398.032 E63.84499
G1 X3.547 Y397.838 E63.87106
G1 X3.117 Y397.572 E63.89712
G1 X2.734 Y397.242 E63.92319
G1 X2.408 Y396.855 E63.94927
G1 X2.147 Y396.422 E63.97534
G1 X1.957 Y395.954 E64.00138
G1 X1.844 Y395.461 E64.02745
G1 X1.809 Y394.991 E64.05175
G1 X1.81 Y346.253 E66.56435
G1 X1.85 Y345.749 E66.59041
G1 X1.969 Y345.258 E66.61646
G1 X2.164 Y344.791 E66.64255
G1 X2.428 Y344.363 E66.66847
G1 X5.084 Y340.733 E66.90036
G1 X8.101 Y336.138 E67.18374
G1 X10.848 Y331.391 E67.46649
G1 X13.311 Y326.518 E67.74797
G1 X15.51 Y321.478 E68.03145
G1 X16.496 Y318.929 E68.17235
G1 X18.248 Y313.753 E68.45406
G1 X19.708 Y308.476 E68.73633
G1 X20.875 Y303.097 E69.02008
G1 X21.328 Y300.461 E69.15797
G1 X22.035 Y294.997 E69.44201
G1 X22.427 Y289.542 E69.72395
G1 X22.513 Y284.053 E70.00696
G1 X22.288 Y278.604 E70.28812
G1 X21.753 Y273.143 E70.571
G1 X20.907 Y267.704 E70.85477
G1 X20.383 Y265.075 E70.99297
G1 X19.772 Y262.402 E71.13432
G1 X18.32 Y257.102 E71.41762
G1 X16.568 Y251.887 E71.70124
G1 X15.618 Y249.406 E71.8382
G1 X13.423 Y244.34 E72.12283
G1 X10.963 Y239.441 E72.40544
G1 X8.228 Y234.688 E72.68814
G1 X5.233 Y230.101 E72.97056
G1 X2.424 Y226.25 E73.2163
G1 X2.159 Y225.819 E73.24238
G1 X1.965 Y225.352 E73.26845
G1 X1.848 Y224.861 E73.29447
G1 X1.809 Y224.364 E73.32017
G1 X1.81 Y175.628 E75.83267
G1 X1.85 Y175.124 E75.85873
G1 X1.969 Y174.633 E75.88478
G1 X2.164 Y174.166 E75.91087
G1 X2.428 Y173.738 E75.93679
G1 X5.084 Y170.108 E76.16868
G1 X8.101 Y165.513 E76.45206
G1 X10.848 Y160.766 E76.73481
G1 X13.311 Y155.893 E77.01629
G1 X15.51 Y150.853 E77.29977
G1 X16.496 Y148.304 E77.44067
G1 X18.248 Y143.128 E77.72238
G1 X19.708 Y137.851 E78.00465
G1 X20.875 Y132.472 E78.2884
G1 X21.328 Y129.836 E78.42629
G1 X22.035 Y124.372 E78.71033
G1 X22.427 Y118.917 E78.99227
G1 X22.513 Y113.428 E79.27528
G1 X22.288 Y107.979 E79.55644
G1 X21.753 Y102.518 E79.83932
G1 X20.907 Y97.079 E80.12309
G1 X20.383 Y94.45 E80.26129
G1 X19.772 Y91.777 E80.40264
G1 X18.32 Y86.477 E80.68594
G1 X16.568 Y81.262 E80.96956
G1 X15.618 Y78.781 E81.10652
G1 X13.423 Y73.715 E81.39115
G1 X10.963 Y68.816 E81.67376
G1 X8.228 Y64.063 E81.95646
G1 X5.233 Y59.476 E82.23888
G1 X2.424 Y55.625 E82.48462
G1 X2.159 Y55.194 E82.5107
G1 X1.965 Y54.727 E82.53677
G1 X1.848 Y54.236 E82.56279
G1 X1.809 Y53.739 E82.58849
G1 X1.809 Y5.009 E85.10068
G1 X1.849 Y4.505 E85.12674
G1 X1.968 Y4.014 E85.15279
G1 X2.162 Y3.547 E85.17886
G1 X2.428 Y3.117 E85.20493
G1 X2.758 Y2.734 E85.23099
G1 F2400 E84.73099
;MESH:BedLeveling.stl
G0 F2400 X48.275 Y48.275
;TYPE:WALL-INNER
G1 F2400 E85.23099
G1 F1200 X10.475 Y48.275 E87.1797
G1 X10.475 Y10.475 E89.12841
G1 X48.275 Y10.475 E91.07712
G1 X48.275 Y48.275 E93.02583
G0 F2400 X48.675 Y48.675
;TYPE:WALL-OUTER
G1 F1200 X10.075 Y48.675 E95.01579
G1 X10.075 Y10.075 E97.00574
G1 X48.675 Y10.075 E98.9957
G1 X48.675 Y48.675 E100.98565
G0 F2400 X48.475 Y48.675
G1 F2400 E100.48565
G0 F2400 X47.885 Y47.885
;TYPE:SKIN
G1 F2400 E100.98565
G1 F1200 X10.865 Y47.885 E102.89415
G1 X10.865 Y10.865 E104.80265
G1 X47.885 Y10.865 E106.71115
G1 X47.885 Y47.885 E108.61965
G1 F2400 E108.11965
G0 F2400 X47.704 Y11.501
G1 F2400 E108.61965
G1 F1200 X47.248 Y11.045 E108.6529
G0 F2400 X46.683 Y11.045
G1 F1200 X47.704 Y12.066 E108.72733
G0 F2400 X47.704 Y12.632
G1 F1200 X46.117 Y11.045 E108.84304
G0 F2400 X45.551 Y11.045
G1 F1200 X47.704 Y13.198 E109.00001
G0 F2400 X47.704 Y13.763
G1 F1200 X44.986 Y11.045 E109.19817
G0 F2400 X44.42 Y11.045
G1 F1200 X47.704 Y14.329 E109.4376
G0 F2400 X47.704 Y14.895
G1 F1200 X43.854 Y11.045 E109.71829
G0 F2400 X43.289 Y11.045
G1 F1200 X47.704 Y15.46 E110.04017
G0 F2400 X47.704 Y16.026
G1 F1200 X42.723 Y11.045 E110.40333
G0 F2400 X42.157 Y11.045
G1 F1200 X47.704 Y16.592 E110.80774
G0 F2400 X47.704 Y17.157
G1 F1200 X41.592 Y11.045 E111.25335
G0 F2400 X41.026 Y11.045
G1 F1200 X47.704 Y17.723 E111.74023
G0 F2400 X47.704 Y18.289
G1 F1200 X40.46 Y11.045 E112.26837
G0 F2400 X39.894 Y11.045
G1 F1200 X47.704 Y18.855 E112.83777
G0 F2400 X47.704 Y19.42
G1 F1200 X39.329 Y11.045 E113.44837
G0 F2400 X38.763 Y11.045
G1 F1200 X47.704 Y19.986 E114.10023
G0 F2400 X47.704 Y20.552
G1 F1200 X38.197 Y11.045 E114.79336
G0 F2400 X37.632 Y11.045
G1 F1200 X47.704 Y21.117 E115.52768
G0 F2400 X47.704 Y21.683
G1 F1200 X37.066 Y11.045 E116.30327
G0 F2400 X36.5 Y11.045
G1 F1200 X47.704 Y22.249 E117.12012
G0 F2400 X47.704 Y22.814
G1 F1200 X35.935 Y11.045 E117.97817
G0 F2400 X35.369 Y11.045
G1 F1200 X47.704 Y23.38 E118.87748
G0 F2400 X47.704 Y23.946
G1 F1200 X34.803 Y11.045 E119.81806
G0 F2400 X34.238 Y11.045
G1 F1200 X47.704 Y24.511 E120.79983
G0 F2400 X47.704 Y25.077
G1 F1200 X33.672 Y11.045 E121.82286
G0 F2400 X33.106 Y11.045
G1 F1200 X47.704 Y25.643 E122.88716
G0 F2400 X47.704 Y26.208
G1 F1200 X32.541 Y11.045 E123.99265
G0 F2400 X31.975 Y11.045
G1 F1200 X47.704 Y26.774 E125.13941
G0 F2400 X47.704 Y27.34
G1 F1200 X31.409 Y11.045 E126.32743
G0 F2400 X30.843 Y11.045
G1 F1200 X47.704 Y27.905 E127.55669
G0 F2400 X47.704 Y28.471
G1 F1200 X30.278 Y11.045 E128.82717
G0 F2400 X29.712 Y11.045
G1 F1200 X47.704 Y29.037 E130.13892
G0 F2400 X47.704 Y29.603
G1 F1200 X29.146 Y11.045 E131.49193
G0 F2400 X28.581 Y11.045
G1 F1200 X47.704 Y30.168 E132.88613
G0 F2400 X47.704 Y30.734
G1 F1200 X28.015 Y11.045 E134.3216
G0 F2400 X27.449 Y11.045
G1 F1200 X47.704 Y31.3 E135.79834
G0 F2400 X47.704 Y31.865
G1 F1200 X26.884 Y11.045 E137.31627
G0 F2400 X26.318 Y11.045
G1 F1200 X47.704 Y32.431 E138.87546
G0 F2400 X47.704 Y32.997
G1 F1200 X25.752 Y11.045 E140.47592
G0 F2400 X25.187 Y11.045
G1 F1200 X47.704 Y33.562 E142.11758
G0 F2400 X47.704 Y34.128
G1 F1200 X24.621 Y11.045 E143.80049
G0 F2400 X24.055 Y11.045
G1 F1200 X47.704 Y34.694 E145.52468
G0 F2400 X47.704 Y35.259
G1 F1200 X23.49 Y11.045 E147.29005
G0 F2400 X22.924 Y11.045
G1 F1200 X47.704 Y35.825 E149.0967
G0 F2400 X47.704 Y36.391
G1 F1200 X22.358 Y11.045 E150.9446
G0 F2400 X21.793 Y11.045
G1 F1200 X47.704 Y36.956 E152.8337
G0 F2400 X47.704 Y37.522
G1 F1200 X21.227 Y11.045 E154.76407
G0 F2400 X20.661 Y11.045
G1 F1200 X47.704 Y38.088 E156.7357
G0 F2400 X47.704 Y38.653
G1 F1200 X20.095 Y11.045 E158.74856
G0 F2400 X19.53 Y11.045
G1 F1200 X47.704 Y39.219 E160.80265
G0 F2400 X47.704 Y39.785
G1 F1200 X18.964 Y11.045 E162.898
G0 F2400 X18.398 Y11.045
G1 F1200 X47.704 Y40.351 E165.03462
G0 F2400 X47.704 Y40.916
G1 F1200 X17.833 Y11.045 E167.21243
G0 F2400 X17.267 Y11.045
G1 F1200 X47.704 Y41.482 E169.43151
G0 F2400 X47.704 Y42.048
G1 F1200 X16.701 Y11.045 E171.69186
G0 F2400 X16.136 Y11.045
G1 F1200 X47.704 Y42.613 E173.99339
G0 F2400 X47.704 Y43.179
G1 F1200 X15.57 Y11.045 E176.33619
G0 F2400 X15.004 Y11.045
G1 F1200 X47.704 Y43.745 E178.72026
G0 F2400 X47.704 Y44.31
G1 F1200 X14.439 Y11.045 E181.14552
G0 F2400 X13.873 Y11.045
G1 F1200 X47.704 Y44.876 E183.61204
G0 F2400 X47.704 Y45.442
G1 F1200 X13.307 Y11.045 E186.11984
G0 F2400 X12.742 Y11.045
G1 F1200 X47.704 Y46.007 E188.66882
G0 F2400 X47.704 Y46.573
G1 F1200 X12.176 Y11.045 E191.25907
G0 F2400 X11.61 Y11.045
G1 F1200 X47.704 Y47.139 E193.89058
G0 F2400 X47.704 Y47.704
G1 F1200 X11.044 Y11.044 E196.56336
G0 F2400 X11.044 Y11.609
G1 F1200 X47.138 Y47.704 E199.19491
G0 F2400 X46.572 Y47.704
G1 F1200 X11.044 Y12.175 E201.7852
G0 F2400 X11.044 Y12.741
G1 F1200 X46.007 Y47.704 E204.33425
G0 F2400 X45.441 Y47.704
G1 F1200 X11.044 Y13.307 E206.84204
G0 F2400 X11.044 Y13.872
G1 F1200 X44.875 Y47.704 E209.3086
G0 F2400 X44.31 Y47.704
G1 F1200 X11.044 Y14.438 E211.73394
G0 F2400 X11.044 Y15.004
G1 F1200 X43.744 Y47.704 E214.118
G0 F2400 X43.178 Y47.704
G1 F1200 X11.044 Y15.569 E216.46084
G0 F2400 X11.044 Y16.135
G1 F1200 X42.613 Y47.704 E218.76245
G0 F2400 X42.047 Y47.704
G1 F1200 X11.044 Y16.701 E221.02279
G0 F2400 X11.044 Y17.266
G1 F1200 X41.481 Y47.704 E223.24191
G0 F2400 X40.916 Y47.704
G1 F1200 X11.044 Y17.832 E225.41979
G0 F2400 X11.044 Y18.398
G1 F1200 X40.35 Y47.704 E227.55641
G0 F2400 X39.784 Y47.704
G1 F1200 X11.044 Y18.963 E229.6518
G0 F2400 X11.044 Y19.529
G1 F1200 X39.218 Y47.704 E231.70593
G0 F2400 X38.653 Y47.704
