;FLAVOR:Marlin
;TIME:1848
;Filament used: 4.54535m, 0.696293m
;Layer height: 0.42
;Generated with Cura_SteamEngine master
T0
M140 S50
M105
M190 S50
M104 S210
M104 T1 S175
M105
M109 S210
M105
M109 T1 S175
M82 ;absolute extrusion mode
;Sliced at: Sat 25-05-2019 13:01:30


G21 ;metric values
M107
G28
M420 S1
G90 ;absolute positioning
G92 E0; reset extruder distance
G1 Z5 F2000 ;move nozzle up 5mm for safe homing
G1 X0 Y0 F5000; move nozzle to home
M190 S50 ;Uncomment to add your own bed temperature line
M109 S210 ;Uncomment to add your own temperature line
G29	;ABL
M82 ;set extruder to absolute mode
M107 ;start with the fan off
G1 Z15.0 F{travel_speed} ;move the platform down 15mm
G92 E0 ;zero the extruded length
G1 F200 E3 ;extrude 3mm of feed stock
G92 E0 ;zero the extruded length again
G1 F{travel_speed}
M117 Printing...
G92 E0
G1 F2400 E-0.5
;LAYER_COUNT:19
;LAYER:0
M107
G0 F1125 X22.729 Y29.599 Z0.47
;TYPE:SKIRT
G1 F2400 E0
G1 F900 X23.169 Y29.305 E0.06204
G1 X24.901 Y28.379 E0.29231
G1 X25.391 Y28.176 E0.35449
G1 X27.265 Y27.608 E0.58407
G1 X27.784 Y27.505 E0.64611
G1 X29.735 Y27.313 E0.87595
G1 X30.263 Y27.313 E0.93785
G1 X32.215 Y27.505 E1.16782
G1 X32.734 Y27.608 E1.22985
G1 X34.608 Y28.176 E1.45943
G1 X35.098 Y28.379 E1.52162
G1 X36.83 Y29.305 E1.75188
G1 X37.269 Y29.598 E1.81376
G1 X38.782 Y30.839 E2.04318
G1 X39.157 Y31.214 E2.10536
G1 X40.4 Y32.729 E2.33512
G1 X40.694 Y33.169 E2.39716
G1 X41.62 Y34.901 E2.62742
G1 X41.823 Y35.39 E2.6895
G1 X42.391 Y37.263 E2.91897
G1 X42.494 Y37.781 E2.98089
G1 X42.687 Y39.732 E3.21074
G1 X42.687 Y40.264 E3.27311
G1 X42.494 Y42.217 E3.5032
G1 X42.391 Y42.734 E3.56501
G1 X41.823 Y44.608 E3.79459
G1 X41.62 Y45.098 E3.85677
G1 X40.695 Y46.829 E4.08688
G1 X40.401 Y47.268 E4.14882
G1 X39.159 Y48.782 E4.37841
G1 X38.785 Y49.157 E4.44051
G1 X37.27 Y50.4 E4.67026
G1 X36.83 Y50.694 E4.7323
G1 X35.098 Y51.62 E4.96257
G1 X34.608 Y51.823 E5.02475
G1 X32.734 Y52.391 E5.25433
G1 X32.217 Y52.494 E5.31614
G1 X30.266 Y52.687 E5.54599
G1 X29.734 Y52.687 E5.60837
G1 X27.782 Y52.494 E5.83834
G1 X27.265 Y52.391 E5.90014
G1 X25.391 Y51.823 E6.12973
G1 X24.901 Y51.62 E6.19191
G1 X23.169 Y50.694 E6.42217
G1 X22.729 Y50.4 E6.48422
G1 X21.214 Y49.157 E6.71397
G1 X20.84 Y48.782 E6.77606
G1 X19.598 Y47.268 E7.00565
G1 X19.304 Y46.829 E7.0676
G1 X18.379 Y45.098 E7.2977
G1 X18.176 Y44.608 E7.35989
G1 X17.608 Y42.734 E7.58947
G1 X17.505 Y42.216 E7.65139
G1 X17.313 Y40.267 E7.881
G1 X17.313 Y39.738 E7.94302
G1 X17.505 Y37.783 E8.17333
G1 X17.608 Y37.263 E8.23548
G1 X18.176 Y35.39 E8.46495
G1 X18.379 Y34.901 E8.52703
G1 X19.305 Y33.169 E8.75729
G1 X19.598 Y32.73 E8.81917
G1 X20.839 Y31.217 E9.0486
G1 X21.214 Y30.842 E9.11077
G1 X22.729 Y29.599 E9.34053
G0 F1125 X23.11 Y30.063
G1 F900 X23.452 Y29.834 E9.38878
G1 X25.184 Y28.908 E9.61905
G1 X25.565 Y28.75 E9.6674
G1 X27.439 Y28.182 E9.89699
G1 X27.842 Y28.102 E9.94516
G1 X29.793 Y27.91 E10.175
G1 X30.205 Y27.91 E10.2233
G1 X32.157 Y28.102 E10.45326
G1 X32.56 Y28.182 E10.50143
G1 X34.434 Y28.75 E10.73102
G1 X34.815 Y28.908 E10.77937
G1 X36.547 Y29.834 E11.00964
G1 X36.889 Y30.062 E11.05783
G1 X38.402 Y31.303 E11.28725
G1 X38.693 Y31.595 E11.33559
G1 X39.936 Y33.11 E11.56534
G1 X40.165 Y33.452 E11.6136
G1 X41.091 Y35.184 E11.84386
G1 X41.249 Y35.565 E11.89222
G1 X41.817 Y37.438 E12.12169
G1 X41.897 Y37.84 E12.16974
G1 X42.09 Y39.791 E12.3996
G1 X42.09 Y40.205 E12.44814
G1 X41.897 Y42.158 E12.67822
G1 X41.817 Y42.56 E12.72628
G1 X41.249 Y44.434 E12.95586
G1 X41.091 Y44.815 E13.00422
G1 X40.166 Y46.546 E13.23432
G1 X39.938 Y46.888 E13.28251
G1 X38.696 Y48.402 E13.5121
G1 X38.404 Y48.693 E13.56044
G1 X36.889 Y49.936 E13.79019
G1 X36.547 Y50.165 E13.83845
G1 X34.815 Y51.091 E14.06871
G1 X34.434 Y51.249 E14.11707
G1 X32.56 Y51.817 E14.34665
G1 X32.158 Y51.897 E14.3947
G1 X30.207 Y52.09 E14.62456
G1 X29.793 Y52.09 E14.6731
G1 X27.841 Y51.897 E14.90307
G1 X27.439 Y51.817 E14.95113
G1 X25.565 Y51.249 E15.18071
G1 X25.184 Y51.091 E15.22907
G1 X23.452 Y50.165 E15.45933
G1 X23.11 Y49.936 E15.50758
G1 X21.595 Y48.693 E15.73734
G1 X21.303 Y48.402 E15.78567
G1 X20.061 Y46.888 E16.01526
G1 X19.833 Y46.546 E16.06345
G1 X18.908 Y44.815 E16.29356
G1 X18.75 Y44.434 E16.34191
G1 X18.182 Y42.56 E16.5715
G1 X18.102 Y42.157 E16.61967
G1 X17.91 Y40.208 E16.84928
G1 X17.91 Y39.797 E16.89746
G1 X18.102 Y37.842 E17.12777
G1 X18.182 Y37.438 E17.17606
G1 X18.75 Y35.565 E17.40553
G1 X18.908 Y35.184 E17.45389
G1 X19.834 Y33.452 E17.68415
G1 X20.062 Y33.11 E17.73234
G1 X21.303 Y31.597 E17.96177
G1 X21.595 Y31.306 E18.0101
G1 X23.11 Y30.063 E18.23985
G0 F1125 X23.491 Y30.526
G1 F900 X23.735 Y30.363 E18.27426
G1 X25.467 Y29.437 E18.50452
G1 X25.739 Y29.324 E18.53905
G1 X27.613 Y28.756 E18.76863
G1 X27.901 Y28.699 E18.80305
G1 X29.852 Y28.507 E19.0329
G1 X30.146 Y28.507 E19.06737
G1 X32.098 Y28.699 E19.29733
G1 X32.386 Y28.756 E19.33175
G1 X34.26 Y29.324 E19.56133
G1 X34.532 Y29.437 E19.59586
G1 X36.264 Y30.363 E19.82613
G1 X36.508 Y30.526 E19.86053
G1 X38.021 Y31.767 E20.08995
G1 X38.23 Y31.976 E20.12461
G1 X39.473 Y33.491 E20.35436
G1 X39.636 Y33.735 E20.38876
G1 X40.562 Y35.467 E20.61903
G1 X40.674 Y35.739 E20.65352
G1 X41.242 Y37.612 E20.88299
G1 X41.3 Y37.899 E20.91731
G1 X41.493 Y39.85 E21.14717
G1 X41.493 Y40.146 E21.18187
G1 X41.3 Y42.099 E21.41196
G1 X41.243 Y42.386 E21.44627
G1 X40.675 Y44.26 E21.67585
G1 X40.562 Y44.532 E21.71038
G1 X39.637 Y46.263 E21.94049
G1 X39.474 Y46.507 E21.97489
G1 X38.232 Y48.021 E22.20448
G1 X38.023 Y48.23 E22.23913
G1 X36.508 Y49.473 E22.46889
G1 X36.264 Y49.636 E22.50329
G1 X34.532 Y50.562 E22.73355
G1 X34.26 Y50.675 E22.76809
G1 X32.386 Y51.243 E22.99767
G1 X32.099 Y51.3 E23.03197
G1 X30.148 Y51.493 E23.26183
G1 X29.852 Y51.493 E23.29653
G1 X27.9 Y51.3 E23.5265
G1 X27.613 Y51.243 E23.56081
G1 X25.739 Y50.675 E23.79039
G1 X25.467 Y50.562 E23.82492
G1 X23.735 Y49.636 E24.05519
G1 X23.491 Y49.473 E24.08959
G1 X21.976 Y48.23 E24.31935
G1 X21.767 Y48.021 E24.354
G1 X20.525 Y46.507 E24.58359
G1 X20.362 Y46.263 E24.61799
G1 X19.437 Y44.532 E24.8481
G1 X19.324 Y44.26 E24.88263
G1 X18.756 Y42.386 E25.11221
G1 X18.699 Y42.098 E25.14663
G1 X18.507 Y40.149 E25.37624
G1 X18.507 Y39.855 E25.41071
G1 X18.699 Y37.9 E25.64102
G1 X18.757 Y37.612 E25.67547
G1 X19.325 Y35.739 E25.90493
G1 X19.437 Y35.467 E25.93942
G1 X20.363 Y33.735 E26.16969
G1 X20.526 Y33.491 E26.20409
G1 X21.767 Y31.978 E26.43351
G1 X21.976 Y31.769 E26.46817
G1 X23.491 Y30.526 E26.69792
G0 F1125 X23.871 Y30.99
G1 F900 X24.018 Y30.892 E26.71863
G1 X25.75 Y29.966 E26.9489
G1 X25.913 Y29.899 E26.96956
G1 X27.787 Y29.331 E27.19914
G1 X27.96 Y29.296 E27.21984
G1 X29.911 Y29.104 E27.44968
G1 X30.087 Y29.104 E27.47031
G1 X32.039 Y29.296 E27.70027
G1 X32.212 Y29.331 E27.72097
G1 X34.086 Y29.899 E27.95055
G1 X34.249 Y29.966 E27.97121
G1 X35.981 Y30.892 E28.20148
G1 X36.128 Y30.99 E28.22219
G1 X37.641 Y32.231 E28.45161
G1 X37.766 Y32.356 E28.47234
G1 X39.009 Y33.871 E28.70209
G1 X39.107 Y34.018 E28.72281
G1 X40.033 Y35.75 E28.95307
G1 X40.1 Y35.913 E28.97373
G1 X40.668 Y37.786 E29.2032
G1 X40.703 Y37.958 E29.22378
G1 X40.896 Y39.909 E29.45364
G1 X40.896 Y40.087 E29.47451
G1 X40.703 Y42.04 E29.70459
G1 X40.668 Y42.212 E29.72517
G1 X40.1 Y44.086 E29.95476
G1 X40.033 Y44.249 E29.97542
G1 X39.108 Y45.98 E30.20552
G1 X39.01 Y46.127 E30.22624
G1 X37.768 Y47.641 E30.45582
G1 X37.643 Y47.766 E30.47655
G1 X36.128 Y49.009 E30.70631
G1 X35.981 Y49.107 E30.72702
G1 X34.249 Y50.033 E30.95728
G1 X34.086 Y50.1 E30.97794
G1 X32.212 Y50.668 E31.20753
G1 X32.04 Y50.703 E31.2281
G1 X30.089 Y50.896 E31.45796
G1 X29.911 Y50.896 E31.47883
G1 X27.959 Y50.703 E31.7088
G1 X27.787 Y50.668 E31.72938
G1 X25.913 Y50.1 E31.95896
G1 X25.75 Y50.033 E31.97962
G1 X24.018 Y49.107 E32.20989
G1 X23.871 Y49.009 E32.2306
G1 X22.356 Y47.766 E32.46036
G1 X22.231 Y47.641 E32.48108
G1 X20.989 Y46.127 E32.71067
G1 X20.891 Y45.98 E32.73138
G1 X19.966 Y44.249 E32.96149
G1 X19.899 Y44.086 E32.98215
G1 X19.331 Y42.212 E33.21173
G1 X19.296 Y42.039 E33.23243
G1 X19.104 Y40.09 E33.46204
G1 X19.104 Y39.914 E33.48267
G1 X19.296 Y37.959 E33.71298
G1 X19.331 Y37.786 E33.73368
G1 X19.899 Y35.913 E33.96315
G1 X19.966 Y35.75 E33.98381
G1 X20.892 Y34.018 E34.21407
G1 X20.99 Y33.871 E34.23478
G1 X22.231 Y32.358 E34.46421
G1 X22.356 Y32.233 E34.48493
G1 X23.871 Y30.99 E34.71469
G0 F1125 X24.252 Y31.454
G1 F900 X24.301 Y31.421 E34.72162
G1 X26.033 Y30.495 E34.95188
G1 X26.087 Y30.473 E34.95871
G1 X27.961 Y29.905 E35.1883
G1 X28.019 Y29.893 E35.19524
G1 X29.97 Y29.701 E35.42508
G1 X30.028 Y29.701 E35.43188
G1 X31.98 Y29.893 E35.66185
G1 X32.038 Y29.905 E35.66879
G1 X33.912 Y30.473 E35.89837
G1 X33.966 Y30.495 E35.90521
G1 X35.698 Y31.421 E36.13547
G1 X35.747 Y31.454 E36.1424
G1 X37.26 Y32.695 E36.37182
G1 X37.302 Y32.737 E36.37879
G1 X38.545 Y34.252 E36.60854
G1 X38.578 Y34.301 E36.61547
G1 X39.504 Y36.033 E36.84573
G1 X39.526 Y36.087 E36.85257
G1 X40.094 Y37.96 E37.08204
G1 X40.106 Y38.017 E37.08887
G1 X40.299 Y39.968 E37.31872
G1 X40.299 Y40.028 E37.32576
G1 X40.106 Y41.981 E37.55584
G1 X40.094 Y42.038 E37.56267
G1 X39.526 Y43.912 E37.79226
G1 X39.504 Y43.966 E37.79909
G1 X38.579 Y45.697 E38.0292
G1 X38.546 Y45.746 E38.03612
G1 X37.304 Y47.26 E38.26571
G1 X37.262 Y47.302 E38.27268
G1 X35.747 Y48.545 E38.50243
G1 X35.698 Y48.578 E38.50936
G1 X33.966 Y49.504 E38.73962
G1 X33.912 Y49.526 E38.74646
G1 X32.038 Y50.094 E38.97604
G1 X31.981 Y50.106 E38.98287
G1 X30.03 Y50.299 E39.21272
G1 X29.97 Y50.299 E39.21976
G1 X28.018 Y50.106 E39.44973
G1 X27.961 Y50.094 E39.45656
G1 X26.087 Y49.526 E39.68614
G1 X26.033 Y49.504 E39.69298
G1 X24.301 Y48.578 E39.92324
G1 X24.252 Y48.545 E39.93017
G1 X22.737 Y47.302 E40.15992
G1 X22.695 Y47.26 E40.16689
G1 X21.453 Y45.746 E40.39647
G1 X21.42 Y45.697 E40.4034
G1 X20.495 Y43.966 E40.63351
G1 X20.473 Y43.912 E40.64034
G1 X19.905 Y42.038 E40.86992
G1 X19.893 Y41.98 E40.87687
G1 X19.701 Y40.031 E41.10648
G1 X19.701 Y39.973 E41.11328
G1 X19.893 Y38.018 E41.34359
G1 X19.905 Y37.96 E41.35053
G1 X20.473 Y36.087 E41.58
G1 X20.495 Y36.033 E41.58684
G1 X21.421 Y34.301 E41.8171
G1 X21.454 Y34.252 E41.82403
G1 X22.695 Y32.739 E42.05345
G1 X22.737 Y32.697 E42.06042
G1 X24.252 Y31.454 E42.29017
G1 F2400 E41.79017
G1 F300 Z0.67
G0 F1125 X119.84 Y192.903 Z0.67
G1 F300 Z0.47
G1 F2400 E42.29017
G1 F900 X120.53 Y192.524 E42.38247
G1 X120.824 Y192.385 E42.4206
G1 X122.311 Y191.788 E42.60846
G1 X122.617 Y191.686 E42.64628
G1 X123.388 Y191.479 E42.73987
G1 X123.706 Y191.414 E42.77793
G1 X125.279 Y191.189 E42.96423
G1 X125.661 Y191.162 E43.00912
G1 X267.682 Y191.172 E59.65995
G1 X268.145 Y191.212 E59.71443
G1 X268.757 Y191.395 E59.78932
G1 X269.326 Y191.642 E59.86205
G1 X269.743 Y191.869 E59.91771
G1 X270.331 Y192.259 E60.00044
G1 X270.701 Y192.554 E60.05592
G1 X271.582 Y193.393 E60.19855
G1 X271.862 Y193.705 E60.2477
G1 X272.718 Y194.821 E60.4126
G1 X272.869 Y195.039 E60.44369
G1 X273.439 Y195.956 E60.57028
G1 X273.555 Y196.161 E60.59789
G1 X274.686 Y198.395 E60.89147
G1 X274.782 Y198.607 E60.91875
G1 X275.894 Y201.369 E61.26783
G1 X275.95 Y201.523 E61.28704
G1 X277.047 Y204.813 E61.69365
G1 X277.088 Y204.946 E61.70997
G1 X278.434 Y209.807 E62.30132
G1 X278.457 Y209.896 E62.3121
G1 X279.199 Y212.977 E62.68365
G1 X279.268 Y213.436 E62.73807
G1 X279.258 Y213.9 E62.79248
G1 X279.169 Y214.356 E62.84695
G1 X279.002 Y214.789 E62.90136
G1 X278.685 Y215.292 E62.97107
G1 X278.504 Y215.519 E63.00511
G1 X278.184 Y215.856 E63.05959
G1 X277.812 Y216.133 E63.11397
G1 X277.397 Y216.342 E63.16845
G1 X276.953 Y216.477 E63.22286
G1 X276.393 Y216.536 E63.28888
G1 X125.824 Y216.53 E80.94188
G1 X125.484 Y216.509 E80.98182
G1 X123.899 Y216.308 E81.16914
G1 X123.478 Y216.22 E81.21956
G1 X121.953 Y215.772 E81.40591
G1 X121.549 Y215.617 E81.45665
G1 X120.096 Y214.922 E81.64548
G1 X119.721 Y214.704 E81.69634
G1 X118.419 Y213.8 E81.88217
G1 X118.091 Y213.531 E81.93191
G1 X116.942 Y212.43 E82.11848
G1 X116.655 Y212.108 E82.16905
G1 X115.696 Y210.838 E82.35563
G1 X115.463 Y210.471 E82.4066
G1 X114.715 Y209.053 E82.59456
G1 X114.546 Y208.66 E82.64472
G1 X114.038 Y207.161 E82.83028
G1 X113.933 Y206.746 E82.88047
G1 X113.665 Y205.169 E83.06801
G1 X113.627 Y204.739 E83.11862
G1 X113.614 Y203.144 E83.30563
G1 X113.645 Y202.712 E83.35641
G1 X113.889 Y201.125 E83.54466
G1 X113.988 Y200.707 E83.59502
G1 X114.473 Y199.202 E83.7804
G1 X114.638 Y198.803 E83.83103
G1 X115.367 Y197.374 E84.01911
G1 X115.591 Y197.01 E84.06922
G1 X116.522 Y195.734 E84.2544
G1 X116.804 Y195.406 E84.30512
G1 X117.942 Y194.28 E84.49281
G1 X118.27 Y194.003 E84.54315
G1 X119.569 Y193.074 E84.73038
G1 X119.84 Y192.903 E84.76795
G0 F1125 X120.129 Y193.429
G1 F900 X120.819 Y193.05 E84.86025
G1 X121.048 Y192.942 E84.88993
G1 X122.535 Y192.345 E85.0778
G1 X122.772 Y192.266 E85.10709
G1 X123.543 Y192.059 E85.20068
G1 X123.791 Y192.008 E85.23037
G1 X125.364 Y191.783 E85.41667
G1 X125.661 Y191.762 E85.45157
G1 X267.682 Y191.772 E102.1024
G1 X268.09 Y191.812 E102.15046
G1 X268.518 Y191.946 E102.20304
G1 X269.087 Y192.193 E102.27577
G1 X269.412 Y192.369 E102.3191
G1 X270 Y192.759 E102.40182
G1 X270.287 Y192.988 E102.44487
G1 X271.168 Y193.827 E102.5875
G1 X271.386 Y194.07 E102.62578
G1 X272.242 Y195.186 E102.79068
G1 X272.36 Y195.355 E102.81484
G1 X272.93 Y196.272 E102.94143
G1 X273.02 Y196.432 E102.96295
G1 X274.151 Y198.666 E103.25653
G1 X274.225 Y198.831 E103.27773
G1 X275.337 Y201.593 E103.62681
G1 X275.381 Y201.713 E103.64179
G1 X276.478 Y205.003 E104.0484
G1 X276.51 Y205.107 E104.06115
G1 X277.856 Y209.968 E104.65251
G1 X277.874 Y210.036 E104.66076
G1 X278.616 Y213.117 E105.03231
G1 X278.672 Y213.523 E105.08036
G1 X278.649 Y213.932 E105.12839
G1 X278.547 Y214.328 E105.17633
G1 X278.37 Y214.697 E105.22431
G1 X278.216 Y214.918 E105.25589
G1 X278.035 Y215.145 E105.28993
G1 X277.75 Y215.439 E105.33794
G1 X277.413 Y215.672 E105.38597
G1 X277.037 Y215.835 E105.43402
G1 X276.637 Y215.922 E105.48201
G1 X276.393 Y215.936 E105.51067
G1 X125.824 Y215.93 E123.16367
G1 X125.56 Y215.913 E123.19469
G1 X123.975 Y215.712 E123.38201
G1 X123.647 Y215.644 E123.42128
G1 X122.122 Y215.196 E123.60763
G1 X121.808 Y215.075 E123.64708
G1 X120.355 Y214.38 E123.83592
G1 X120.063 Y214.211 E123.87548
G1 X118.761 Y213.307 E124.06131
G1 X118.506 Y213.098 E124.09997
G1 X117.357 Y211.997 E124.28654
G1 X117.134 Y211.746 E124.3259
G1 X116.175 Y210.476 E124.51248
G1 X115.994 Y210.191 E124.55207
G1 X115.246 Y208.773 E124.74003
G1 X115.114 Y208.467 E124.7791
G1 X114.606 Y206.968 E124.96466
G1 X114.525 Y206.646 E125.00359
G1 X114.257 Y205.069 E125.19113
G1 X114.227 Y204.734 E125.23057
G1 X114.214 Y203.139 E125.41757
G1 X114.238 Y202.803 E125.45707
G1 X114.482 Y201.216 E125.64532
G1 X114.559 Y200.891 E125.68447
G1 X115.044 Y199.386 E125.86986
G1 X115.172 Y199.076 E125.90918
G1 X115.901 Y197.647 E126.09726
G1 X116.076 Y197.363 E126.13637
G1 X117.007 Y196.087 E126.32156
G1 X117.226 Y195.832 E126.36097
G1 X118.364 Y194.706 E126.54866
G1 X118.619 Y194.491 E126.58777
G1 X119.918 Y193.562 E126.77501
G1 X120.129 Y193.429 E126.80425
G0 F1125 X120.418 Y193.955
G1 F900 X121.108 Y193.576 E126.89654
G1 X121.271 Y193.499 E126.91768
G1 X122.758 Y192.902 E127.10554
G1 X122.928 Y192.845 E127.12657
G1 X123.699 Y192.638 E127.22016
G1 X123.876 Y192.602 E127.24134
G1 X125.449 Y192.377 E127.42764
G1 X125.661 Y192.362 E127.45255
G1 X267.682 Y192.372 E144.10338
G1 X268.026 Y192.412 E144.14398
G1 X268.279 Y192.496 E144.17523
G1 X268.848 Y192.743 E144.24796
G1 X269.08 Y192.869 E144.27891
G1 X269.668 Y193.259 E144.36164
G1 X269.873 Y193.423 E144.39242
G1 X270.754 Y194.262 E144.53505
G1 X270.91 Y194.435 E144.56236
G1 X271.766 Y195.551 E144.72726
G1 X271.85 Y195.672 E144.74453
G1 X272.42 Y196.589 E144.87112
G1 X272.484 Y196.703 E144.88645
G1 X273.615 Y198.937 E145.18002
G1 X273.668 Y199.055 E145.19518
G1 X274.78 Y201.817 E145.54426
G1 X274.812 Y201.903 E145.55502
G1 X275.909 Y205.193 E145.96163
G1 X275.932 Y205.267 E145.97071
G1 X277.278 Y210.128 E146.56207
G1 X277.29 Y210.177 E146.56798
G1 X278.032 Y213.258 E146.93953
G1 X278.074 Y213.601 E146.98005
