;FLAVOR:Marlin
;TIME:1298
;Filament used: 5.60259m, 0.676701m
;Layer height: 0.56
;Generated with Cura_SteamEngine master
T0
M140 S50
M105
M190 S50
M104 S210
M104 T1 S175
M105
M109 S210
M105
M109 T1 S175
M82 ;absolute extrusion mode
;Sliced at: Sat 25-05-2019 13:02:45


G21 ;metric values
M107
G28
M420 S1
G90 ;absolute positioning
G92 E0; reset extruder distance
G1 Z5 F2000 ;move nozzle up 5mm for safe homing
G1 X0 Y0 F5000; move nozzle to home
M190 S50 ;Uncomment to add your own bed temperature line
M109 S210 ;Uncomment to add your own temperature line
G29	;ABL
M82 ;set extruder to absolute mode
M107 ;start with the fan off
G1 Z15.0 F{travel_speed} ;move the platform down 15mm
G92 E0 ;zero the extruded length
G1 F200 E3 ;extrude 3mm of feed stock
G92 E0 ;zero the extruded length again
G1 F{travel_speed}
M117 Printing...
G92 E0
G1 F2400 E-0.5
;LAYER_COUNT:15
;LAYER:0
M107
G0 F1125 X22.666 Y29.521 Z0.62
;TYPE:SKIRT
G1 F2400 E0
G1 F900 X23.122 Y29.217 E0.11301
G1 X24.854 Y28.291 E0.51802
G1 X25.362 Y28.08 E0.63145
G1 X27.236 Y27.512 E1.03525
G1 X27.774 Y27.405 E1.14837
G1 X29.725 Y27.213 E1.55263
G1 X30.273 Y27.213 E1.66564
G1 X32.225 Y27.405 E2.07011
G1 X32.763 Y27.512 E2.18322
G1 X34.637 Y28.08 E2.58703
G1 X35.145 Y28.291 E2.70046
G1 X36.877 Y29.217 E3.10546
G1 X37.333 Y29.521 E3.21847
G1 X38.846 Y30.762 E3.622
G1 X39.235 Y31.151 E3.73545
G1 X40.478 Y32.666 E4.13955
G1 X40.782 Y33.122 E4.25257
G1 X41.708 Y34.854 E4.65757
G1 X41.918 Y35.361 E4.77073
G1 X42.486 Y37.234 E5.17434
G1 X42.593 Y37.771 E5.28725
G1 X42.786 Y39.722 E5.69154
G1 X42.786 Y40.273 E5.80516
G1 X42.593 Y42.226 E6.20986
G1 X42.487 Y42.763 E6.32273
G1 X41.919 Y44.637 E6.72653
G1 X41.709 Y45.145 E6.83989
G1 X40.784 Y46.876 E7.24461
G1 X40.479 Y47.332 E7.35774
G1 X39.237 Y48.846 E7.76155
G1 X38.848 Y49.235 E7.875
G1 X37.333 Y50.478 E8.27911
G1 X36.877 Y50.782 E8.39212
G1 X35.145 Y51.708 E8.79712
G1 X34.637 Y51.919 E8.91055
G1 X32.763 Y52.487 E9.31436
G1 X32.227 Y52.593 E9.42703
G1 X30.276 Y52.786 E9.83131
G1 X29.724 Y52.786 E9.94514
G1 X27.772 Y52.593 E10.34963
G1 X27.236 Y52.487 E10.4623
G1 X25.362 Y51.919 E10.86611
G1 X24.854 Y51.708 E10.97954
G1 X23.122 Y50.782 E11.38454
G1 X22.666 Y50.478 E11.49756
G1 X21.151 Y49.235 E11.90166
G1 X20.762 Y48.846 E12.01511
G1 X19.52 Y47.332 E12.41892
G1 X19.215 Y46.876 E12.53205
G1 X18.29 Y45.145 E12.93678
G1 X18.08 Y44.637 E13.05013
G1 X17.512 Y42.763 E13.45393
G1 X17.405 Y42.226 E13.56685
G1 X17.213 Y40.277 E13.9707
G1 X17.213 Y39.728 E14.08391
G1 X17.405 Y37.773 E14.489
G1 X17.513 Y37.234 E14.60236
G1 X18.081 Y35.361 E15.00596
G1 X18.291 Y34.854 E15.11913
G1 X19.217 Y33.122 E15.52413
G1 X19.521 Y32.666 E15.63714
G1 X20.762 Y31.153 E16.04067
G1 X21.151 Y30.764 E16.15411
G1 X22.666 Y29.521 E16.55822
G0 F1125 X23.173 Y30.14
G1 F900 X23.499 Y29.922 E16.63909
G1 X25.231 Y28.996 E17.04409
G1 X25.594 Y28.846 E17.12509
G1 X27.468 Y28.278 E17.52889
G1 X27.852 Y28.202 E17.60961
G1 X29.803 Y28.01 E18.01388
G1 X30.195 Y28.01 E18.09471
G1 X32.147 Y28.202 E18.49918
G1 X32.531 Y28.278 E18.5799
G1 X34.405 Y28.846 E18.98371
G1 X34.768 Y28.996 E19.0647
G1 X36.5 Y29.922 E19.4697
G1 X36.825 Y30.14 E19.5504
G1 X38.338 Y31.381 E19.95393
G1 X38.616 Y31.658 E20.03486
G1 X39.859 Y33.173 E20.43897
G1 X40.077 Y33.499 E20.51984
G1 X41.003 Y35.231 E20.92484
G1 X41.153 Y35.594 E21.00583
G1 X41.721 Y37.467 E21.40944
G1 X41.797 Y37.85 E21.48996
G1 X41.99 Y39.801 E21.89424
G1 X41.99 Y40.195 E21.97549
G1 X41.797 Y42.148 E22.38019
G1 X41.721 Y42.531 E22.46071
G1 X41.153 Y44.405 E22.86451
G1 X41.003 Y44.768 E22.9455
G1 X40.078 Y46.499 E23.35023
G1 X39.86 Y46.824 E23.43093
G1 X38.618 Y48.338 E23.83474
G1 X38.341 Y48.616 E23.91567
G1 X36.826 Y49.859 E24.31978
G1 X36.5 Y50.077 E24.40065
G1 X34.768 Y51.003 E24.80565
G1 X34.405 Y51.153 E24.88665
G1 X32.531 Y51.721 E25.29045
G1 X32.148 Y51.797 E25.37097
G1 X30.197 Y51.99 E25.77525
G1 X29.803 Y51.99 E25.8565
G1 X27.851 Y51.797 E26.26099
G1 X27.468 Y51.721 E26.34151
G1 X25.594 Y51.153 E26.74532
G1 X25.231 Y51.003 E26.82631
G1 X23.499 Y50.077 E27.23131
G1 X23.173 Y49.859 E27.31218
G1 X21.658 Y48.616 E27.71629
G1 X21.381 Y48.338 E27.79722
G1 X20.139 Y46.824 E28.20104
G1 X19.921 Y46.499 E28.28174
G1 X18.996 Y44.768 E28.68646
G1 X18.846 Y44.405 E28.76745
G1 X18.278 Y42.531 E29.17126
G1 X18.202 Y42.147 E29.25198
G1 X18.01 Y40.198 E29.65583
G1 X18.01 Y39.807 E29.73646
G1 X18.202 Y37.852 E30.14155
G1 X18.278 Y37.467 E30.22247
G1 X18.846 Y35.594 E30.62608
G1 X18.996 Y35.231 E30.70707
G1 X19.922 Y33.499 E31.11207
G1 X20.14 Y33.174 E31.19277
G1 X21.381 Y31.661 E31.5963
G1 X21.658 Y31.383 E31.67723
G1 X23.173 Y30.14 E32.08134
G0 F1125 X23.681 Y30.758
G1 F900 X23.876 Y30.628 E32.12966
G1 X25.608 Y29.702 E32.53467
G1 X25.826 Y29.612 E32.5833
G1 X27.7 Y29.044 E32.9871
G1 X27.93 Y28.998 E33.03547
G1 X29.881 Y28.806 E33.43974
G1 X30.116 Y28.806 E33.4882
G1 X32.068 Y28.998 E33.89267
G1 X32.299 Y29.044 E33.94124
G1 X34.173 Y29.612 E34.34504
G1 X34.391 Y29.702 E34.39368
G1 X36.123 Y30.628 E34.79868
G1 X36.318 Y30.758 E34.84701
G1 X37.831 Y31.999 E35.25053
G1 X37.998 Y32.166 E35.29924
G1 X39.241 Y33.681 E35.70334
G1 X39.371 Y33.876 E35.75167
G1 X40.297 Y35.608 E36.15667
G1 X40.387 Y35.826 E36.20531
G1 X40.955 Y37.699 E36.60891
G1 X41.001 Y37.929 E36.65728
G1 X41.194 Y39.88 E37.06157
G1 X41.194 Y40.116 E37.11023
G1 X41.001 Y42.069 E37.51493
G1 X40.955 Y42.299 E37.5633
G1 X40.387 Y44.173 E37.9671
G1 X40.297 Y44.391 E38.01574
G1 X39.372 Y46.122 E38.42046
G1 X39.242 Y46.317 E38.46879
G1 X38 Y47.831 E38.8726
G1 X37.833 Y47.998 E38.92131
G1 X36.318 Y49.241 E39.32541
G1 X36.123 Y49.371 E39.37374
G1 X34.391 Y50.297 E39.77874
G1 X34.173 Y50.387 E39.82738
G1 X32.299 Y50.955 E40.23118
G1 X32.069 Y51.001 E40.27955
G1 X30.118 Y51.194 E40.68384
G1 X29.882 Y51.194 E40.7325
G1 X27.93 Y51.001 E41.13699
G1 X27.7 Y50.955 E41.18536
G1 X25.826 Y50.387 E41.58916
G1 X25.608 Y50.297 E41.6378
G1 X23.876 Y49.371 E42.0428
G1 X23.681 Y49.241 E42.09113
G1 X22.166 Y47.998 E42.49524
G1 X21.999 Y47.831 E42.54394
G1 X20.757 Y46.317 E42.94776
G1 X20.627 Y46.122 E42.99608
G1 X19.702 Y44.391 E43.40081
G1 X19.612 Y44.173 E43.44944
G1 X19.044 Y42.299 E43.85324
G1 X18.998 Y42.069 E43.90161
G1 X18.806 Y40.12 E44.30547
G1 X18.806 Y39.885 E44.35393
G1 X18.998 Y37.93 E44.75901
G1 X19.044 Y37.699 E44.80758
G1 X19.612 Y35.826 E45.21119
G1 X19.702 Y35.608 E45.25982
G1 X20.628 Y33.876 E45.66483
G1 X20.758 Y33.681 E45.71315
G1 X21.999 Y32.168 E46.11668
G1 X22.166 Y32.001 E46.16538
G1 X23.681 Y30.758 E46.56949
G0 F1125 X24.188 Y31.377
G1 F900 X24.253 Y31.333 E46.58568
G1 X25.985 Y30.407 E46.99068
G1 X26.058 Y30.377 E47.00695
G1 X27.932 Y29.809 E47.41076
G1 X28.009 Y29.794 E47.42694
G1 X29.96 Y29.602 E47.8312
G1 X30.038 Y29.602 E47.84728
G1 X31.99 Y29.794 E48.25175
G1 X32.067 Y29.809 E48.26793
G1 X33.941 Y30.377 E48.67173
G1 X34.014 Y30.407 E48.68801
G1 X35.746 Y31.333 E49.09301
G1 X35.811 Y31.377 E49.1092
G1 X37.324 Y32.618 E49.51273
G1 X37.379 Y32.673 E49.52876
G1 X38.622 Y34.188 E49.93287
G1 X38.666 Y34.253 E49.94906
G1 X39.592 Y35.985 E50.35406
G1 X39.622 Y36.058 E50.37034
G1 X40.19 Y37.931 E50.77394
G1 X40.205 Y38.008 E50.79012
G1 X40.398 Y39.959 E51.1944
G1 X40.398 Y40.037 E51.21049
G1 X40.205 Y41.99 E51.61518
G1 X40.19 Y42.067 E51.63136
G1 X39.622 Y43.941 E52.03516
G1 X39.592 Y44.014 E52.05144
G1 X38.667 Y45.745 E52.45616
G1 X38.623 Y45.81 E52.47235
G1 X37.381 Y47.324 E52.87617
G1 X37.326 Y47.379 E52.89221
G1 X35.811 Y48.622 E53.29631
G1 X35.746 Y48.666 E53.3125
G1 X34.014 Y49.592 E53.7175
G1 X33.941 Y49.622 E53.73378
G1 X32.067 Y50.19 E54.13758
G1 X31.99 Y50.205 E54.15376
G1 X30.039 Y50.398 E54.55804
G1 X29.961 Y50.398 E54.57413
G1 X28.009 Y50.205 E54.97862
G1 X27.932 Y50.19 E54.99479
G1 X26.058 Y49.622 E55.3986
G1 X25.985 Y49.592 E55.41487
G1 X24.253 Y48.666 E55.81987
G1 X24.188 Y48.622 E55.83606
G1 X22.673 Y47.379 E56.24017
G1 X22.618 Y47.324 E56.25621
G1 X21.376 Y45.81 E56.66002
G1 X21.332 Y45.745 E56.67621
G1 X20.407 Y44.014 E57.08093
G1 X20.377 Y43.941 E57.09721
G1 X19.809 Y42.067 E57.50101
G1 X19.794 Y41.99 E57.51719
G1 X19.602 Y40.041 E57.92104
G1 X19.602 Y39.963 E57.93713
G1 X19.794 Y38.008 E58.34221
G1 X19.809 Y37.931 E58.35839
G1 X20.377 Y36.058 E58.762
G1 X20.407 Y35.985 E58.77827
G1 X21.333 Y34.253 E59.18327
G1 X21.377 Y34.188 E59.19946
G1 X22.618 Y32.675 E59.60299
G1 X22.673 Y32.62 E59.61903
G1 X24.188 Y31.377 E60.02313
G1 F2400 E59.52313
G1 F300 Z0.82
G0 F1125 X119.789 Y192.818 Z0.82
G1 F300 Z0.62
G1 F2400 E60.02313
G1 F900 X120.491 Y192.433 E60.18824
G1 X120.794 Y192.289 E60.25742
G1 X122.277 Y191.694 E60.58693
G1 X122.594 Y191.589 E60.65579
G1 X123.361 Y191.383 E60.81956
G1 X123.693 Y191.315 E60.88944
G1 X125.275 Y191.09 E61.21895
G1 X125.669 Y191.062 E61.30041
G1 X267.619 Y191.062 E90.57232
G1 X268.09 Y191.102 E90.66979
G1 X268.678 Y191.27 E90.7959
G1 X269.317 Y191.531 E90.93824
G1 X269.808 Y191.791 E91.05281
G1 X270.393 Y192.18 E91.19768
G1 X270.775 Y192.485 E91.29848
G1 X271.649 Y193.318 E91.54746
G1 X271.938 Y193.64 E91.63668
G1 X272.796 Y194.758 E91.92729
G1 X272.954 Y194.986 E91.98449
G1 X273.531 Y195.915 E92.21001
G1 X273.65 Y196.127 E92.26014
G1 X274.775 Y198.349 E92.77373
G1 X274.875 Y198.569 E92.82356
G1 X275.987 Y201.332 E93.43774
G1 X276.045 Y201.492 E93.47284
G1 X277.143 Y204.787 E94.18904
G1 X277.182 Y204.911 E94.21585
G1 X278.259 Y208.725 E95.0331
G1 X278.283 Y208.819 E95.0531
G1 X279.276 Y212.865 E95.9122
G1 X279.35 Y213.332 E96.0097
G1 X279.344 Y213.805 E96.10725
G1 X279.258 Y214.27 E96.20477
G1 X279.095 Y214.714 E96.3023
G1 X278.751 Y215.271 E96.4373
G1 X278.51 Y215.575 E96.5173
G1 X278.186 Y215.92 E96.6149
G1 X277.809 Y216.205 E96.71235
G1 X277.389 Y216.422 E96.80984
G1 X276.938 Y216.566 E96.90747
G1 X276.316 Y216.636 E97.03654
G1 X125.826 Y216.63 E128.06951
G1 X125.474 Y216.608 E128.14224
G1 X123.878 Y216.406 E128.47398
G1 X123.439 Y216.314 E128.56647
G1 X121.921 Y215.867 E128.8928
G1 X121.503 Y215.706 E128.98516
G1 X120.062 Y215.016 E129.31463
G1 X119.678 Y214.794 E129.40609
G1 X118.371 Y213.89 E129.7338
G1 X118.026 Y213.608 E129.82569
G1 X116.875 Y212.504 E130.15457
G1 X116.578 Y212.17 E130.24674
G1 X115.61 Y210.888 E130.578
G1 X115.368 Y210.506 E130.67125
G1 X114.625 Y209.096 E130.99991
G1 X114.45 Y208.688 E131.09146
G1 X113.939 Y207.177 E131.42038
G1 X113.83 Y206.747 E131.51186
G1 X113.566 Y205.185 E131.83853
G1 X113.527 Y204.741 E131.93044
G1 X113.514 Y203.15 E132.25853
G1 X113.546 Y202.702 E132.35115
G1 X113.79 Y201.112 E132.68287
G1 X113.893 Y200.68 E132.77445
G1 X114.381 Y199.163 E133.10306
G1 X114.553 Y198.745 E133.19627
G1 X115.276 Y197.331 E133.52376
G1 X115.508 Y196.954 E133.61505
G1 X116.45 Y195.665 E133.94427
G1 X116.741 Y195.327 E134.03624
G1 X117.871 Y194.208 E134.36418
G1 X118.213 Y193.92 E134.45638
G1 X119.507 Y192.995 E134.78439
G1 X119.789 Y192.818 E134.85305
G0 F1125 X120.173 Y193.519
G1 F900 X120.875 Y193.134 E135.01815
G1 X121.092 Y193.032 E135.0676
G1 X122.575 Y192.437 E135.3971
G1 X122.801 Y192.361 E135.44627
G1 X123.568 Y192.155 E135.61004
G1 X123.805 Y192.107 E135.65991
G1 X125.387 Y191.882 E135.98942
G1 X125.669 Y191.862 E136.04772
G1 X267.619 Y191.862 E165.31963
G1 X268.017 Y191.902 E165.40212
G1 X268.375 Y192.01 E165.47923
G1 X269.014 Y192.271 E165.62156
G1 X269.365 Y192.458 E165.70358
G1 X269.95 Y192.847 E165.84845
G1 X270.223 Y193.064 E165.92036
G1 X271.097 Y193.897 E166.16934
G1 X271.304 Y194.127 E166.23315
G1 X272.162 Y195.245 E166.52376
G1 X272.274 Y195.408 E166.56454
G1 X272.851 Y196.337 E166.79006
G1 X272.936 Y196.489 E166.82597
G1 X274.061 Y198.711 E167.33956
G1 X274.132 Y198.867 E167.3749
G1 X275.244 Y201.63 E167.98908
G1 X275.286 Y201.745 E168.01433
G1 X276.384 Y205.04 E168.73053
G1 X276.412 Y205.128 E168.74957
G1 X277.489 Y208.942 E169.56683
G1 X277.506 Y209.009 E169.58108
G1 X278.499 Y213.055 E170.44018
G1 X278.555 Y213.451 E170.52265
G1 X278.532 Y213.85 E170.60507
G1 X278.429 Y214.236 E170.68745
G1 X278.252 Y214.594 E170.7698
G1 X278.124 Y214.774 E170.81535
G1 X277.883 Y215.078 E170.89535
G1 X277.605 Y215.365 E170.97774
G1 X277.275 Y215.591 E171.06022
G1 X276.907 Y215.747 E171.14265
G1 X276.516 Y215.826 E171.2249
G1 X276.316 Y215.836 E171.2662
G1 X125.826 Y215.83 E202.29917
G1 X125.575 Y215.814 E202.35103
G1 X123.979 Y215.612 E202.68277
G1 X123.665 Y215.547 E202.7489
G1 X122.147 Y215.1 E203.07522
G1 X121.848 Y214.985 E203.14128
G1 X120.407 Y214.295 E203.47074
G1 X120.133 Y214.136 E203.53607
G1 X118.826 Y213.232 E203.86378
G1 X118.58 Y213.03 E203.92941
G1 X117.429 Y211.926 E204.2583
G1 X117.217 Y211.688 E204.32402
G1 X116.249 Y210.406 E204.65529
G1 X116.076 Y210.133 E204.72193
G1 X115.333 Y208.723 E205.05059
G1 X115.207 Y208.432 E205.11598
G1 X114.696 Y206.921 E205.44491
G1 X114.619 Y206.613 E205.51038
G1 X114.355 Y205.051 E205.83705
G1 X114.327 Y204.734 E205.90267
G1 X114.314 Y203.143 E206.23077
G1 X114.337 Y202.824 E206.29672
G1 X114.581 Y201.234 E206.62844
G1 X114.654 Y200.925 E206.69391
G1 X115.142 Y199.408 E207.02252
G1 X115.265 Y199.109 E207.08919
G1 X115.988 Y197.695 E207.41668
G1 X116.154 Y197.426 E207.48187
G1 X117.096 Y196.137 E207.81109
G1 X117.304 Y195.896 E207.87674
G1 X118.434 Y194.777 E208.20468
G1 X118.678 Y194.571 E208.27053
G1 X119.972 Y193.646 E208.59854
G1 X120.173 Y193.519 E208.64756
G0 F1125 X120.558 Y194.221
G1 F900 X121.26 Y193.836 E208.81267
G1 X121.39 Y193.774 E208.84237
G1 X122.873 Y193.179 E209.17188
G1 X123.009 Y193.134 E209.20142
G1 X123.776 Y192.928 E209.36519
G1 X123.918 Y192.899 E209.39507
G1 X125.5 Y192.674 E209.72459
G1 X125.669 Y192.662 E209.75952
G1 X267.619 Y192.662 E239.03144
G1 X267.926 Y192.702 E239.09528
G1 X268.073 Y192.751 E239.12723
G1 X268.712 Y193.012 E239.26957
G1 X268.922 Y193.124 E239.31865
G1 X269.507 Y193.513 E239.46352
G1 X269.671 Y193.643 E239.50667
G1 X270.545 Y194.476 E239.75565
G1 X270.669 Y194.614 E239.79391
G1 X271.527 Y195.732 E240.08452
G1 X271.594 Y195.83 E240.109
G1 X272.171 Y196.759 E240.33452
G1 X272.223 Y196.85 E240.35613
G1 X273.348 Y199.072 E240.86972
G1 X273.39 Y199.166 E240.89095
G1 X274.502 Y201.929 E241.50513
G1 X274.527 Y201.998 E241.52026
G1 X275.625 Y205.293 E242.23646
G1 X275.642 Y205.346 E242.24794
G1 X276.719 Y209.16 E243.06519
G1 X276.729 Y209.2 E243.0737
G1 X277.722 Y213.246 E243.93279
G1 X277.757 Y213.553 E243.99651
G1 X277.712 Y213.859 E244.06029
G1 X277.59 Y214.143 E244.12403
G1 X277.497 Y214.277 E244.15767
G1 X277.256 Y214.581 E244.23766
G1 X277.035 Y214.797 E244.30139
G1 X276.765 Y214.949 E244.36528
G1 X276.316 Y215.036 E244.45959
G1 X125.826 Y215.03 E275.49256
G1 X125.675 Y215.021 E275.52376
G1 X124.079 Y214.819 E275.8555
G1 X123.891 Y214.779 E275.89514
G1 X122.373 Y214.332 E276.22146
G1 X122.194 Y214.263 E276.26102
G1 X120.753 Y213.573 E276.59048
G1 X120.588 Y213.478 E276.62974
G1 X119.281 Y212.574 E276.95745
G1 X119.133 Y212.453 E276.99687
G1 X117.982 Y211.349 E277.32575
G1 X117.855 Y211.206 E277.36519
G1 X116.887 Y209.924 E277.69645
G1 X116.783 Y209.76 E277.7365
G1 X116.04 Y208.35 E278.06516
G1 X115.965 Y208.175 E278.10442
G1 X115.454 Y206.664 E278.43334
G1 X115.408 Y206.48 E278.47245
G1 X115.144 Y204.918 E278.79913
G1 X115.127 Y204.728 E278.83846
G1 X115.114 Y203.137 E279.16656
G1 X115.128 Y202.945 E279.20626
G1 X115.372 Y201.355 E279.53797
G1 X115.416 Y201.17 E279.57719
G1 X115.904 Y199.653 E279.9058
G1 X115.978 Y199.474 E279.94574
G1 X116.701 Y198.06 E280.27323
G1 X116.8 Y197.898 E280.31238
G1 X117.742 Y196.609 E280.64161
G1 X117.867 Y196.464 E280.68108
G1 X118.997 Y195.345 E281.00902
G1 X119.143 Y195.222 E281.04839
G1 X120.437 Y194.297 E281.3764
G1 X120.558 Y194.221 E281.40586
G0 F1125 X120.943 Y194.922
G1 F900 X121.645 Y194.537 E281.57096
G1 X121.688 Y194.517 E281.58074
G1 X123.171 Y193.922 E281.91025
G1 X123.216 Y193.907 E281.92003
G1 X123.983 Y193.701 E282.08381
G1 X124.031 Y193.691 E282.09392
G1 X125.613 Y193.466 E282.42343
G1 X125.669 Y193.462 E282.43501
G1 X267.619 Y193.462 E311.70692
G1 X267.77 Y193.492 E311.73866
G1 X268.409 Y193.753 E311.881
G1 X268.479 Y193.79 E311.89733
G1 X269.064 Y194.179 E312.0422
G1 X269.119 Y194.222 E312.0566
G1 X269.993 Y195.055 E312.30557
