;FLAVOR:Marlin
;TIME:1899
;Filament used: 5.90056m, 0m
;Layer height: 0.56
;Generated with Cura_SteamEngine master
T0
M140 S60
M105
M190 S60
M104 S200
M105
M109 S200
M82 ;absolute extrusion mode
;Sliced at: Sat 18-05-2019 12:09:44


G21 ;metric values
M107
G28
M420 S1
G90 ;absolute positioning
G92 E0; reset extruder distance
G1 Z5 F2000 ;move nozzle up 5mm for safe homing
G1 X0 Y0 F5000; move nozzle to home
M190 S60 ;Uncomment to add your own bed temperature line
M109 S200 ;Uncomment to add your own temperature line
G29	;ABL
M82 ;set extruder to absolute mode
M107 ;start with the fan off
G1 Z15.0 F{travel_speed} ;move the platform down 15mm
G92 E0 ;zero the extruded length
G1 F200 E3 ;extrude 3mm of feed stock
G92 E0 ;zero the extruded length again
G1 F{travel_speed}
M117 Printing...
G92 E0
G1 F2400 E-0.5
;LAYER_COUNT:2
;LAYER:0
M107
G0 F2000 X2.561 Y2.649 Z0.31
;TYPE:SKIRT
G1 F2400 E0
G1 F1200 X2.951 Y2.303 E0.05376
G1 X3.389 Y2.02 E0.10752
G1 X3.864 Y1.807 E0.1612
G1 X4.367 Y1.67 E0.21495
G1 X5.009 Y1.609 E0.28144
G1 X53.744 Y1.61 E5.30633
G1 X54.264 Y1.65 E5.36011
G1 X54.771 Y1.769 E5.4138
G1 X55.254 Y1.964 E5.46751
G1 X55.751 Y2.265 E5.52742
G1 X59.4 Y4.933 E5.99349
G1 X63.96 Y7.928 E6.556
G1 X68.696 Y10.668 E7.12015
G1 X73.577 Y13.135 E7.68404
G1 X78.604 Y15.328 E8.24953
G1 X81.137 Y16.307 E8.52952
G1 X86.291 Y18.052 E9.09057
G1 X91.567 Y19.512 E9.655
G1 X96.958 Y20.681 E10.22377
G1 X99.577 Y21.131 E10.49776
G1 X105.025 Y21.836 E11.06417
G1 X110.457 Y22.227 E11.62569
G1 X115.942 Y22.313 E12.1913
G1 X121.384 Y22.088 E12.75288
G1 X126.827 Y21.554 E13.31678
G1 X132.271 Y20.708 E13.88483
G1 X134.881 Y20.188 E14.15923
G1 X137.544 Y19.579 E14.44089
G1 X142.834 Y18.13 E15.00641
G1 X148.048 Y16.379 E15.57352
G1 X150.513 Y15.435 E15.84567
G1 X155.578 Y13.239 E16.41488
G1 X160.481 Y10.778 E16.98052
G1 X165.194 Y8.066 E17.54117
G1 X169.783 Y5.07 E18.10623
G1 X173.632 Y2.262 E18.59748
G1 X174.076 Y1.988 E18.65127
G1 X174.555 Y1.785 E18.70491
G1 X175.061 Y1.658 E18.7587
G1 X175.636 Y1.609 E18.8182
G1 X224.372 Y1.611 E23.8432
G1 X224.892 Y1.651 E23.89697
G1 X225.399 Y1.77 E23.95067
G1 X225.882 Y1.965 E24.00437
G1 X226.341 Y2.239 E24.05949
G1 X232.297 Y6.47 E24.81277
G1 X236.938 Y9.333 E25.37501
G1 X241.74 Y11.934 E25.93809
G1 X246.692 Y14.263 E26.50233
G1 X251.792 Y16.32 E27.06933
G1 X254.309 Y17.21 E27.3446
G1 X259.553 Y18.822 E27.91025
G1 X264.884 Y20.136 E28.47637
G1 X267.54 Y20.674 E28.75578
G1 X270.202 Y21.131 E29.03426
G1 X275.65 Y21.836 E29.60067
G1 X281.082 Y22.227 E30.16219
G1 X286.567 Y22.313 E30.7278
G1 X292.009 Y22.088 E31.28939
G1 X297.452 Y21.554 E31.85329
G1 X302.896 Y20.708 E32.42134
G1 X305.506 Y20.188 E32.69573
G1 X308.169 Y19.579 E32.97739
G1 X313.459 Y18.13 E33.54292
G1 X318.673 Y16.379 E34.11002
G1 X321.138 Y15.435 E34.38218
G1 X326.203 Y13.239 E34.95138
G1 X331.106 Y10.778 E35.51702
G1 X335.819 Y8.066 E36.07767
G1 X340.408 Y5.07 E36.64274
G1 X344.257 Y2.262 E37.13398
G1 X344.701 Y1.988 E37.18778
G1 X345.18 Y1.785 E37.24142
G1 X345.686 Y1.658 E37.29521
G1 X346.261 Y1.609 E37.35471
G1 X394.991 Y1.609 E42.37908
G1 X395.511 Y1.649 E42.43286
G1 X396.018 Y1.768 E42.48655
G1 X396.501 Y1.963 E42.54026
G1 X396.949 Y2.229 E42.59398
G1 X397.351 Y2.561 E42.64774
G1 X397.697 Y2.951 E42.70149
G1 X397.98 Y3.389 E42.75526
G1 X398.193 Y3.864 E42.80893
G1 X398.33 Y4.367 E42.86268
G1 X398.391 Y5.009 E42.92918
G1 X398.39 Y53.747 E47.95438
G1 X398.35 Y54.267 E48.00815
G1 X398.231 Y54.774 E48.06185
G1 X398.036 Y55.257 E48.11555
G1 X397.761 Y55.717 E48.17081
G1 X393.53 Y61.67 E48.92384
G1 X390.667 Y66.313 E49.48626
G1 X388.066 Y71.115 E50.04934
G1 X385.737 Y76.067 E50.61357
G1 X383.68 Y81.167 E51.18058
G1 X382.79 Y83.684 E51.45584
G1 X381.178 Y88.928 E52.0215
G1 X379.864 Y94.259 E52.58761
G1 X379.326 Y96.915 E52.86702
G1 X378.869 Y99.577 E53.14551
G1 X378.164 Y105.025 E53.71191
G1 X377.773 Y110.457 E54.27344
G1 X377.687 Y115.942 E54.83905
G1 X377.912 Y121.384 E55.40063
G1 X378.446 Y126.827 E55.96453
G1 X379.292 Y132.271 E56.53258
G1 X379.812 Y134.881 E56.80698
G1 X380.421 Y137.544 E57.08864
G1 X381.87 Y142.834 E57.65416
G1 X383.621 Y148.048 E58.22127
G1 X384.565 Y150.513 E58.49342
G1 X386.764 Y155.586 E59.06351
G1 X389.213 Y160.465 E59.62638
G1 X391.938 Y165.201 E60.18976
G1 X394.93 Y169.784 E60.75408
G1 X397.736 Y173.625 E61.24453
G1 X398.01 Y174.068 E61.29824
G1 X398.213 Y174.548 E61.35197
G1 X398.341 Y175.053 E61.40569
G1 X398.39 Y175.63 E61.4654
G1 X398.39 Y224.371 E66.49091
G1 X398.35 Y224.891 E66.54468
G1 X398.231 Y225.398 E66.59837
G1 X398.036 Y225.881 E66.65208
G1 X397.762 Y226.34 E66.7072
G1 X393.529 Y232.298 E67.46076
G1 X390.667 Y236.938 E68.02287
G1 X388.066 Y241.74 E68.58595
G1 X385.737 Y246.692 E69.15018
G1 X383.68 Y251.792 E69.71718
G1 X382.79 Y254.309 E69.99245
G1 X381.178 Y259.553 E70.55811
G1 X379.864 Y264.884 E71.12422
G1 X379.326 Y267.54 E71.40363
G1 X378.869 Y270.202 E71.68212
G1 X378.164 Y275.65 E72.24852
G1 X377.773 Y281.082 E72.81005
G1 X377.687 Y286.567 E73.37566
G1 X377.912 Y292.009 E73.93724
G1 X378.446 Y297.452 E74.50114
G1 X379.292 Y302.896 E75.06919
G1 X379.812 Y305.506 E75.34359
G1 X380.421 Y308.169 E75.62525
G1 X381.87 Y313.459 E76.19077
G1 X383.621 Y318.673 E76.75788
G1 X384.565 Y321.138 E77.03003
G1 X386.764 Y326.211 E77.60012
G1 X389.213 Y331.09 E78.16299
G1 X391.938 Y335.826 E78.72636
G1 X394.93 Y340.409 E79.29069
G1 X397.736 Y344.25 E79.78114
G1 X398.01 Y344.693 E79.83485
G1 X398.213 Y345.173 E79.88858
G1 X398.341 Y345.678 E79.9423
G1 X398.39 Y346.255 E80.00201
G1 X398.39 Y394.991 E85.027
G1 X398.35 Y395.511 E85.08077
G1 X398.231 Y396.018 E85.13447
G1 X398.036 Y396.501 E85.18817
G1 X397.77 Y396.949 E85.2419
G1 X397.438 Y397.351 E85.29565
G1 X397.048 Y397.697 E85.34941
G1 X396.61 Y397.98 E85.40317
G1 X396.135 Y398.193 E85.45685
G1 X395.632 Y398.33 E85.5106
G1 X394.99 Y398.391 E85.57709
G1 X346.254 Y398.39 E90.60209
G1 X345.734 Y398.35 E90.65586
G1 X345.227 Y398.231 E90.70956
G1 X344.744 Y398.036 E90.76326
G1 X344.285 Y397.762 E90.81838
G1 X338.328 Y393.53 E91.5718
G1 X333.687 Y390.667 E92.13405
G1 X328.885 Y388.066 E92.69713
G1 X323.933 Y385.737 E93.26136
G1 X318.833 Y383.68 E93.82836
G1 X316.316 Y382.79 E94.10363
G1 X311.072 Y381.178 E94.66929
G1 X305.741 Y379.864 E95.2354
G1 X303.085 Y379.326 E95.51481
G1 X300.423 Y378.869 E95.7933
G1 X294.975 Y378.164 E96.3597
G1 X289.543 Y377.773 E96.92123
G1 X284.058 Y377.687 E97.48684
G1 X278.616 Y377.912 E98.04842
G1 X273.173 Y378.446 E98.61232
G1 X267.729 Y379.292 E99.18037
G1 X265.119 Y379.812 E99.45477
G1 X262.456 Y380.421 E99.73643
G1 X257.166 Y381.87 E100.30195
G1 X251.952 Y383.621 E100.86906
G1 X249.487 Y384.565 E101.14121
G1 X244.422 Y386.761 E101.71042
G1 X239.519 Y389.222 E102.27606
G1 X234.806 Y391.934 E102.83671
G1 X230.217 Y394.93 E103.40177
G1 X226.368 Y397.738 E103.89302
G1 X225.924 Y398.012 E103.94681
G1 X225.445 Y398.215 E104.00045
G1 X224.939 Y398.342 E104.05424
G1 X224.364 Y398.391 E104.11374
G1 X175.629 Y398.39 E109.13863
G1 X175.109 Y398.35 E109.19241
G1 X174.602 Y398.231 E109.2461
G1 X174.119 Y398.036 E109.29981
G1 X173.66 Y397.762 E109.35492
G1 X167.703 Y393.53 E110.10835
G1 X163.062 Y390.667 E110.67059
G1 X158.26 Y388.066 E111.23367
G1 X153.308 Y385.737 E111.79791
G1 X148.208 Y383.68 E112.36491
G1 X145.691 Y382.79 E112.64017
G1 X140.447 Y381.178 E113.20583
G1 X135.116 Y379.864 E113.77195
G1 X132.46 Y379.326 E114.05136
G1 X129.798 Y378.869 E114.32984
G1 X124.35 Y378.164 E114.89625
G1 X118.918 Y377.773 E115.45777
G1 X113.433 Y377.687 E116.02338
G1 X107.991 Y377.912 E116.58497
G1 X102.548 Y378.446 E117.14887
G1 X97.104 Y379.292 E117.71692
G1 X94.494 Y379.812 E117.99131
G1 X91.831 Y380.421 E118.27297
G1 X86.541 Y381.87 E118.8385
G1 X81.327 Y383.621 E119.4056
G1 X78.862 Y384.565 E119.67776
G1 X73.797 Y386.761 E120.24696
G1 X68.894 Y389.222 E120.8126
G1 X64.181 Y391.934 E121.37325
G1 X59.592 Y394.93 E121.93832
G1 X55.743 Y397.738 E122.42956
G1 X55.299 Y398.012 E122.48336
G1 X54.82 Y398.215 E122.537
G1 X54.314 Y398.342 E122.59079
G1 X53.739 Y398.391 E122.65029
G1 X5.009 Y398.391 E127.67466
G1 X4.489 Y398.351 E127.72844
G1 X3.982 Y398.232 E127.78213
G1 X3.499 Y398.037 E127.83584
G1 X3.051 Y397.771 E127.88956
G1 X2.649 Y397.439 E127.94331
G1 X2.303 Y397.049 E127.99707
G1 X2.02 Y396.611 E128.05084
G1 X1.807 Y396.136 E128.10451
G1 X1.67 Y395.633 E128.15826
G1 X1.609 Y394.991 E128.22476
G1 X1.61 Y346.253 E133.24996
G1 X1.65 Y345.733 E133.30373
G1 X1.769 Y345.226 E133.35743
G1 X1.964 Y344.743 E133.41113
G1 X2.266 Y344.245 E133.47118
G1 X4.931 Y340.603 E133.93649
G1 X7.928 Y336.04 E134.49937
G1 X10.668 Y331.304 E135.06352
G1 X13.135 Y326.423 E135.62741
G1 X15.328 Y321.396 E136.1929
G1 X16.307 Y318.863 E136.4729
G1 X18.052 Y313.709 E137.03394
G1 X19.512 Y308.433 E137.59837
G1 X20.681 Y303.042 E138.16714
G1 X21.131 Y300.423 E138.44113
G1 X21.836 Y294.975 E139.00754
G1 X22.227 Y289.543 E139.56906
G1 X22.313 Y284.058 E140.13467
G1 X22.088 Y278.616 E140.69625
G1 X21.554 Y273.173 E141.26016
G1 X20.708 Y267.729 E141.8282
G1 X20.188 Y265.119 E142.1026
G1 X19.579 Y262.456 E142.38426
G1 X18.13 Y257.166 E142.94979
G1 X16.379 Y251.952 E143.51689
G1 X15.435 Y249.487 E143.78905
G1 X13.233 Y244.406 E144.36001
G1 X10.786 Y239.533 E144.92224
G1 X8.066 Y234.806 E145.48455
G1 X5.07 Y230.217 E146.04962
G1 X2.262 Y226.368 E146.54086
G1 X1.988 Y225.924 E146.59465
G1 X1.785 Y225.445 E146.64829
G1 X1.658 Y224.939 E146.70208
G1 X1.609 Y224.364 E146.76158
G1 X1.61 Y175.628 E151.78658
G1 X1.65 Y175.108 E151.84035
G1 X1.769 Y174.601 E151.89405
G1 X1.964 Y174.118 E151.94775
G1 X2.266 Y173.62 E152.00781
G1 X4.931 Y169.978 E152.47312
G1 X7.928 Y165.415 E153.036
G1 X10.668 Y160.679 E153.60014
G1 X13.135 Y155.798 E154.16403
G1 X15.328 Y150.771 E154.72952
G1 X16.307 Y148.238 E155.00952
G1 X18.052 Y143.084 E155.57056
G1 X19.512 Y137.808 E156.135
G1 X20.681 Y132.417 E156.70376
G1 X21.131 Y129.798 E156.97775
G1 X21.836 Y124.35 E157.54416
G1 X22.227 Y118.918 E158.10568
G1 X22.313 Y113.433 E158.67129
G1 X22.088 Y107.991 E159.23288
G1 X21.554 Y102.548 E159.79678
G1 X20.708 Y97.104 E160.36483
G1 X20.188 Y94.494 E160.63922
G1 X19.579 Y91.831 E160.92089
G1 X18.13 Y86.541 E161.48641
G1 X16.379 Y81.327 E162.05351
G1 X15.435 Y78.862 E162.32567
G1 X13.233 Y73.781 E162.89663
G1 X10.786 Y68.908 E163.45886
G1 X8.066 Y64.181 E164.02117
G1 X5.07 Y59.592 E164.58624
G1 X2.262 Y55.743 E165.07748
G1 X1.988 Y55.299 E165.13128
G1 X1.785 Y54.82 E165.18492
G1 X1.658 Y54.314 E165.23871
G1 X1.609 Y53.739 E165.29821
G1 X1.609 Y5.009 E170.32258
G1 X1.649 Y4.489 E170.37636
G1 X1.768 Y3.982 E170.43005
G1 X1.963 Y3.499 E170.48376
G1 X2.229 Y3.051 E170.53748
G1 X2.561 Y2.649 E170.59124
G1 F2400 E170.09124
;MESH:BedLeveling.stl
G0 F2000 X48.475 Y48.475
;TYPE:WALL-OUTER
G1 F2400 E170.59124
G1 F1200 X10.275 Y48.475 E174.5299
G1 X10.275 Y10.275 E178.46857
G1 X48.475 Y10.275 E182.40723
G1 X48.475 Y48.475 E186.3459
G0 F2000 X48.075 Y48.475
G0 X47.685 Y47.685
;TYPE:SKIN
G1 F1200 X11.065 Y47.685 E190.12165
G1 X11.065 Y11.065 E193.89741
G1 X47.685 Y11.065 E197.67317
G1 X47.685 Y47.685 E201.44892
G1 F2400 E200.94892
G0 F2000 X47.324 Y12.252
G1 F2400 E201.44892
G1 F1200 X46.497 Y11.424 E201.56959
G0 F2000 X45.365 Y11.424
G1 F1200 X47.324 Y13.383 E201.85524
G0 F2000 X47.324 Y14.514
G1 F1200 X44.234 Y11.424 E202.3058
G0 F2000 X43.103 Y11.424
G1 F1200 X47.324 Y15.646 E202.92136
G0 F2000 X47.324 Y16.777
G1 F1200 X41.971 Y11.424 E203.7019
G0 F2000 X40.84 Y11.424
G1 F1200 X47.324 Y17.908 E204.64737
G0 F2000 X47.324 Y19.04
G1 F1200 X39.708 Y11.424 E205.75789
G0 F2000 X38.577 Y11.424
G1 F1200 X47.324 Y20.171 E207.03333
G0 F2000 X47.324 Y21.303
G1 F1200 X37.446 Y11.424 E208.47376
G0 F2000 X36.314 Y11.424
G1 F1200 X47.324 Y22.434 E210.07917
G0 F2000 X47.324 Y23.565
G1 F1200 X35.183 Y11.424 E211.84951
G0 F2000 X34.052 Y11.424
G1 F1200 X47.324 Y24.697 E213.78483
G0 F2000 X47.324 Y25.828
G1 F1200 X32.92 Y11.424 E215.88514
G0 F2000 X31.789 Y11.424
G1 F1200 X47.324 Y26.959 E218.15037
G0 F2000 X47.324 Y28.091
G1 F1200 X30.658 Y11.424 E220.58059
G0 F2000 X29.526 Y11.424
G1 F1200 X47.324 Y29.222 E223.17579
G0 F2000 X47.324 Y30.353
G1 F1200 X28.395 Y11.424 E225.93592
G0 F2000 X27.263 Y11.424
G1 F1200 X47.324 Y31.485 E228.8611
G0 F2000 X47.324 Y32.616
G1 F1200 X26.132 Y11.424 E231.9512
G0 F2000 X25.001 Y11.424
G1 F1200 X47.324 Y33.748 E235.20629
G0 F2000 X47.324 Y34.879
G1 F1200 X23.869 Y11.424 E238.62637
G0 F2000 X22.738 Y11.424
G1 F1200 X47.324 Y36.01 E242.21137
G0 F2000 X47.324 Y37.142
G1 F1200 X21.607 Y11.424 E245.96135
G0 F2000 X20.475 Y11.424
G1 F1200 X47.324 Y38.273 E249.87632
G0 F2000 X47.324 Y39.404
G1 F1200 X19.344 Y11.424 E253.95621
G0 F2000 X18.212 Y11.424
G1 F1200 X47.324 Y40.536 E258.20117
G0 F2000 X47.324 Y41.667
G1 F1200 X17.081 Y11.424 E262.61103
G0 F2000 X15.95 Y11.424
G1 F1200 X47.324 Y42.799 E267.18589
G0 F2000 X47.324 Y43.93
G1 F1200 X14.818 Y11.424 E271.92574
G0 F2000 X13.687 Y11.424
G1 F1200 X47.324 Y45.061 E276.8305
G0 F2000 X47.324 Y46.193
G1 F1200 X12.556 Y11.424 E281.90025
G0 F2000 X11.424 Y11.424
G1 F1200 X47.324 Y47.324 E287.13499
G0 F2000 X46.193 Y47.324
G1 F1200 X11.424 Y12.556 E292.20474
G0 F2000 X11.424 Y13.687
G1 F1200 X45.061 Y47.324 E297.1095
G0 F2000 X43.93 Y47.324
G1 F1200 X11.424 Y14.818 E301.84935
G0 F2000 X11.424 Y15.95
G1 F1200 X42.799 Y47.324 E306.42421
G0 F2000 X41.667 Y47.324
G1 F1200 X11.424 Y17.081 E310.83407
G0 F2000 X11.424 Y18.212
G1 F1200 X40.536 Y47.324 E315.07903
G0 F2000 X39.404 Y47.324
G1 F1200 X11.424 Y19.344 E319.15892
G0 F2000 X11.424 Y20.475
G1 F1200 X38.273 Y47.324 E323.07389
G0 F2000 X37.142 Y47.324
G1 F1200 X11.424 Y21.607 E326.82387
G0 F2000 X11.424 Y22.738
G1 F1200 X36.01 Y47.324 E330.40887
G0 F2000 X34.879 Y47.324
G1 F1200 X11.424 Y23.869 E333.82895
G0 F2000 X11.424 Y25.001
G1 F1200 X33.748 Y47.324 E337.08404
G0 F2000 X32.616 Y47.324
G1 F1200 X11.424 Y26.132 E340.17414
G0 F2000 X11.424 Y27.263
G1 F1200 X31.485 Y47.324 E343.09932
G0 F2000 X30.353 Y47.324
G1 F1200 X11.424 Y28.395 E345.85945
G0 F2000 X11.424 Y29.526
G1 F1200 X29.222 Y47.324 E348.45465
G0 F2000 X28.091 Y47.324
G1 F1200 X11.424 Y30.658 E350.88487
G0 F2000 X11.424 Y31.789
G1 F1200 X26.959 Y47.324 E353.1501
G0 F2000 X25.828 Y47.324
G1 F1200 X11.424 Y32.92 E355.25041
G0 F2000 X11.424 Y34.052
G1 F1200 X24.697 Y47.324 E357.18573
G0 F2000 X23.565 Y47.324
G1 F1200 X11.424 Y35.183 E358.95607
G0 F2000 X11.424 Y36.314
G1 F1200 X22.434 Y47.324 E360.56148
G0 F2000 X21.303 Y47.324
G1 F1200 X11.424 Y37.446 E362.00191
G0 F2000 X11.424 Y38.577
G1 F1200 X20.171 Y47.324 E363.27735
G0 F2000 X19.04 Y47.324
G1 F1200 X11.424 Y39.708 E364.38787
G0 F2000 X11.424 Y40.84
G1 F1200 X17.908 Y47.324 E365.33334
G0 F2000 X16.777 Y47.324
G1 F1200 X11.424 Y41.971 E366.11388
G0 F2000 X11.424 Y43.103
G1 F1200 X15.646 Y47.324 E366.72944
G0 F2000 X14.514 Y47.324
G1 F1200 X11.424 Y44.234 E367.18
G0 F2000 X11.424 Y45.365
G1 F1200 X13.383 Y47.324 E367.46565
G0 F2000 X12.252 Y47.324
G1 F1200 X11.424 Y46.497 E367.58632
G1 F2400 E367.08632
G0 F2000 X5.819 Y5.819
;TYPE:WALL-OUTER
G1 F2400 E367.58632
G1 F1200 X5.819 Y52.931 E372.44387
G1 X52.931 Y52.931 E377.30141
G1 X52.931 Y5.819 E382.15896
G1 X5.819 Y5.819 E387.01651
G0 F2000 X5.819 Y6.219
G1 F2400 E386.51651
G0 F2000 X53.35 Y5.819
G1 F2400 E387.01651
G1 F1200 X53.35 Y52.931 E389.56066
G1 X53.35 Y53.35 E389.59591
G1 X52.931 Y53.35 E389.63116
G1 X5.819 Y53.35 E392.1753
G1 X5.4 Y53.35 E392.21055
G1 X5.4 Y52.931 E392.2458
G1 X5.4 Y5.819 E394.78994
G1 X5.4 Y5.4 E394.82519
G1 X5.819 Y5.4 E394.86044
G1 X52.931 Y5.4 E397.40458
G1 X53.35 Y5.4 E397.43983
G1 X53.35 Y5.819 E397.47508
G0 F2000 X53.35 Y6.219
G1 F2400 E396.97508
G0 F2000 X48.475 Y219.1
G1 F2400 E397.47508
G1 F1200 X10.275 Y219.1 E401.41374
G1 X10.275 Y180.9 E405.35241
G1 X48.475 Y180.9 E409.29108
G1 X48.475 Y219.1 E413.22974
G0 F2000 X48.075 Y219.1
G0 X47.685 Y218.31
;TYPE:SKIN
G1 F1200 X11.065 Y218.31 E417.0055
G1 X11.065 Y181.69 E420.78125
G1 X47.685 Y181.69 E424.55701
G1 X47.685 Y218.31 E428.33277
G1 F2400 E427.83277
G0 F2000 X47.325 Y183.089
G1 F2400 E428.33277
G1 F1200 X46.285 Y182.049 E428.48442
G0 F2000 X45.153 Y182.049
